FangmingXie/SingleCellFusion_dev/example_l5pt/results/intg_summary_test_scf_mouse_mop.tsv
sample	cluster_joint_r0.1	cluster_joint_r0.2	cluster_joint_r0.4	cluster_joint_r0.8	tsne_x	tsne_y	modality
snmcseq_gene_2C_M_1054	1	3	3	2	4.723475743548793	1.9807593139427384	snmcseq_gene
snmcseq_gene_2C_M_106	1	3	3	2	5.327195965631843	0.9640071313185682	snmcseq_gene
snmcseq_gene_2C_M_1076	1	3	3	2	5.701009485668536	2.959795738590681	snmcseq_gene
snmcseq_gene_2C_M_1078	1	2	2	1	3.281224589632294	-2.1754635501253023	snmcseq_gene
snmcseq_gene_2C_M_1110	1	2	2	1	5.85989484141583	-3.2981228359601573	snmcseq_gene
snmcseq_gene_2C_M_1152	1	3	3	2	6.2963094578140355	1.4083701659831733	snmcseq_gene
snmcseq_gene_2C_M_1238	1	2	2	1	4.03111684143217	-3.1858510049306887	snmcseq_gene
snmcseq_gene_2C_M_1279	1	3	3	2	6.454608312608504	2.706947525592503	snmcseq_gene
snmcseq_gene_2C_M_1359	1	2	2	1	2.8410585860367474	-5.09225481638127	snmcseq_gene
snmcseq_gene_2C_M_1392	2	1	1	3	-3.23513302273727	-0.7536895753748586	snmcseq_gene
snmcseq_gene_2C_M_1398	1	3	3	2	4.123824990934778	1.1550827473255567	snmcseq_gene
snmcseq_gene_2C_M_1446	1	3	3	2	5.113056548587104	-0.0417565461345497	snmcseq_gene
snmcseq_gene_2C_M_1540	2	1	1	4	-3.878607057603334	0.7294546539173044	snmcseq_gene
snmcseq_gene_2C_M_1559	1	3	3	2	4.829226716116226	1.3484451334692518	snmcseq_gene
snmcseq_gene_2C_M_1563	1	3	3	2	6.083789295669275	1.3676739110900158	snmcseq_gene
snmcseq_gene_2C_M_1599	1	2	2	1	2.7303320236883857	-1.846320884618993	snmcseq_gene
snmcseq_gene_2C_M_1610	1	3	3	2	3.8934100632724284	2.3536973425038314	snmcseq_gene
snmcseq_gene_2C_M_1644	2	1	1	3	-3.2065553664823945	-0.8642111963874995	snmcseq_gene
snmcseq_gene_2C_M_1678	1	3	3	2	3.6576391036306184	0.04390214261952729	snmcseq_gene
snmcseq_gene_2C_M_1697	1	3	3	2	3.1906812420212876	1.1619517353726392	snmcseq_gene
snmcseq_gene_2C_M_1758	1	3	3	2	3.7256756329223153	0.7140004739238646	snmcseq_gene
snmcseq_gene_2C_M_1793	1	3	3	2	6.334792096527003	0.9894932779971519	snmcseq_gene
snmcseq_gene_2C_M_1808	1	2	2	1	3.3771476704875596	-4.933318589863182	snmcseq_gene
snmcseq_gene_2C_M_1844	2	1	3	3	1.4829420128637507	1.713687587197647	snmcseq_gene
snmcseq_gene_2C_M_1913	1	2	2	1	4.865646542235148	-2.456262089140299	snmcseq_gene
snmcseq_gene_2C_M_1989	1	2	2	1	1.8788291488384767	-5.0349093201079	snmcseq_gene
snmcseq_gene_2C_M_1990	1	3	3	2	1.777883986167969	1.8666167578604616	snmcseq_gene
snmcseq_gene_2C_M_2014	1	3	3	2	5.121507842178034	3.189658972238172	snmcseq_gene
snmcseq_gene_2C_M_2025	1	2	2	1	4.559448086864222	-3.287972729981247	snmcseq_gene
snmcseq_gene_2C_M_2039	1	3	3	2	3.3196562982044147	1.8512654893311282	snmcseq_gene
snmcseq_gene_2C_M_2062	1	3	3	2	3.6282155801396243	2.0995925951581946	snmcseq_gene
snmcseq_gene_2C_M_2064	2	1	1	4	-3.3664963428827943	2.6138988524923596	snmcseq_gene
snmcseq_gene_2C_M_2192	1	2	2	1	3.9589246802723377	-3.633293052238015	snmcseq_gene
snmcseq_gene_2C_M_2205	2	1	1	3	-2.88025110927432	-0.6871037374713985	snmcseq_gene
snmcseq_gene_2C_M_244	1	2	2	1	2.594628170109828	-1.415384833207714	snmcseq_gene
snmcseq_gene_2C_M_248	1	2	3	2	3.1163203056255186	-0.38106970271736745	snmcseq_gene
snmcseq_gene_2C_M_260	1	3	3	2	6.6899937496643345	2.708096275027728	snmcseq_gene
snmcseq_gene_2C_M_272	1	3	3	2	3.9359665162011255	1.0135589181709652	snmcseq_gene
snmcseq_gene_2C_M_296	1	2	2	1	4.206935804958496	-4.561915228001964	snmcseq_gene
snmcseq_gene_2C_M_396	1	3	3	2	3.4925416749249187	1.0042307575152554	snmcseq_gene
snmcseq_gene_2C_M_411	1	2	2	1	5.179200353312192	-2.1925829979197786	snmcseq_gene
snmcseq_gene_2C_M_412	1	3	3	2	5.375186355729066	-0.2202601082221053	snmcseq_gene
snmcseq_gene_2C_M_454	1	3	3	2	6.3015469274153695	3.06971171216262	snmcseq_gene
snmcseq_gene_2C_M_464	2	1	1	4	-3.838700458970893	0.1120793328338444	snmcseq_gene
snmcseq_gene_2C_M_525	1	3	3	2	5.365209796830918	2.820642688309613	snmcseq_gene
snmcseq_gene_2C_M_574	1	3	3	2	2.4315752047305828	1.475053054111907	snmcseq_gene
snmcseq_gene_2C_M_608	1	3	3	2	4.269704452931857	2.1519561241763587	snmcseq_gene
snmcseq_gene_2C_M_676	2	1	1	3	-2.138039702813697	-1.7278441211466624	snmcseq_gene
snmcseq_gene_2C_M_726	1	3	3	2	5.218077260419692	1.945090568535586	snmcseq_gene
snmcseq_gene_2C_M_760	1	2	2	1	4.3547762456308305	-3.1290762758007666	snmcseq_gene
snmcseq_gene_2C_M_806	1	3	3	2	5.071980514236868	0.9056914833446423	snmcseq_gene
snmcseq_gene_2C_M_82	1	3	3	2	4.546835859585204	0.48052617559825844	snmcseq_gene
snmcseq_gene_2C_M_921	1	3	3	2	2.0774552191092797	0.9077558783416128	snmcseq_gene
snmcseq_gene_2C_M_942	1	2	2	1	5.341922115829241	-3.4135551993439313	snmcseq_gene
snmcseq_gene_2C_M_972	1	3	3	2	5.879064810806537	2.126986645099973	snmcseq_gene
snmcseq_gene_2C_M_976	2	1	1	3	-0.11871946702098088	2.3076390370940176	snmcseq_gene
snmcseq_gene_3C_M_1026	2	1	1	3	-0.9224806380998024	1.537276357826452	snmcseq_gene
snmcseq_gene_3C_M_1060	2	1	1	3	-3.05331538680241	-1.3360751406263256	snmcseq_gene
snmcseq_gene_3C_M_1065	1	2	2	1	5.043568843711164	-4.5239861420709895	snmcseq_gene
snmcseq_gene_3C_M_1087	1	2	2	1	3.2190391005007584	-5.252408735420586	snmcseq_gene
snmcseq_gene_3C_M_111	1	3	3	2	3.4005118483182244	1.3439966513990347	snmcseq_gene
snmcseq_gene_3C_M_1123	1	2	2	1	4.7712966812242525	-3.3488627943742824	snmcseq_gene
snmcseq_gene_3C_M_1137	1	2	2	1	3.196140253857974	-2.704373185774047	snmcseq_gene
snmcseq_gene_3C_M_116	1	2	2	1	4.379727910936048	-3.955915950935386	snmcseq_gene
snmcseq_gene_3C_M_1178	2	1	1	3	-1.4020672306450364	-1.6999441742378816	snmcseq_gene
snmcseq_gene_3C_M_1186	2	1	1	3	-2.488931739425376	-1.0038676186642275	snmcseq_gene
snmcseq_gene_3C_M_1189	1	3	3	2	5.2944458700218275	0.21411564014831266	snmcseq_gene
snmcseq_gene_3C_M_1211	1	2	2	1	4.7602658372876	-3.961721422814725	snmcseq_gene
snmcseq_gene_3C_M_1301	2	1	1	4	-3.5074839649962466	0.66744914996582	snmcseq_gene
snmcseq_gene_3C_M_1330	1	3	3	2	5.393923205354505	3.116457162964947	snmcseq_gene
snmcseq_gene_3C_M_1342	1	2	2	1	2.073418115025641	-5.174356026437643	snmcseq_gene
snmcseq_gene_3C_M_1355	1	3	3	2	4.784071845876758	2.757021937343553	snmcseq_gene
snmcseq_gene_3C_M_1405	1	3	3	2	5.618198774539227	2.8653633986449227	snmcseq_gene
snmcseq_gene_3C_M_1416	1	3	3	2	5.736209480466234	1.7035594216680938	snmcseq_gene
snmcseq_gene_3C_M_1476	1	3	3	2	4.723983294710558	3.0042268617914263	snmcseq_gene
snmcseq_gene_3C_M_1487	2	1	1	3	0.1842665718807998	2.351908556900377	snmcseq_gene
snmcseq_gene_3C_M_1493	2	1	1	4	-0.9872477815383967	2.67121225779751	snmcseq_gene
snmcseq_gene_3C_M_1548	2	1	1	3	-2.461685790247544	-1.542435460446893	snmcseq_gene
snmcseq_gene_3C_M_1571	1	3	3	2	3.4716873694745565	2.02002212125345	snmcseq_gene
snmcseq_gene_3C_M_1579	1	3	3	2	5.037533813027253	1.991510995282234	snmcseq_gene
snmcseq_gene_3C_M_1596	1	2	2	1	5.4597127934869025	-1.5949256903950153	snmcseq_gene
snmcseq_gene_3C_M_1631	1	3	3	2	2.833427573121785	1.0585545785223809	snmcseq_gene
snmcseq_gene_3C_M_1638	1	3	3	2	3.8659250824705573	2.2285574598480102	snmcseq_gene
snmcseq_gene_3C_M_1639	1	2	2	1	5.0659750110165	-0.6981227510778256	snmcseq_gene
snmcseq_gene_3C_M_1648	2	1	1	3	-2.445684283617437	-1.8007817936124109	snmcseq_gene
snmcseq_gene_3C_M_1736	1	2	2	1	3.6361708565729307	-3.9313874363595827	snmcseq_gene
snmcseq_gene_3C_M_1787	1	2	2	1	5.697048991818626	-3.0267976228012947	snmcseq_gene
snmcseq_gene_3C_M_1846	1	2	2	1	4.458890149907834	-3.605550114775793	snmcseq_gene
snmcseq_gene_3C_M_187	2	1	1	3	0.9095297668671655	0.459511213137728	snmcseq_gene
snmcseq_gene_3C_M_193	1	3	3	2	4.874778785660094	1.0336140757481331	snmcseq_gene
snmcseq_gene_3C_M_1961	1	2	2	1	2.2726834724187324	-5.0981632919034015	snmcseq_gene
snmcseq_gene_3C_M_1964	2	1	1	3	-3.469308014702305	-0.5632783704320868	snmcseq_gene
snmcseq_gene_3C_M_1973	1	2	2	1	4.46918599353746	-4.0810668922125615	snmcseq_gene
snmcseq_gene_3C_M_2006	2	1	1	3	-1.9746921246408198	-1.0910761532117286	snmcseq_gene
snmcseq_gene_3C_M_201	2	1	1	3	0.35017794288194604	-1.5014317486824773	snmcseq_gene
snmcseq_gene_3C_M_2067	2	1	1	3	-2.20081376562012	-1.530618659378167	snmcseq_gene
snmcseq_gene_3C_M_2082	2	1	1	3	-0.827092690938955	-0.6326527344435915	snmcseq_gene
snmcseq_gene_3C_M_2126	2	1	1	3	1.4876350349116017	1.5101373188153366	snmcseq_gene
snmcseq_gene_3C_M_2130	2	1	1	3	0.17075784938119126	2.0814940192920663	snmcseq_gene
snmcseq_gene_3C_M_2149	1	2	2	1	5.880897819055489	-3.0219665866117165	snmcseq_gene
snmcseq_gene_3C_M_217	2	1	1	4	-3.3930896039112115	2.6842975923869044	snmcseq_gene
snmcseq_gene_3C_M_2229	1	3	3	2	2.2012674637344065	1.541858580305508	snmcseq_gene
snmcseq_gene_3C_M_2249	2	1	1	3	-3.192896451308995	-1.2411739314499306	snmcseq_gene
snmcseq_gene_3C_M_2266	1	3	3	2	5.3969219307213745	0.629523992446834	snmcseq_gene
snmcseq_gene_3C_M_2290	2	1	1	3	-2.850707515777309	-0.5636043296654798	snmcseq_gene
snmcseq_gene_3C_M_2308	1	2	2	1	5.032486265270782	-3.751411334249341	snmcseq_gene
snmcseq_gene_3C_M_2318	1	2	2	1	3.5479356235183763	-3.7944846092118816	snmcseq_gene
snmcseq_gene_3C_M_2353	1	3	3	2	6.0172057936667995	3.0502733430743105	snmcseq_gene
snmcseq_gene_3C_M_2394	1	2	2	1	4.176163006848432	-4.928178401066709	snmcseq_gene
snmcseq_gene_3C_M_2446	2	1	1	3	-1.576806638408095	-1.7200491022684832	snmcseq_gene
snmcseq_gene_3C_M_2459	1	2	2	1	5.331219146904435	-3.389887106005778	snmcseq_gene
snmcseq_gene_3C_M_266	2	1	1	3	-2.4012842434975163	-0.9568220225421212	snmcseq_gene
snmcseq_gene_3C_M_268	2	1	1	3	-0.723654060633343	-1.8789090802705823	snmcseq_gene
snmcseq_gene_3C_M_275	1	3	3	2	5.381806428254536	1.7372048698969966	snmcseq_gene
snmcseq_gene_3C_M_278	2	1	1	4	-3.5650249378034204	1.8748355783865398	snmcseq_gene
snmcseq_gene_3C_M_299	2	1	1	3	-1.2587682331637997	-1.5240463904603863	snmcseq_gene
snmcseq_gene_3C_M_386	2	1	1	4	-3.315880007414411	2.1711118542365466	snmcseq_gene
snmcseq_gene_3C_M_465	1	3	3	2	5.406680986877075	0.39098855242799413	snmcseq_gene
snmcseq_gene_3C_M_467	2	1	1	4	-3.516073013228061	1.238865139486177	snmcseq_gene
snmcseq_gene_3C_M_488	1	2	2	1	3.561321462713913	-3.850609631300106	snmcseq_gene
snmcseq_gene_3C_M_544	1	2	2	1	2.5136372329523167	-5.060580961756747	snmcseq_gene
snmcseq_gene_3C_M_546	1	3	3	2	5.808431666911789	0.5367886117962744	snmcseq_gene
snmcseq_gene_3C_M_62	1	3	3	2	6.325142294763618	2.963295470877944	snmcseq_gene
snmcseq_gene_3C_M_621	1	2	2	1	4.931533250640604	-3.3650104206312816	snmcseq_gene
snmcseq_gene_3C_M_625	2	1	1	3	-2.7070658048520078	0.816946795574251	snmcseq_gene
snmcseq_gene_3C_M_63	2	1	1	4	-2.904949695703495	1.3995714570357547	snmcseq_gene
snmcseq_gene_3C_M_655	1	2	2	1	4.602072708193073	-4.524488875632293	snmcseq_gene
snmcseq_gene_3C_M_656	2	1	1	3	-2.523108517429079	-0.8970610618273164	snmcseq_gene
snmcseq_gene_3C_M_664	1	2	2	1	4.31666824782691	-4.3881190939936126	snmcseq_gene
snmcseq_gene_3C_M_665	1	2	2	1	4.501906099825555	-4.4738732503588405	snmcseq_gene
snmcseq_gene_3C_M_686	2	1	1	4	-3.153287396279796	1.9102508635468913	snmcseq_gene
snmcseq_gene_3C_M_693	1	2	2	1	5.176978582472838	-3.3005976758828104	snmcseq_gene
snmcseq_gene_3C_M_793	1	3	3	2	4.72263121325362	0.03549534399075305	snmcseq_gene
snmcseq_gene_3C_M_82	1	3	3	2	5.495977273629152	3.098439072308171	snmcseq_gene
snmcseq_gene_3C_M_878	2	1	1	3	-3.0189398443362045	-1.1481128943024796	snmcseq_gene
snmcseq_gene_3C_M_895	1	3	3	2	5.815366698673864	0.6553622166929784	snmcseq_gene
snmcseq_gene_3C_M_926	1	3	3	2	5.750051532234	0.09174453963019477	snmcseq_gene
snmcseq_gene_3C_M_944	1	3	3	2	5.5601218168914555	0.7177553553923751	snmcseq_gene
snmcseq_gene_3C_M_946	1	2	2	1	5.108525995176147	-4.3225321298342285	snmcseq_gene
snmcseq_gene_3C_M_953	1	2	2	1	2.7660177552151066	-5.191960501415581	snmcseq_gene
snmcseq_gene_3C_M_978	2	1	1	3	1.2417469936399597	-0.7256118218018991	snmcseq_gene
snmcseq_gene_4B_M_1017	2	1	1	3	-2.176943022055527	-2.092749422097811	snmcseq_gene
snmcseq_gene_4B_M_106	1	2	2	1	3.2605946937239487	-5.081002286265151	snmcseq_gene
snmcseq_gene_4B_M_1087	2	1	1	3	-0.00940696682020748	2.403908189662499	snmcseq_gene
snmcseq_gene_4B_M_1185	2	1	1	3	-0.8900648883699881	2.123660413452144	snmcseq_gene
snmcseq_gene_4B_M_1215	1	3	3	2	5.369468726066344	2.4733286670049734	snmcseq_gene
snmcseq_gene_4B_M_125	1	2	2	1	5.05216813131785	-3.996726243502035	snmcseq_gene
snmcseq_gene_4B_M_1262	2	1	1	3	-2.9784373056872617	-0.8706961984242816	snmcseq_gene
snmcseq_gene_4B_M_1269	1	3	3	2	5.741188330328294	1.615083024211622	snmcseq_gene
snmcseq_gene_4B_M_1330	1	2	2	1	5.567435020685689	-3.467862011969607	snmcseq_gene
snmcseq_gene_4B_M_1334	1	2	2	1	3.752112016165838	-5.164574238292543	snmcseq_gene
snmcseq_gene_4B_M_1340	2	1	1	3	1.696345719604864	0.45766572603966355	snmcseq_gene
snmcseq_gene_4B_M_1350	1	2	2	1	4.9988621973939535	-4.532172582629365	snmcseq_gene
snmcseq_gene_4B_M_1416	1	3	3	2	3.61171394091617	0.30881569329464464	snmcseq_gene
snmcseq_gene_4B_M_1448	1	3	3	2	5.885328278586359	2.0498365252980144	snmcseq_gene
snmcseq_gene_4B_M_1483	2	1	1	4	-3.589656384302892	0.9343226890354253	snmcseq_gene
snmcseq_gene_4B_M_1485	1	3	3	2	4.557899187621173	1.7631356862277154	snmcseq_gene
snmcseq_gene_4B_M_1486	1	2	2	1	4.200900891202367	-2.2224883361045515	snmcseq_gene
snmcseq_gene_4B_M_1490	2	1	1	3	-1.0055793980610797	1.0754837034039975	snmcseq_gene
snmcseq_gene_4B_M_1519	1	2	2	1	4.619015602777641	-3.688750841336506	snmcseq_gene
snmcseq_gene_4B_M_1537	1	3	3	2	4.763262694635472	-0.2351194244405354	snmcseq_gene
snmcseq_gene_4B_M_1543	2	1	1	3	-1.5010740086745205	0.32790427284169693	snmcseq_gene
snmcseq_gene_4B_M_1557	1	3	3	2	3.958659266216104	0.9827625712183566	snmcseq_gene
snmcseq_gene_4B_M_1580	1	2	2	1	3.6439593881854484	-3.572744970141452	snmcseq_gene
snmcseq_gene_4B_M_1581	2	1	1	3	-3.1659723729334526	-0.3382675770036636	snmcseq_gene
snmcseq_gene_4B_M_1583	2	1	1	3	-3.2279769672631593	0.019191689414945444	snmcseq_gene
snmcseq_gene_4B_M_1584	1	3	3	2	2.369674041107376	1.2108700410802635	snmcseq_gene
snmcseq_gene_4B_M_1608	2	1	1	4	-2.9788213023280496	0.2507405931687914	snmcseq_gene
snmcseq_gene_4B_M_1610	2	1	1	4	-3.5505157021757676	2.0996123167869394	snmcseq_gene
snmcseq_gene_4B_M_1613	2	1	1	3	-3.4595174527766472	-1.08972081347098	snmcseq_gene
snmcseq_gene_4B_M_1614	1	2	2	1	4.475118189966396	-4.9637855114892435	snmcseq_gene
snmcseq_gene_4B_M_1624	1	2	2	1	4.467039065056936	-3.6959074629235005	snmcseq_gene
snmcseq_gene_4B_M_1655	2	1	1	3	-0.3302896177725656	-0.9184364085190574	snmcseq_gene
snmcseq_gene_4B_M_173	1	3	3	2	5.405040264749419	2.4051249177880516	snmcseq_gene
snmcseq_gene_4B_M_1896	1	2	2	1	4.320508353611864	-3.748883541424998	snmcseq_gene
snmcseq_gene_4B_M_1909	2	1	1	3	-2.2515889647635663	0.5588983469742608	snmcseq_gene
snmcseq_gene_4B_M_1915	1	2	2	1	2.5454782390009485	-2.2668226829620286	snmcseq_gene
snmcseq_gene_4B_M_1928	1	2	2	1	3.121995277678515	-5.298164202223449	snmcseq_gene
snmcseq_gene_4B_M_198	2	1	1	4	-3.274852843760987	0.23183980511518454	snmcseq_gene
snmcseq_gene_4B_M_1989	1	3	3	2	5.9412480334153015	1.7803281995423288	snmcseq_gene
snmcseq_gene_4B_M_2005	2	1	1	3	-0.7336866385664461	-2.073486471393847	snmcseq_gene
snmcseq_gene_4B_M_2023	2	1	1	3	-2.930825902233459	-0.41616623329399993	snmcseq_gene
snmcseq_gene_4B_M_2080	1	2	2	1	4.249998729949292	-5.106123835994866	snmcseq_gene
snmcseq_gene_4B_M_2133	1	3	3	2	6.82848092500738	2.311848183869577	snmcseq_gene
snmcseq_gene_4B_M_215	1	2	2	1	3.0816833582026026	-4.554534904504943	snmcseq_gene
snmcseq_gene_4B_M_22	1	2	2	1	2.945668036413447	-5.097811326743772	snmcseq_gene
snmcseq_gene_4B_M_221	1	2	2	1	4.454941329233528	-3.4570551420010154	snmcseq_gene
snmcseq_gene_4B_M_2218	1	3	3	2	4.725277984481514	0.24987183177475808	snmcseq_gene
snmcseq_gene_4B_M_2240	1	2	2	1	3.964503489498999	-4.889209717588849	snmcseq_gene
snmcseq_gene_4B_M_2264	1	3	3	2	5.4689791716593765	1.9670182767110511	snmcseq_gene
snmcseq_gene_4B_M_2325	2	1	1	4	-3.355634518520988	2.4743353507673493	snmcseq_gene
snmcseq_gene_4B_M_2329	2	1	1	3	-1.4427448538706142	-1.2885275463524999	snmcseq_gene
snmcseq_gene_4B_M_2343	2	1	1	3	0.8992276345952205	-1.118365796687653	snmcseq_gene
snmcseq_gene_4B_M_2350	1	3	3	2	3.050123202629448	0.1627906983333489	snmcseq_gene
snmcseq_gene_4B_M_2369	2	1	1	3	-2.5890810451414996	-1.6520907063974961	snmcseq_gene
snmcseq_gene_4B_M_2429	2	1	1	3	1.58487102289097	0.5906027974017531	snmcseq_gene
snmcseq_gene_4B_M_251	1	3	3	2	6.132696945468141	2.020936429907935	snmcseq_gene
snmcseq_gene_4B_M_2536	2	1	1	4	-2.2767562544226023	1.922021454124413	snmcseq_gene
snmcseq_gene_4B_M_2539	2	1	1	4	-3.8476275712344243	1.659902998777629	snmcseq_gene
snmcseq_gene_4B_M_2555	2	1	1	4	-2.1083787624798793	1.9919105918225157	snmcseq_gene
snmcseq_gene_4B_M_2562	1	3	3	2	4.20873709506374	2.586021907326312	snmcseq_gene
snmcseq_gene_4B_M_2566	1	2	2	1	5.457016969225216	-3.0256980573537335	snmcseq_gene
snmcseq_gene_4B_M_2571	1	3	3	2	5.880860726096368	2.7289878325823036	snmcseq_gene
snmcseq_gene_4B_M_2634	2	1	1	3	-0.6234327659714326	1.082828367221248	snmcseq_gene
snmcseq_gene_4B_M_2651	1	2	2	1	3.1696315155798143	-3.458945308372271	snmcseq_gene
snmcseq_gene_4B_M_267	1	3	3	2	5.416313931434777	3.046312435316594	snmcseq_gene
snmcseq_gene_4B_M_2771	2	1	1	3	-2.247842471702149	-0.14020713058017234	snmcseq_gene
snmcseq_gene_4B_M_2774	1	2	2	1	2.8792966609342474	-1.7722174707568001	snmcseq_gene
snmcseq_gene_4B_M_2815	1	2	2	1	5.841104375112518	-2.7888626682229742	snmcseq_gene
snmcseq_gene_4B_M_283	2	1	1	3	-1.858984267693654	-1.898327008849834	snmcseq_gene
snmcseq_gene_4B_M_373	1	3	3	2	6.447986865003375	1.755792456371959	snmcseq_gene
snmcseq_gene_4B_M_386	2	1	1	3	-3.0070876570016702	1.1092644940346252	snmcseq_gene
snmcseq_gene_4B_M_418	1	3	3	2	4.825110250839606	2.743949386184775	snmcseq_gene
snmcseq_gene_4B_M_448	2	1	1	3	-1.2851427084195948	-1.1210624400186666	snmcseq_gene
snmcseq_gene_4B_M_529	2	1	1	3	-1.1314694524492948	-2.15603426350009	snmcseq_gene
snmcseq_gene_4B_M_532	1	2	2	1	2.439432834204375	-5.159192013087829	snmcseq_gene
snmcseq_gene_4B_M_545	1	3	3	2	5.855940726371204	1.369299488098735	snmcseq_gene
snmcseq_gene_4B_M_630	1	2	2	1	4.53833101917501	-4.82390906214029	snmcseq_gene
snmcseq_gene_4B_M_640	2	1	1	3	-3.0412101901005766	-1.0960755173419785	snmcseq_gene
snmcseq_gene_4B_M_671	1	2	2	1	5.063750892565409	-4.224060066691025	snmcseq_gene
snmcseq_gene_4B_M_700	1	3	3	2	2.7004484375788076	1.5165271275229733	snmcseq_gene
snmcseq_gene_4B_M_724	1	3	3	2	6.318969999557905	2.1176406240661314	snmcseq_gene
snmcseq_gene_4B_M_76	1	3	3	2	6.153700472708878	2.130492495280236	snmcseq_gene
snmcseq_gene_4B_M_791	1	3	3	2	2.8154930627040033	1.4180059213584115	snmcseq_gene
snmcseq_gene_4B_M_831	1	2	2	1	3.740763081777309	-5.059016511437434	snmcseq_gene
snmcseq_gene_4B_M_891	2	1	1	4	-2.0597541586616477	1.546380017699975	snmcseq_gene
snmcseq_gene_4B_M_9	2	1	1	3	-1.1816212626930063	-0.9831073343315264	snmcseq_gene
snmcseq_gene_4B_M_949	2	1	1	3	-2.0648279644943415	-0.8923903255111126	snmcseq_gene
snmcseq_gene_5D_M_1007	2	1	1	3	-2.7632313004575635	-0.47658483261092377	snmcseq_gene
snmcseq_gene_5D_M_1068	2	1	1	3	-1.867700916291531	-2.067579041263075	snmcseq_gene
snmcseq_gene_5D_M_1086	1	3	3	2	5.484219621795491	1.9022010923345303	snmcseq_gene
snmcseq_gene_5D_M_1143	1	2	2	1	5.3353247419307985	-4.119635425271332	snmcseq_gene
snmcseq_gene_5D_M_1202	2	1	1	4	-2.081629127035216	1.7372606595579527	snmcseq_gene
snmcseq_gene_5D_M_1231	1	2	2	1	4.847716588665962	-4.088501263058582	snmcseq_gene
snmcseq_gene_5D_M_1246	1	3	3	2	4.947110445107486	0.3272263238899287	snmcseq_gene
snmcseq_gene_5D_M_1261	2	1	1	3	-1.8803789574879384	-1.815911030802982	snmcseq_gene
snmcseq_gene_5D_M_1275	1	2	2	1	4.813189967851986	-4.747436684636327	snmcseq_gene
snmcseq_gene_5D_M_1311	1	3	3	2	5.468379893534567	2.389063651593774	snmcseq_gene
snmcseq_gene_5D_M_1348	1	3	3	2	4.573233659332221	2.4314415102522298	snmcseq_gene
snmcseq_gene_5D_M_1385	1	3	3	2	2.6312989466839314	1.7303179801950537	snmcseq_gene
snmcseq_gene_5D_M_1431	2	1	1	3	0.1195635925613109	0.789412878709405	snmcseq_gene
snmcseq_gene_5D_M_1436	2	1	1	4	-2.0020322161184487	1.312165968813265	snmcseq_gene
snmcseq_gene_5D_M_1470	1	2	2	1	2.748168268208751	-1.972788928586627	snmcseq_gene
snmcseq_gene_5D_M_1505	2	1	1	3	-1.014520507594954	-0.7211427535261973	snmcseq_gene
snmcseq_gene_5D_M_1519	1	3	3	2	4.185643598570397	-0.5069163318995009	snmcseq_gene
snmcseq_gene_5D_M_1538	1	3	3	2	5.239459068601627	0.07514943986756849	snmcseq_gene
snmcseq_gene_5D_M_1557	2	1	1	3	1.5356340252823435	-0.7716137597086689	snmcseq_gene
snmcseq_gene_5D_M_1564	1	3	3	2	4.03558065277799	0.921290396551081	snmcseq_gene
snmcseq_gene_5D_M_1569	2	1	1	3	-1.6135943485029867	-0.6699346628194665	snmcseq_gene
snmcseq_gene_5D_M_16	1	2	2	1	5.222094654820959	-2.9125445058546093	snmcseq_gene
snmcseq_gene_5D_M_1604	2	1	1	3	-2.106547030863972	-0.4769336773119916	snmcseq_gene
snmcseq_gene_5D_M_162	1	3	3	2	5.440129780671726	1.3710595949670596	snmcseq_gene
snmcseq_gene_5D_M_1700	1	3	3	2	2.4588105723193965	1.7530821684443232	snmcseq_gene
snmcseq_gene_5D_M_1725	1	3	3	2	6.281667729139312	1.0812696827945367	snmcseq_gene
snmcseq_gene_5D_M_1757	2	1	1	3	-1.9733309954590121	-0.3476932807501932	snmcseq_gene
snmcseq_gene_5D_M_178	1	2	2	1	4.385015050340441	-4.655641515454862	snmcseq_gene
snmcseq_gene_5D_M_1786	1	3	3	2	4.484654820329276	-0.12987999214993673	snmcseq_gene
snmcseq_gene_5D_M_1791	1	2	2	1	4.324971615966414	-5.054284083699134	snmcseq_gene
snmcseq_gene_5D_M_1837	2	1	1	3	-1.2716591277851195	0.19303372480898304	snmcseq_gene
snmcseq_gene_5D_M_1847	2	1	1	3	-1.2674186982981397	-0.8432383834745659	snmcseq_gene
snmcseq_gene_5D_M_1868	1	2	2	1	1.984710688449845	-2.176074328793689	snmcseq_gene
snmcseq_gene_5D_M_1889	2	1	1	3	-2.642266924696959	-0.17265926962305833	snmcseq_gene
snmcseq_gene_5D_M_1891	1	3	3	2	6.076931287062809	0.9895545619578862	snmcseq_gene
snmcseq_gene_5D_M_1894	1	3	3	2	2.88920149995388	0.7523201824721503	snmcseq_gene
snmcseq_gene_5D_M_1900	2	1	1	3	1.8414828553550517	-0.06621805459004164	snmcseq_gene
snmcseq_gene_5D_M_1947	1	2	2	1	2.436978042427604	-1.5979724220191962	snmcseq_gene
snmcseq_gene_5D_M_1965	2	1	1	3	-2.3735520273755255	-0.2462894054420817	snmcseq_gene
snmcseq_gene_5D_M_1995	2	1	1	3	-1.7214833294592382	-1.160338039981686	snmcseq_gene
snmcseq_gene_5D_M_2062	2	1	1	3	-1.9605937770972846	-0.061292828985605466	snmcseq_gene
snmcseq_gene_5D_M_2078	1	2	2	1	2.4355576999588795	-2.161158669420527	snmcseq_gene
snmcseq_gene_5D_M_208	2	1	1	4	-2.899516144571184	1.9451315003535454	snmcseq_gene
snmcseq_gene_5D_M_2099	1	3	3	2	6.473228343562371	2.3504379067353223	snmcseq_gene
snmcseq_gene_5D_M_210	2	1	1	3	-2.156578852412742	-0.9655287427591865	snmcseq_gene
snmcseq_gene_5D_M_2132	2	1	1	3	1.3506857408055568	-1.0513749883603003	snmcseq_gene
snmcseq_gene_5D_M_2170	2	1	1	3	-1.5845984006113678	1.0874247722436936	snmcseq_gene
snmcseq_gene_5D_M_2209	2	1	1	3	-2.555956836244871	0.3356931168493911	snmcseq_gene
snmcseq_gene_5D_M_2229	1	2	2	1	5.022860030859897	-4.814891455511165	snmcseq_gene
snmcseq_gene_5D_M_2255	2	1	1	3	-0.1503034193153487	1.8697795848457324	snmcseq_gene
snmcseq_gene_5D_M_2291	1	3	3	2	4.9390600531217554	-0.894088389715504	snmcseq_gene
snmcseq_gene_5D_M_2302	2	1	1	4	-2.7103464802953177	2.3380922457882605	snmcseq_gene
snmcseq_gene_5D_M_236	1	3	3	2	6.213411624651526	0.9552809243986092	snmcseq_gene
snmcseq_gene_5D_M_2370	2	1	1	3	-0.002961298106904663	1.2381900127994376	snmcseq_gene
snmcseq_gene_5D_M_347	1	2	2	1	3.7285431679713223	-2.0140950882823923	snmcseq_gene
snmcseq_gene_5D_M_417	1	3	3	2	2.710910318990477	1.3655491949452305	snmcseq_gene
snmcseq_gene_5D_M_420	2	1	1	3	-1.6670712954245797	-1.3336397137848524	snmcseq_gene
snmcseq_gene_5D_M_461	2	1	1	3	-0.2042806721685285	-0.9962034371041851	snmcseq_gene
snmcseq_gene_5D_M_591	1	2	2	1	5.329674496753654	-3.727401815056929	snmcseq_gene
snmcseq_gene_5D_M_632	1	3	3	2	4.267744649009573	2.1455136272307476	snmcseq_gene
snmcseq_gene_5D_M_634	1	2	2	1	3.596746093232605	-3.924964601152923	snmcseq_gene
snmcseq_gene_5D_M_673	1	2	2	1	5.271741081845448	-4.31549421742276	snmcseq_gene
snmcseq_gene_5D_M_738	2	1	1	3	-1.4844436546540973	0.896104044497237	snmcseq_gene
snmcseq_gene_5D_M_753	1	2	2	1	2.1116344741912325	-4.917479267781281	snmcseq_gene
snmcseq_gene_5D_M_761	1	3	3	2	5.910378843856312	2.390970326699942	snmcseq_gene
snmcseq_gene_5D_M_898	1	2	2	1	3.387828720939206	-2.441270158254547	snmcseq_gene
snmcseq_gene_5D_M_922	1	2	2	1	5.640954127898159	-2.346481769930522	snmcseq_gene
snmcseq_gene_5D_M_931	1	2	2	1	3.1901600496150486	-4.566080156220183	snmcseq_gene
snmcseq_gene_5D_M_981	2	1	1	3	1.4201816955447164	1.058316852755428	snmcseq_gene
snmcseq_gene_5D_M_995	1	2	2	1	6.093349030292779	-3.2428103708905853	snmcseq_gene
smarter_cells_SM-D9E4M_S34_E1-50	2	1	1	3	-0.43886634237291217	1.9079273435449275	smarter_cells
smarter_cells_LS-15521_S05_E1-50	1	3	3	2	5.2259027310132415	2.3760826698994	smarter_cells
smarter_cells_LS-15524_S51_E1-50	1	3	3	2	5.197553037462955	2.4830290463957168	smarter_cells
smarter_cells_SM-D9D8K_S26_E1-50	2	1	1	4	-1.6806226960804387	2.9102635584819128	smarter_cells
smarter_cells_SM-D9D8K_S29_E1-50	2	1	1	4	-1.9736305355810995	2.929150781002273	smarter_cells
smarter_cells_SM-D9D8S_S22_E1-50	2	1	1	4	-3.7160239546944043	1.7012005619796815	smarter_cells
smarter_cells_SM-D9E5T_S91_E1-50	2	1	1	4	-1.6493042362079824	2.961299297473147	smarter_cells
smarter_cells_SM-DAIFC_S61_E1-50	2	1	1	3	-0.942810098105187	-1.345622160738302	smarter_cells
smarter_cells_SM-DAIGV_S26_E1-50	2	1	1	3	-1.2678475247341208	1.7409018828341265	smarter_cells
smarter_cells_SM-DAIHG_S79_E1-50	1	3	3	2	3.258468195788248	1.8740702996250003	smarter_cells
smarter_cells_SM-DD43N_S23_E1-50	2	1	1	3	-0.27758454821833944	1.6976425062045764	smarter_cells
smarter_cells_SM-DD43Q_S43_E1-50	1	3	3	2	4.6289021775956325	-0.46790893372152637	smarter_cells
smarter_cells_SM-GE67S_S060_E1-50	2	1	1	3	-1.5309415636800816	-0.8016309599046295	smarter_cells
smarter_nuclei_SM-GE66E_S183_E1-50	2	1	1	3	-1.523247666088216	-0.41950685160231105	smarter_nuclei
smarter_nuclei_SM-GE64S_S058_E1-50	2	1	1	4	-0.6374019553388952	3.1369191250773145	smarter_nuclei
smarter_nuclei_SM-GE64S_S076_E1-50	2	1	1	4	-3.7519032375331913	0.8506827990127185	smarter_nuclei
smarter_nuclei_SM-GE64V_S027_E1-50	2	1	1	4	-0.5009026617904323	2.6998148535855044	smarter_nuclei
smarter_nuclei_SM-GE64G_S171_E1-50	2	1	1	3	0.3768381077630248	2.173046793781581	smarter_nuclei
smarter_nuclei_SM-GE64H_S005_E1-50	2	1	1	3	-0.7481624311351018	1.6626111764805838	smarter_nuclei
smarter_nuclei_SM-GE64H_S097_E1-50	2	1	1	3	1.0429186366147896	2.382386649094968	smarter_nuclei
smarter_nuclei_SM-GE64H_S111_E1-50	2	1	1	4	-1.4676332950697477	3.527782883542587	smarter_nuclei
smarter_nuclei_SM-GE64I_S074_E1-50	2	1	1	3	-2.2207055858565816	0.08327208050869947	smarter_nuclei
smarter_nuclei_SM-GE64J_S005_E1-50	2	1	1	3	-0.5973673519608682	-0.9291304886741444	smarter_nuclei
smarter_nuclei_SM-GE64J_S009_E1-50	2	1	1	3	0.9945495183742445	2.3796574926729277	smarter_nuclei
smarter_nuclei_SM-GE64J_S018_E1-50	2	1	1	4	-3.4602800645113034	1.2087135165610345	smarter_nuclei
smarter_nuclei_SM-GE64K_S165_E1-50	2	1	1	3	-0.9443830087749032	2.1435137385043888	smarter_nuclei
smarter_nuclei_SM-GE64K_S184_E1-50	2	1	1	3	-1.2363073151415847	1.0289567131481283	smarter_nuclei
smarter_nuclei_SM-GE64K_S186_E1-50	2	1	1	4	-0.7365193066516157	2.8073930700045318	smarter_nuclei
smarter_nuclei_SM-GE64M_S141_E1-50	1	3	3	2	3.5820596466745385	1.106334204421032	smarter_nuclei
smarter_nuclei_SM-GE64N_S091_E1-50	2	1	1	4	-2.4140361294708126	1.6265019116061818	smarter_nuclei
smarter_nuclei_SM-GE649_S021_E1-50	2	1	1	3	-2.130267691455718	0.6799195605643293	smarter_nuclei
smarter_nuclei_SM-GE649_S111_E1-50	2	1	1	3	-2.373649167668238	-0.04643262815330558	smarter_nuclei
smarter_nuclei_SM-GE649_S118_E1-50	2	1	1	4	-0.7653796813116422	3.4959058197064863	smarter_nuclei
smarter_nuclei_SM-GE64A_S008_E1-50	2	1	1	4	-2.8278970312858207	1.0765948402607253	smarter_nuclei
smarter_nuclei_SM-GE64A_S102_E1-50	2	1	1	3	-1.4602545862167131	1.4434000073260553	smarter_nuclei
smarter_nuclei_SM-GE64A_S110_E1-50	2	1	1	4	-1.916341648870592	2.8174728378922635	smarter_nuclei
smarter_nuclei_SM-GE64A_S122_E1-50	2	1	1	3	0.6048584488625247	1.6474074820968825	smarter_nuclei
smarter_nuclei_SM-GE64A_S126_E1-50	2	1	1	3	-1.747744203116628	0.5939266209791982	smarter_nuclei
smarter_nuclei_SM-GE64A_S132_E1-50	2	1	1	3	0.5327871532238836	2.423198898336803	smarter_nuclei
smarter_nuclei_SM-GE64B_S014_E1-50	2	1	1	4	-2.2677571607583182	3.177840579729874	smarter_nuclei
smarter_nuclei_SM-GE64B_S031_E1-50	2	1	1	4	-2.452367414201374	1.2131026069084718	smarter_nuclei
smarter_nuclei_SM-GE64B_S140_E1-50	2	1	1	4	-2.674084898032344	0.7992875557967828	smarter_nuclei
smarter_nuclei_SM-GE64B_S156_E1-50	2	1	1	4	-1.9691470154002952	3.4605898561155133	smarter_nuclei
smarter_nuclei_SM-GE64E_S042_E1-50	2	1	1	3	-1.8577226069612323	1.1148568010983837	smarter_nuclei
smarter_nuclei_SM-GE64E_S149_E1-50	2	1	1	3	0.0712672016029389	0.9266380238212084	smarter_nuclei
smarter_nuclei_SM-GE64F_S060_E1-50	2	1	1	4	-3.3597346064246105	1.3548499157209586	smarter_nuclei
smarter_nuclei_SM-GE64F_S064_E1-50	2	1	1	5	-1.3669582495365458	-0.42811891382625694	smarter_nuclei
smarter_nuclei_SM-GE64F_S071_E1-50	2	1	1	4	-2.0206323154451566	1.379635705254358	smarter_nuclei
smarter_nuclei_SM-GE64F_S094_E1-50	2	1	1	4	-2.9255511149819426	2.6742652060862033	smarter_nuclei
smarter_nuclei_SM-GE63Z_S027_E1-50	2	1	1	4	-1.76476945907904	3.317829181168278	smarter_nuclei
smarter_nuclei_SM-GE63Z_S035_E1-50	2	1	1	4	-2.5830364540826523	3.263465958305706	smarter_nuclei
smarter_nuclei_SM-GE63Z_S082_E1-50	2	1	1	5	0.9951548237203571	0.11875927352148392	smarter_nuclei
smarter_nuclei_SM-GE63Z_S088_E1-50	2	1	1	4	-0.6996326613984852	2.4890319480525833	smarter_nuclei
smarter_nuclei_SM-GE63Z_S089_E1-50	2	1	1	3	-2.6075822043905856	0.30728981208904704	smarter_nuclei
smarter_nuclei_SM-GE63Z_S119_E1-50	2	1	1	4	-1.5567089229960431	3.501720831955408	smarter_nuclei
smarter_nuclei_SM-GE641_S006_E1-50	2	1	1	4	-3.601740559911226	1.2571613911867123	smarter_nuclei
smarter_nuclei_SM-GE641_S026_E1-50	2	1	1	4	-2.999558774181879	2.7311064761919375	smarter_nuclei
smarter_nuclei_SM-GE641_S119_E1-50	2	1	1	4	-1.6030176902120545	3.6157273337676537	smarter_nuclei
smarter_nuclei_SM-GE642_S035_E1-50	2	1	1	3	-3.1059892905653532	0.4816494549868311	smarter_nuclei
smarter_nuclei_SM-GE642_S132_E1-50	2	1	1	5	0.6622673495437719	0.22560185920819456	smarter_nuclei
smarter_nuclei_SM-GE643_S008_E1-50	2	1	1	4	-3.8961529910456743	1.202006818238578	smarter_nuclei
smarter_nuclei_SM-GE643_S063_E1-50	2	1	1	4	-3.3349072862992477	0.6475121631795645	smarter_nuclei
smarter_nuclei_SM-GE643_S074_E1-50	2	1	1	4	-2.7188291494414836	3.1268495454545824	smarter_nuclei
smarter_nuclei_SM-GE644_S076_E1-50	2	1	1	3	-1.0760377027332615	1.4548296898025812	smarter_nuclei
smarter_nuclei_SM-GE644_S079_E1-50	2	1	1	3	-1.1132202107257756	0.43494089603224967	smarter_nuclei
smarter_nuclei_SM-GE645_S051_E1-50	2	1	1	4	-2.3857068513580995	2.950313637874308	smarter_nuclei
smarter_nuclei_SM-GE645_S124_E1-50	2	1	1	3	-2.227675983239991	-0.27235155197813377	smarter_nuclei
smarter_nuclei_SM-GE646_S131_E1-50	2	1	1	4	-3.8307593380324065	0.7950086437496413	smarter_nuclei
smarter_nuclei_SM-GE646_S132_E1-50	2	1	1	4	-2.4749648111535563	1.371476247638562	smarter_nuclei
smarter_nuclei_SM-GE646_S135_E1-50	2	1	1	3	0.8244177437754809	0.9670102008563504	smarter_nuclei
smarter_nuclei_SM-GE646_S136_E1-50	2	1	1	3	-2.8338159410453923	-0.04885567856951981	smarter_nuclei
smarter_nuclei_SM-GE646_S143_E1-50	2	1	1	4	-3.537212778267435	0.46648841220513904	smarter_nuclei
smarter_nuclei_SM-GE647_S028_E1-50	2	1	1	4	-3.3697128611691647	0.8335604641288146	smarter_nuclei
smarter_nuclei_SM-GE647_S031_E1-50	2	1	1	4	-1.2377970416089115	3.2511040999882916	smarter_nuclei
smarter_nuclei_SM-GE66I_S047_E1-50	2	1	1	4	-2.205104118481731	3.2315674733568063	smarter_nuclei
smarter_nuclei_SM-GE66I_S059_E1-50	2	1	1	4	-3.480284614522064	2.0350371842581483	smarter_nuclei
smarter_nuclei_SM-GE66J_S049_E1-50	2	1	1	4	-1.07007955560717	3.441041277441988	smarter_nuclei
smarter_nuclei_SM-GE66J_S050_E1-50	2	1	1	4	-2.7057876218603605	2.145899799560227	smarter_nuclei
smarter_nuclei_SM-GE66J_S097_E1-50	2	1	1	4	-2.3975708436431877	1.9142506900364549	smarter_nuclei
smarter_nuclei_SM-GE66J_S112_E1-50	2	1	1	3	-2.7037411847341613	0.33795057038006304	smarter_nuclei
smarter_nuclei_SM-GE66J_S136_E1-50	2	1	1	3	-1.050367241864217	-0.45877495726877693	smarter_nuclei
smarter_nuclei_SM-GE66K_S084_E1-50	2	1	1	4	-3.8374802254064155	0.44173821000036567	smarter_nuclei
smarter_nuclei_SM-GE66K_S119_E1-50	2	1	1	4	-2.7190733846489006	3.1734424016254947	smarter_nuclei
smarter_nuclei_SM-GE66K_S153_E1-50	2	1	1	3	0.7796082087856177	1.9498205796419723	smarter_nuclei
smarter_nuclei_SM-GE66K_S161_E1-50	2	1	1	4	-3.2655206026636603	1.7151521407819574	smarter_nuclei
smarter_nuclei_SM-GE66K_S172_E1-50	2	1	1	4	-0.9710210445622669	3.51572546511222	smarter_nuclei
smarter_nuclei_SM-GE66L_S162_E1-50	2	1	1	4	-1.2395718845877213	3.3703706752531573	smarter_nuclei
smarter_nuclei_SM-GE66M_S114_E1-50	2	1	1	4	-2.901714073754137	2.856664247463566	smarter_nuclei
smarter_nuclei_SM-GE66M_S185_E1-50	2	1	1	4	-3.4692150349239608	0.9143749760602332	smarter_nuclei
smarter_nuclei_SM-GE66M_S188_E1-50	2	1	1	4	-3.7822418186559856	1.577615210690097	smarter_nuclei
smarter_nuclei_SM-GE66N_S016_E1-50	2	1	1	4	-2.463715666707634	2.564549983434323	smarter_nuclei
smarter_nuclei_SM-GE66N_S172_E1-50	2	1	1	4	-2.418847974391762	2.6888956593417217	smarter_nuclei
smarter_nuclei_SM-GE66A_S120_E1-50	2	1	1	3	0.38268151771949394	1.335316420509381	smarter_nuclei
smarter_nuclei_SM-GE66C_S007_E1-50	2	1	1	4	-0.5906915233745097	3.051926696541365	smarter_nuclei
smarter_nuclei_SM-GE66D_S024_E1-50	1	3	3	2	2.017673329934386	0.7928014729406666	smarter_nuclei
smarter_nuclei_SM-GE66F_S022_E1-50	2	1	1	4	-2.1812188144360403	3.3874842172430735	smarter_nuclei
smarter_nuclei_SM-GE66F_S030_E1-50	2	1	1	3	-3.2366690961707345	-0.9463619809350531	smarter_nuclei
smarter_nuclei_SM-GE66F_S070_E1-50	2	1	1	3	-2.534996036240414	-0.6442688562115286	smarter_nuclei
smarter_nuclei_SM-GE66G_S129_E1-50	2	1	1	4	-2.855152663487906	1.4601888085759096	smarter_nuclei
smarter_nuclei_SM-GE64U_S130_E1-50	1	3	3	2	6.799269297025026	2.994277333316857	smarter_nuclei
smarter_nuclei_SM-GE64U_S137_E1-50	1	3	3	2	4.421575289626454	0.0018983874774327824	smarter_nuclei
smarter_nuclei_SM-GE64G_S025_E1-50	1	3	3	2	4.713065741466424	-0.8078355826264144	smarter_nuclei
smarter_nuclei_SM-GE64G_S028_E1-50	1	3	3	2	4.875228998186209	0.5306215426659311	smarter_nuclei
smarter_nuclei_SM-GE64G_S103_E1-50	1	2	2	1	5.488690179071052	-2.090061256995862	smarter_nuclei
smarter_nuclei_SM-GE64G_S123_E1-50	1	3	3	2	5.781839767978236	1.0947038878283644	smarter_nuclei
smarter_nuclei_SM-GE64H_S002_E1-50	2	1	1	3	0.7618479166930633	0.6592446658453119	smarter_nuclei
smarter_nuclei_SM-GE64H_S032_E1-50	1	3	3	2	6.493035282643852	3.071479495969638	smarter_nuclei
smarter_nuclei_SM-GE64H_S116_E1-50	1	3	3	2	6.378157846014135	2.7084199988807978	smarter_nuclei
smarter_nuclei_SM-GE64H_S139_E1-50	1	2	3	2	5.035477438564202	-1.243232712585886	smarter_nuclei
smarter_nuclei_SM-GE64I_S024_E1-50	1	3	3	2	3.5117267897057247	-0.5873518325117485	smarter_nuclei
smarter_nuclei_SM-GE64J_S171_E1-50	1	3	3	2	3.5725315814084735	-0.6613053925731611	smarter_nuclei
smarter_nuclei_SM-GE64L_S084_E1-50	1	2	2	1	3.2209191829915143	-1.776764068689889	smarter_nuclei
smarter_nuclei_SM-GE64L_S133_E1-50	1	2	2	1	4.652335272169705	-2.0909738421131716	smarter_nuclei
smarter_nuclei_SM-GE64M_S038_E1-50	2	1	1	4	-0.36759182679363783	2.9680003561805717	smarter_nuclei
smarter_nuclei_SM-GE64M_S143_E1-50	1	2	2	1	4.013759993488601	-2.923052540343387	smarter_nuclei
smarter_nuclei_SM-GE64N_S120_E1-50	1	2	2	1	3.8376574575331017	-2.3961152781466932	smarter_nuclei
smarter_nuclei_SM-GE648_S005_E1-50	1	2	2	1	5.023846235227688	-2.1108299868668046	smarter_nuclei
smarter_nuclei_SM-GE648_S016_E1-50	1	3	3	2	5.5617664717631	2.673221131104816	smarter_nuclei
smarter_nuclei_SM-GE64B_S016_E1-50	1	3	3	3	1.3981850049352258	2.217994165045652	smarter_nuclei
smarter_nuclei_SM-GE64B_S029_E1-50	1	2	2	1	4.757294209693898	-3.0096753705040458	smarter_nuclei
smarter_nuclei_SM-GE64B_S033_E1-50	1	2	2	1	4.9696135095725085	-2.2479038833406033	smarter_nuclei
smarter_nuclei_SM-GE64B_S110_E1-50	1	2	2	1	4.369275331756438	-1.585617426750057	smarter_nuclei
smarter_nuclei_SM-GE64E_S010_E1-50	1	2	2	1	3.8810691268187965	-2.3738217598321025	smarter_nuclei
smarter_nuclei_SM-GE64E_S011_E1-50	1	2	2	1	4.804610876913124	-1.9379831537024819	smarter_nuclei
smarter_nuclei_SM-GE64E_S026_E1-50	1	3	3	2	6.616385721444778	2.649015879557657	smarter_nuclei
smarter_nuclei_SM-GE64E_S032_E1-50	1	3	3	2	6.124355528283064	3.291116820762491	smarter_nuclei
smarter_nuclei_SM-GE64E_S152_E1-50	1	2	2	1	3.0079795130674922	-1.1392117795138381	smarter_nuclei
smarter_nuclei_SM-GE64F_S043_E1-50	1	3	3	2	4.5013521396500025	2.0708293854972553	smarter_nuclei
smarter_nuclei_SM-GE64F_S049_E1-50	1	3	3	2	2.530036677024308	2.049560989765493	smarter_nuclei
smarter_nuclei_SM-GE64F_S053_E1-50	1	2	2	1	4.548853693555491	-1.5720925922308857	smarter_nuclei
smarter_nuclei_SM-GE63Z_S100_E1-50	1	2	2	1	3.539781710511973	-1.1174677466424463	smarter_nuclei
smarter_nuclei_SM-GE63Z_S153_E1-50	2	1	1	5	1.0771455057605626	0.08016024974395625	smarter_nuclei
smarter_nuclei_SM-GE641_S022_E1-50	1	2	2	1	4.018846949442823	-2.5822241106958668	smarter_nuclei
smarter_nuclei_SM-GE641_S139_E1-50	1	3	3	2	5.442025281053942	1.9195396373776488	smarter_nuclei
smarter_nuclei_SM-GE642_S016_E1-50	1	2	2	1	4.693890879645311	-1.5127792385723973	smarter_nuclei
smarter_nuclei_SM-GE642_S059_E1-50	1	3	3	2	2.0153642069027495	0.33445392229389176	smarter_nuclei
smarter_nuclei_SM-GE642_S074_E1-50	1	2	2	1	4.174274731626726	-1.742039764618897	smarter_nuclei
smarter_nuclei_SM-GE642_S119_E1-50	1	2	2	1	5.103476411133738	-3.571812345817587	smarter_nuclei
smarter_nuclei_SM-GE642_S131_E1-50	1	2	2	1	5.022349106952866	-2.9684015814434788	smarter_nuclei
smarter_nuclei_SM-GE643_S044_E1-50	1	2	2	1	3.6647763923881453	-2.5964364228633676	smarter_nuclei
smarter_nuclei_SM-GE644_S059_E1-50	1	3	3	2	4.106248248583469	-0.7158445834634752	smarter_nuclei
smarter_nuclei_SM-GE644_S065_E1-50	1	3	3	2	5.94223319675423	2.755778785525078	smarter_nuclei
smarter_nuclei_SM-GE644_S072_E1-50	1	2	2	1	4.058351017472606	-2.0567862871585096	smarter_nuclei
smarter_nuclei_SM-GE644_S078_E1-50	1	3	3	2	1.8749247811359893	2.018337516856143	smarter_nuclei
smarter_nuclei_SM-GE644_S153_E1-50	1	3	3	2	2.4796118269923446	1.7139825911427709	smarter_nuclei
smarter_nuclei_SM-GE644_S159_E1-50	1	3	3	2	5.0983663710228555	1.9990818930970622	smarter_nuclei
smarter_nuclei_SM-GE645_S053_E1-50	1	3	3	2	5.464552321163544	3.284153571016247	smarter_nuclei
smarter_nuclei_SM-GE645_S056_E1-50	1	3	3	2	6.1084612986864855	2.9480213800881265	smarter_nuclei
smarter_nuclei_SM-GE645_S123_E1-50	1	3	3	2	5.87457651124335	2.9596502375433738	smarter_nuclei
smarter_nuclei_SM-GE645_S125_E1-50	1	2	2	1	3.4339429767366356	-1.5106195745900248	smarter_nuclei
smarter_nuclei_SM-GE645_S138_E1-50	1	2	2	1	4.074612799512858	-1.4442585002830286	smarter_nuclei
smarter_nuclei_SM-GE645_S140_E1-50	1	2	2	1	4.586428753588156	-2.1756892131683876	smarter_nuclei
smarter_nuclei_SM-GE646_S144_E1-50	1	2	2	1	4.292690881258288	-2.0913032014138744	smarter_nuclei
smarter_nuclei_SM-GE647_S132_E1-50	1	2	2	1	3.6374301822692137	-2.733351059240248	smarter_nuclei
smarter_nuclei_SM-GE647_S141_E1-50	1	3	3	2	5.706340945278079	2.7461333691916594	smarter_nuclei
smarter_nuclei_SM-GE66I_S029_E1-50	1	2	2	1	3.608629239964691	-2.261312239048708	smarter_nuclei
smarter_nuclei_SM-GE66I_S031_E1-50	1	2	3	1	5.209227726848616	-1.1755438352598786	smarter_nuclei
smarter_nuclei_SM-GE66I_S036_E1-50	1	3	3	2	4.19137871792187	-0.46813812063707355	smarter_nuclei
smarter_nuclei_SM-GE66I_S038_E1-50	1	3	3	2	5.156240165772996	0.4347333344298181	smarter_nuclei
smarter_nuclei_SM-GE66J_S053_E1-50	1	3	3	2	2.001200287671788	2.1386557576661844	smarter_nuclei
smarter_nuclei_SM-GE66L_S068_E1-50	1	3	3	2	5.6228294911910295	1.063448402982685	smarter_nuclei
smarter_nuclei_SM-GE66M_S033_E1-50	2	1	1	5	1.094055724539048	0.4032427621203745	smarter_nuclei
smarter_nuclei_SM-GE66M_S148_E1-50	1	3	3	2	5.853407083586629	1.6769063909750481	smarter_nuclei
smarter_nuclei_SM-GE66M_S158_E1-50	2	1	1	3	0.9986397158029632	2.178372068729818	smarter_nuclei
smarter_nuclei_SM-GE66N_S049_E1-50	1	2	2	1	4.5632458308420185	-2.731446634337197	smarter_nuclei
smarter_nuclei_SM-GE66N_S060_E1-50	1	2	2	1	5.078574355791248	-1.712001638295436	smarter_nuclei
smarter_nuclei_SM-GE66N_S090_E1-50	1	3	3	2	5.186831966434396	1.807680824446099	smarter_nuclei
smarter_nuclei_SM-GE66N_S165_E1-50	1	2	2	1	4.981696331033889	-3.1466355685456753	smarter_nuclei
smarter_nuclei_SM-GE66O_S057_E1-50	1	3	3	2	5.59402049637976	1.2061791667947064	smarter_nuclei
smarter_nuclei_SM-GE66O_S068_E1-50	1	3	3	2	2.219057469193701	1.9673559780858936	smarter_nuclei
smarter_nuclei_SM-GE66O_S071_E1-50	1	3	3	2	4.967370272527679	2.1900088257526464	smarter_nuclei
smarter_nuclei_SM-GE66O_S078_E1-50	1	3	3	2	5.427460155414249	3.1821075697012358	smarter_nuclei
smarter_nuclei_SM-GE66O_S192_E1-50	1	3	3	2	4.895703315781918	0.4950663075394271	smarter_nuclei
smarter_nuclei_SM-GE66P_S044_E1-50	1	2	2	1	4.640009253677774	-2.376315999663	smarter_nuclei
smarter_nuclei_SM-GE66P_S045_E1-50	1	3	3	2	4.217724209645372	-0.06359101055779963	smarter_nuclei
smarter_nuclei_SM-GE66P_S057_E1-50	1	2	3	2	4.3616588880012	-0.6757335806592734	smarter_nuclei
smarter_nuclei_SM-GE66P_S060_E1-50	1	3	3	2	6.761338546575996	2.8478156062502387	smarter_nuclei
smarter_nuclei_SM-GE66P_S063_E1-50	1	3	3	2	6.033765382804959	2.8728598456846695	smarter_nuclei
smarter_nuclei_SM-GE66P_S172_E1-50	1	3	3	2	4.726808222198069	0.42049397154687856	smarter_nuclei
smarter_nuclei_SM-GE66A_S033_E1-50	1	2	2	1	4.252969483094906	-2.550948851553162	smarter_nuclei
smarter_nuclei_SM-GE66A_S036_E1-50	1	3	3	2	3.177051414489259	2.0305670871379626	smarter_nuclei
smarter_nuclei_SM-GE66A_S055_E1-50	1	3	3	2	6.019648442775583	2.292391640810288	smarter_nuclei
smarter_nuclei_SM-GE66A_S059_E1-50	1	2	2	1	4.286915630979939	-2.560647540558569	smarter_nuclei
smarter_nuclei_SM-GE66A_S062_E1-50	1	3	3	2	5.884142019408086	1.990664671066188	smarter_nuclei
smarter_nuclei_SM-GE66A_S072_E1-50	1	3	3	2	4.123183781708739	0.231543747923863	smarter_nuclei
smarter_nuclei_SM-GE66A_S107_E1-50	1	3	3	2	2.755566657132646	0.765116299442877	smarter_nuclei
smarter_nuclei_SM-GE66A_S117_E1-50	2	1	1	5	1.5616293175415281	-0.44621939427163887	smarter_nuclei
smarter_nuclei_SM-GE66A_S142_E1-50	1	3	3	2	3.019005111838286	1.7589816954026984	smarter_nuclei
smarter_nuclei_SM-GE66C_S026_E1-50	1	2	2	1	4.268068214300901	-2.4031814706331196	smarter_nuclei
smarter_nuclei_SM-GE66D_S001_E1-50	1	3	3	2	3.9254185292562727	0.02055719312089169	smarter_nuclei
smarter_nuclei_SM-GE66D_S009_E1-50	1	2	2	1	4.141992966749144	-2.206370712383012	smarter_nuclei
smarter_nuclei_SM-GE66D_S016_E1-50	1	3	3	2	4.951091283308329	1.552269281491024	smarter_nuclei
smarter_nuclei_SM-GE66D_S022_E1-50	1	3	3	2	6.208041977655474	3.1519256983624153	smarter_nuclei
smarter_nuclei_SM-GE66D_S100_E1-50	1	3	3	2	6.657986666271659	2.284287655381576	smarter_nuclei
smarter_nuclei_SM-GE64E_S022_E1-50	2	1	1	4	-3.421633581249099	0.46244649048908604	smarter_nuclei
smarter_nuclei_SM-GE64E_S144_E1-50	2	1	1	3	0.3844983830153207	0.5899201465722407	smarter_nuclei
smarter_nuclei_SM-GE64E_S164_E1-50	2	1	1	4	-3.7903918073020133	1.5369742576760559	smarter_nuclei
smarter_nuclei_SM-GE644_S157_E1-50	2	1	1	4	-2.5623752630940486	0.42865519389229934	smarter_nuclei
smarter_nuclei_SM-GE645_S127_E1-50	2	1	1	5	1.1306734598331567	0.32392208861027033	smarter_nuclei
smarter_nuclei_SM-GE645_S139_E1-50	2	1	1	5	-1.6680663355923617	-0.24170939500503788	smarter_nuclei
smarter_nuclei_SM-GE645_S144_E1-50	2	1	1	5	0.9285273158669097	-0.10181486134444005	smarter_nuclei
smarter_nuclei_SM-GE646_S028_E1-50	2	1	1	4	-3.296745339686437	0.4756810610058231	smarter_nuclei
smarter_nuclei_SM-GE646_S173_E1-50	2	1	1	4	-3.5785290141106185	-0.011531949130263055	smarter_nuclei
smarter_nuclei_SM-GE66I_S041_E1-50	2	1	1	4	-3.660075496135685	0.8502762243073547	smarter_nuclei
smarter_nuclei_SM-GE66L_S094_E1-50	2	1	1	4	-3.456446268416716	1.9117488791413741	smarter_nuclei
smarter_nuclei_SM-GE66N_S089_E1-50	2	1	1	4	-3.250308961722069	2.2894190494195006	smarter_nuclei
smarter_nuclei_SM-GE66N_S114_E1-50	2	1	1	4	-3.442791428239589	0.4937132929916643	smarter_nuclei
smarter_nuclei_SM-GE66B_S042_E1-50	1	2	2	1	3.951805468126982	-2.874704639724999	smarter_nuclei
10x_cells_v2_CACAAACGTCGATTGT-4L8TX_171026_01_F04	2	1	1	6	-0.6504346949269304	-3.6874739840771933	10x_cells_v2
10x_cells_v2_CCCATACGTTTAAGCC-9L8TX_171026_01_H03	1	2	2	1	1.0738971424920365	-4.491629359727334	10x_cells_v2
10x_cells_v2_CCAATCCAGTTGTAGA-13L8TX_171026_01_E05	2	1	1	6	-1.0739921445634883	-3.5171462709389454	10x_cells_v2
10x_cells_v2_TGCGCAGAGCCAGTTT-13L8TX_171026_01_E05	1	3	3	2	2.3891740021956465	-0.5601172581240326	10x_cells_v2
10x_cells_v2_CTTTGCGAGGTTACCT-15L8TX_171026_01_G05	1	2	2	1	1.2964702955696386	-4.561954308507781	10x_cells_v2
10x_cells_v2_CCCTCCTAGTTAGCGG-16L8TX_171026_01_H05	2	1	1	6	-0.4673118010267478	-3.5280756560954565	10x_cells_v2
10x_cells_v2_GGACAAGGTAGCGCTC-16L8TX_171026_01_H05	2	1	1	6	-0.5184478801155888	-3.637368192979468	10x_cells_v2
10x_cells_v2_CCTATTAGTTGAGTTC-13L8TX_171026_01_E05	2	1	1	6	-0.06396708714603301	-3.765107529976336	10x_cells_v2
10x_cells_v2_CGCTGGAGTGAAGGCT-9L8TX_171026_01_H03	1	2	2	1	2.143803238332036	-1.8564659977593956	10x_cells_v2
10x_cells_v2_GCGCGATGTACGAAAT-8L8TX_171026_01_A05	2	1	1	6	-0.2022017224239925	-3.050789815295023	10x_cells_v2
10x_cells_v2_TAAGAGACATCCGCGA-10L8TX_171026_01_A04	2	1	1	6	0.4993322499743104	-3.983355459065359	10x_cells_v2
10x_cells_v2_AATCGGTCATCCGTGG-1L8TX_171026_01_F03	2	1	1	6	-1.639568740093854	-1.7149670205493581	10x_cells_v2
10x_cells_v2_ACGGCCAAGGCAAAGA-1L8TX_171026_01_F03	2	1	1	5	-0.5731461188893957	-0.11282170617499576	10x_cells_v2
10x_cells_v2_AGAGTGGGTGTGACGA-1L8TX_171026_01_F03	2	1	1	6	-0.02986947298147893	-2.0950988433727025	10x_cells_v2
10x_cells_v2_AGGCCACGTCAAACTC-1L8TX_171026_01_F03	2	1	1	3	0.4072873519961447	2.295037200533843	10x_cells_v2
10x_cells_v2_CGACTTCTCATCACCC-1L8TX_171026_01_F03	2	1	1	4	-3.2929157904317883	1.1875245936337255	10x_cells_v2
10x_cells_v2_CTGTGCTTCGGAAATA-1L8TX_171026_01_F03	2	1	1	4	-3.2920748906731334	0.7761498948513845	10x_cells_v2
10x_cells_v2_GAACATCAGGTGACCA-1L8TX_171026_01_F03	2	1	1	4	-2.208267258043464	1.534223728199455	10x_cells_v2
10x_cells_v2_GCACTCTAGCAAATCA-1L8TX_171026_01_F03	1	2	2	1	2.0388679545975466	-1.2445694145930792	10x_cells_v2
10x_cells_v2_GTACGTACATCGACGC-1L8TX_171026_01_F03	2	1	1	6	-1.3205281117025371	-2.309599594914087	10x_cells_v2
10x_cells_v2_TACTCATTCGGAAATA-1L8TX_171026_01_F03	2	1	1	5	-0.1917612232509539	-0.8943593401350678	10x_cells_v2
10x_cells_v2_TGCGGGTAGGCCCTTG-1L8TX_171026_01_F03	2	1	1	4	-3.9940335516699803	1.816297317325443	10x_cells_v2
10x_cells_v2_TGTTCCGAGTGCCAGA-1L8TX_171026_01_F03	2	1	1	3	0.3941507402086783	-0.629954617791785	10x_cells_v2
10x_cells_v2_TTCCCAGAGGGCTCTC-1L8TX_171026_01_F03	2	1	1	5	-1.7007837762256286	-0.4899621853880075	10x_cells_v2
10x_cells_v2_TTGAACGCACGGCCAT-1L8TX_171026_01_F03	2	1	1	3	-1.8677870464511808	1.6269526964229695	10x_cells_v2
10x_cells_v2_AAAGCAATCGATCCCT-2L8TX_171026_01_G03	2	1	1	5	0.16668156153955507	-1.187999058165394	10x_cells_v2
10x_cells_v2_ACCCACTCATCCGTGG-2L8TX_171026_01_G03	2	1	1	3	0.3309499175505965	-1.6194629316937574	10x_cells_v2
10x_cells_v2_ACGCCAGAGTATTGGA-2L8TX_171026_01_G03	2	1	1	5	0.5299401926744037	-1.500757304234511	10x_cells_v2
10x_cells_v2_AGGTCCGAGTTAGCGG-2L8TX_171026_01_G03	2	1	1	3	1.7251766208059727	0.6324735066385195	10x_cells_v2
10x_cells_v2_CAGCTAAGTGCGCTTG-2L8TX_171026_01_G03	2	1	1	4	-2.1259243456767734	3.4906926939095038	10x_cells_v2
10x_cells_v2_CATATTCAGCACAGGT-2L8TX_171026_01_G03	2	1	1	3	1.3101676789044565	-1.255250337920139	10x_cells_v2
10x_cells_v2_CCTTACGTCATCGGAT-2L8TX_171026_01_G03	2	1	1	3	-0.33851218245936016	-2.0053389740145193	10x_cells_v2
10x_cells_v2_CTCTACGGTGCACGAA-2L8TX_171026_01_G03	2	1	1	5	0.06285273385314716	0.24939121337421824	10x_cells_v2
10x_cells_v2_GACACGCGTGTAACGG-2L8TX_171026_01_G03	2	1	1	3	0.7248917252359457	-1.2704451428562447	10x_cells_v2
10x_cells_v2_GGACGTCAGTGGGTTG-2L8TX_171026_01_G03	2	1	1	3	1.4137919175440297	-1.0950258881245256	10x_cells_v2
10x_cells_v2_GGCAATTTCGGAAACG-2L8TX_171026_01_G03	2	1	1	3	1.137928386732591	1.6148065929605062	10x_cells_v2
10x_cells_v2_GTACTTTCAACGATGG-2L8TX_171026_01_G03	2	1	1	3	-0.35888301647904186	-1.593993860866191	10x_cells_v2
10x_cells_v2_TCAGCTCAGGGTGTGT-2L8TX_171026_01_G03	2	1	1	5	0.865851607596772	0.31712167029364485	10x_cells_v2
10x_cells_v2_TGGCTGGGTATGAATG-2L8TX_171026_01_G03	2	1	1	3	0.6541414497015721	-1.1381081029702065	10x_cells_v2
10x_cells_v2_AAAGTAGGTCTCACCT-3L8TX_171026_01_B04	2	1	1	4	-3.57571972862987	1.3931377425253333	10x_cells_v2
10x_cells_v2_ACCGTAACACGACGAA-3L8TX_171026_01_B04	2	1	1	6	-0.49171732712085553	-2.353135018980446	10x_cells_v2
10x_cells_v2_ACGCCAGGTGCTCTTC-3L8TX_171026_01_B04	2	1	1	3	1.322794014983502	-1.0176603383961922	10x_cells_v2
10x_cells_v2_AGCTCTCCATACTACG-3L8TX_171026_01_B04	2	1	1	4	-4.309495935223512	1.0041362224191221	10x_cells_v2
10x_cells_v2_AGTTGGTAGTGCAAGC-3L8TX_171026_01_B04	2	1	1	6	-0.6735210080153446	-3.02815488897909	10x_cells_v2
10x_cells_v2_CAAGATCCAGAGCCAA-3L8TX_171026_01_B04	2	1	1	6	-1.610512124747333	-2.3498392939333153	10x_cells_v2
10x_cells_v2_CACTCCAGTTCTCATT-3L8TX_171026_01_B04	2	1	1	5	-0.07534677384207597	0.12685454430927842	10x_cells_v2
10x_cells_v2_CAGCCGAGTGTTTGGT-3L8TX_171026_01_B04	2	1	1	3	2.003458721858914	-1.04005270094115	10x_cells_v2
10x_cells_v2_CCCAGTTCAAGTCTGT-3L8TX_171026_01_B04	2	1	1	3	-0.5744304150048878	0.04168072927044269	10x_cells_v2
10x_cells_v2_CGATTGAGTCGCCATG-3L8TX_171026_01_B04	1	2	2	3	2.07953901429218	-1.4047681663936022	10x_cells_v2
10x_cells_v2_CGGGTCAGTAACGTTC-3L8TX_171026_01_B04	2	1	1	4	-1.8594398559067504	2.3300612512314856	10x_cells_v2
10x_cells_v2_CTAATGGAGTACGACG-3L8TX_171026_01_B04	2	1	1	3	-1.8669677777008493	-1.189020872489569	10x_cells_v2
10x_cells_v2_CTGATCCAGTATGACA-3L8TX_171026_01_B04	2	1	1	3	-0.9316890989119523	1.0029327415461957	10x_cells_v2
10x_cells_v2_GATTCAGAGTAGATGT-3L8TX_171026_01_B04	2	1	1	4	-2.2205702281623485	1.0653871999012074	10x_cells_v2
10x_cells_v2_GCAGTTATCCGCTGTT-3L8TX_171026_01_B04	2	1	1	5	0.014743430233459372	-0.08574416121549656	10x_cells_v2
10x_cells_v2_GCTGCGATCCACGCAG-3L8TX_171026_01_B04	2	1	1	5	-1.783058414417414	1.3137879893053033	10x_cells_v2
10x_cells_v2_GGCTGGTCACTTAACG-3L8TX_171026_01_B04	2	1	1	3	0.6368020425163445	-1.3702291697797628	10x_cells_v2
10x_cells_v2_GTGCATAGTCTGCCAG-3L8TX_171026_01_B04	2	1	1	5	-0.010670123976228324	0.03187769078371341	10x_cells_v2
10x_cells_v2_TAAGAGATCTTACCTA-3L8TX_171026_01_B04	2	1	1	5	1.5383680916935054	0.22803930767475253	10x_cells_v2
10x_cells_v2_TGACAACCAGTAAGCG-3L8TX_171026_01_B04	2	1	1	4	-4.162157986930639	1.1033178137940483	10x_cells_v2
10x_cells_v2_AAAGCAACACGTCAGC-4L8TX_171026_01_F04	1	3	3	2	2.347671055825953	-0.353001084953194	10x_cells_v2
10x_cells_v2_ACGCCGACAAACTGCT-4L8TX_171026_01_F04	2	1	1	6	-0.5589576073847271	-2.9122941805291513	10x_cells_v2
10x_cells_v2_CATCCACAGCTAGTTC-4L8TX_171026_01_F04	2	1	1	3	0.5604997879299572	2.6601082084736047	10x_cells_v2
10x_cells_v2_CCCAATCCACCACGTG-4L8TX_171026_01_F04	2	1	1	3	0.8202752068540851	1.1014913793019805	10x_cells_v2
10x_cells_v2_GCATGATAGTGATCGG-4L8TX_171026_01_F04	2	1	1	3	0.46863604774429635	-0.7711658741560226	10x_cells_v2
10x_cells_v2_GCGGGTTCACATCTTT-4L8TX_171026_01_F04	2	1	1	4	-4.3094550652320365	0.6273272933045406	10x_cells_v2
10x_cells_v2_GGGAGATCACCAGCAC-4L8TX_171026_01_F04	2	1	1	4	-1.596091047413794	3.5055218821330567	10x_cells_v2
10x_cells_v2_GTCACAACATCGGAAG-4L8TX_171026_01_F04	2	1	3	3	1.6023059375830018	2.303962841396436	10x_cells_v2
10x_cells_v2_TAAACCGCAATCGGTT-4L8TX_171026_01_F04	2	1	1	3	-0.589932462063144	-0.2936443883298595	10x_cells_v2
10x_cells_v2_TACCTATAGCTGATAA-4L8TX_171026_01_F04	2	1	1	5	-1.0237111670838908	-0.027012453836237106	10x_cells_v2
10x_cells_v2_TCTCTAAAGAAACGAG-4L8TX_171026_01_F04	2	1	1	3	1.520418834396086	-1.336441853873343	10x_cells_v2
10x_cells_v2_TGGCTGGTCAGTCCCT-4L8TX_171026_01_F04	2	1	1	6	-1.1247648686332348	-3.3874025554127405	10x_cells_v2
10x_cells_v2_ACCCACTAGCTCAACT-5L8TX_171026_01_G04	2	1	1	5	-1.8109606307863335	0.7911180166837266	10x_cells_v2
10x_cells_v2_ACGGCCACACAAGTAA-5L8TX_171026_01_G04	2	1	1	3	-0.49948745728196603	2.060839657733645	10x_cells_v2
10x_cells_v2_AGAGCTTCAGTTCATG-5L8TX_171026_01_G04	2	1	1	3	-1.667672360641895	1.8176901943065893	10x_cells_v2
10x_cells_v2_CAGATCAAGAGCTGGT-5L8TX_171026_01_G04	2	1	1	4	-3.135083248365339	2.8541173054899343	10x_cells_v2
10x_cells_v2_GGCTGGTTCAAAGACA-5L8TX_171026_01_G04	2	1	1	3	1.2674269550904036	2.2214874921564616	10x_cells_v2
10x_cells_v2_GTCAAGTAGACCTTTG-5L8TX_171026_01_G04	2	1	1	6	-1.0446564049303133	-3.2791586170498266	10x_cells_v2
10x_cells_v2_AAGTCTGCATCCTTGC-6L8TX_171026_01_B05	2	1	1	4	-1.119051324873924	3.1900735906540847	10x_cells_v2
10x_cells_v2_ATGAGGGAGCGTTGCC-6L8TX_171026_01_B05	2	1	1	3	-0.4074820844925054	2.1964695417239795	10x_cells_v2
10x_cells_v2_CAAGAAATCTCCAGGG-6L8TX_171026_01_B05	2	1	1	3	0.5038781427036833	2.7419877290243564	10x_cells_v2
10x_cells_v2_CCTTACGAGCACAGGT-6L8TX_171026_01_B05	2	1	1	5	-1.343723550064567	0.9040108645670596	10x_cells_v2
10x_cells_v2_CGAATGTCAAGCGAGT-6L8TX_171026_01_B05	2	1	1	4	-1.9447546697202953	3.1054490334014346	10x_cells_v2
10x_cells_v2_CGAGAAGGTAGAAGGA-6L8TX_171026_01_B05	1	3	3	3	1.6894268820213703	2.0874304810148123	10x_cells_v2
10x_cells_v2_CTCGTCATCACAGTAC-6L8TX_171026_01_B05	2	1	1	4	-1.3773755244990566	3.0394634347900924	10x_cells_v2
10x_cells_v2_GACGTGCAGGCTACGA-6L8TX_171026_01_B05	2	1	1	4	-1.7396906366978586	2.5793114932500614	10x_cells_v2
10x_cells_v2_ACTATCTCAAAGCAAT-7L8TX_171026_01_H04	2	1	1	4	-1.0050789919892231	3.2840810999228838	10x_cells_v2
10x_cells_v2_ACTGTCCGTAGGGACT-7L8TX_171026_01_H04	2	1	1	4	-2.4883190973697955	3.3779889531929075	10x_cells_v2
10x_cells_v2_ATAACGCGTAGATTAG-7L8TX_171026_01_H04	2	1	1	3	0.9360922506159475	-1.283850713101453	10x_cells_v2
10x_cells_v2_CTGCTGTGTTACCGAT-7L8TX_171026_01_H04	2	1	1	6	-1.6027566733598004	-2.953288606157275	10x_cells_v2
10x_cells_v2_GATCGCGAGTTCGCAT-7L8TX_171026_01_H04	2	1	1	6	-1.8432484762158754	-2.494718812194334	10x_cells_v2
10x_cells_v2_GTTAAGCCACCAGCAC-7L8TX_171026_01_H04	2	1	3	3	1.320325685862838	2.1353557353996977	10x_cells_v2
10x_cells_v2_TTAGTTCCATCAGTAC-7L8TX_171026_01_H04	2	1	1	4	-3.035550259955356	1.9213428915869217	10x_cells_v2
10x_cells_v2_TTGCCGTGTGGTGTAG-7L8TX_171026_01_H04	2	1	1	6	-1.3835470060566675	-2.740376775196637	10x_cells_v2
10x_cells_v2_AATCGGTTCTACCTGC-8L8TX_171026_01_A05	2	1	1	5	-1.2689805924410753	-1.1609936019132605	10x_cells_v2
10x_cells_v2_CAAGATCCAAGTCATC-8L8TX_171026_01_A05	2	1	1	3	-0.7582204222900087	1.751529950207347	10x_cells_v2
10x_cells_v2_CACCACTCATATACCG-8L8TX_171026_01_A05	2	1	1	3	-1.150673518136754	-1.9434911131593124	10x_cells_v2
10x_cells_v2_CCTTACGAGTGACTCT-8L8TX_171026_01_A05	2	1	1	3	-2.2529417445349464	-1.5853974974876783	10x_cells_v2
10x_cells_v2_CGAGCCATCCCTAACC-8L8TX_171026_01_A05	2	1	1	5	0.5109079339678889	-0.19449948969073885	10x_cells_v2
10x_cells_v2_CTCGGAGTCAAGAAGT-8L8TX_171026_01_A05	2	1	1	3	-0.8727259656946506	1.225854450346267	10x_cells_v2
10x_cells_v2_CTCTACGCAGACACTT-8L8TX_171026_01_A05	2	1	1	5	-0.6823860603642653	-0.12337932637420307	10x_cells_v2
10x_cells_v2_CTGATAGCAGATGGCA-8L8TX_171026_01_A05	2	1	1	4	-2.226179440181703	2.6832715297481404	10x_cells_v2
10x_cells_v2_CTGATAGGTAATAGCA-8L8TX_171026_01_A05	2	1	1	5	-0.9217522959497678	0.9250927771113425	10x_cells_v2
10x_cells_v2_CTGTTTAAGGAATGGA-8L8TX_171026_01_A05	2	1	1	4	-3.3389692848512302	1.758375198099456	10x_cells_v2
10x_cells_v2_GGAACTTCAACTGCGC-8L8TX_171026_01_A05	2	1	1	3	-1.6038576985779607	1.674004416454796	10x_cells_v2
10x_cells_v2_GGCGACTTCGCTAGCG-8L8TX_171026_01_A05	2	1	1	3	0.43151558322274747	2.9327879726243085	10x_cells_v2
10x_cells_v2_GGGCATCTCACGAAGG-8L8TX_171026_01_A05	2	1	1	4	-2.951655811634722	3.080946241472938	10x_cells_v2
10x_cells_v2_TACGGGCGTGAGTATA-8L8TX_171026_01_A05	2	1	1	4	-1.5873544672208353	2.4998529728759746	10x_cells_v2
10x_cells_v2_TACTTACTCACGACTA-8L8TX_171026_01_A05	2	1	1	4	-0.49209735266083254	3.0454547171472366	10x_cells_v2
10x_cells_v2_TAGTGGTGTATCACCA-8L8TX_171026_01_A05	2	1	1	4	-2.6434069660603328	2.1281846520786694	10x_cells_v2
10x_cells_v2_TCACGAAAGGGTCGAT-8L8TX_171026_01_A05	2	1	1	4	-0.6485067452027186	3.3359197353300005	10x_cells_v2
10x_cells_v2_TGGCCAGGTTCCATGA-8L8TX_171026_01_A05	2	1	1	3	0.8509621102631396	2.6225424794933785	10x_cells_v2
10x_cells_v2_AGACGTTCACCTATCC-9L8TX_171026_01_H03	2	1	1	6	-0.4870447532243744	-2.467389939153471	10x_cells_v2
10x_cells_v2_CTGAAGTTCTGCGGCA-9L8TX_171026_01_H03	2	1	1	3	-2.02162888724124	0.5598406094088947	10x_cells_v2
10x_cells_v2_GCATGATAGCAGGTCA-9L8TX_171026_01_H03	2	1	1	5	0.13356066157432012	0.9116383676425682	10x_cells_v2
10x_cells_v2_TACTCATGTCAGAAGC-9L8TX_171026_01_H03	2	1	1	3	0.1664517563620844	-1.1915981151324984	10x_cells_v2
10x_cells_v2_TAGGCATCATAAGACA-9L8TX_171026_01_H03	2	1	1	3	1.6966496900414498	-1.4013839919985895	10x_cells_v2
10x_cells_v2_TATCAGGTCGTCGTTC-9L8TX_171026_01_H03	2	1	1	6	-0.3072966085861202	-3.2720911843208986	10x_cells_v2
10x_cells_v2_AGACGTTAGGTCGGAT-10L8TX_171026_01_A04	2	1	1	5	-0.4903061011918779	1.0076375656044418	10x_cells_v2
10x_cells_v2_AGGCCGTGTCCATCCT-10L8TX_171026_01_A04	2	1	1	5	-0.40926807312230085	0.7004891492645374	10x_cells_v2
10x_cells_v2_CACATAGGTAAAGTCA-10L8TX_171026_01_A04	2	1	1	5	-0.7951801680445881	0.6335709177924189	10x_cells_v2
10x_cells_v2_CATCCACGTCTTCTCG-10L8TX_171026_01_A04	2	1	1	5	0.1226360773132379	0.5280188644846703	10x_cells_v2
10x_cells_v2_CGAATGTAGCGTTCCG-10L8TX_171026_01_A04	2	1	1	4	-2.269126799600218	1.1360592171265769	10x_cells_v2
10x_cells_v2_CGAGAAGTCTATGTGG-10L8TX_171026_01_A04	2	1	1	3	1.05470673177914	-0.9168310890332959	10x_cells_v2
10x_cells_v2_CGTGTCTCAAACGCGA-10L8TX_171026_01_A04	2	1	1	4	-2.7165679101818814	2.2363846741583777	10x_cells_v2
10x_cells_v2_CGTGTCTGTGAGCGAT-10L8TX_171026_01_A04	2	1	1	4	-2.651898967148188	1.8360550968838416	10x_cells_v2
10x_cells_v2_GCATGATAGACTAAGT-10L8TX_171026_01_A04	2	1	1	4	-2.447560667708604	2.857751460576404	10x_cells_v2
10x_cells_v2_GCTGCGAAGTGGAGTC-10L8TX_171026_01_A04	1	3	3	2	2.457435882578423	-0.08995743211006263	10x_cells_v2
10x_cells_v2_GGATGTTAGCGATAGC-10L8TX_171026_01_A04	2	1	1	5	-1.3159517126246478	0.6690109614718924	10x_cells_v2
10x_cells_v2_GTTAAGCCAAGAAAGG-10L8TX_171026_01_A04	2	1	1	3	-0.1705227953735684	1.4514188867851852	10x_cells_v2
10x_cells_v2_TGCTGCTCAGACTCGC-10L8TX_171026_01_A04	2	1	1	3	0.9216932365219902	1.5249549926877963	10x_cells_v2
10x_cells_v2_TGGTTAGTCAGCGATT-10L8TX_171026_01_A04	2	1	1	3	1.0071718699063736	1.112974320916025	10x_cells_v2
10x_cells_v2_AACGTTGAGAGGTAGA-11L8TX_171026_01_C05	1	2	2	1	2.704115661730078	-0.9265631074538644	10x_cells_v2
10x_cells_v2_AAGGTTCCAAGCTGTT-11L8TX_171026_01_C05	2	1	1	3	1.2356934102472443	-1.5201975611068417	10x_cells_v2
10x_cells_v2_AGCGTATCAGTAACGG-11L8TX_171026_01_C05	2	1	1	5	-0.21571867021526625	-0.15205083692050156	10x_cells_v2
10x_cells_v2_AGCTCCTGTGCGAAAC-11L8TX_171026_01_C05	2	1	1	5	-0.20297265118863878	-0.42148074842002636	10x_cells_v2
10x_cells_v2_CACCAGGAGTGTGGCA-11L8TX_171026_01_C05	2	1	1	4	-3.2737083426601914	-0.7734571594591745	10x_cells_v2
10x_cells_v2_CCAGCGATCTCAAACG-11L8TX_171026_01_C05	2	1	1	3	1.092360483266222	-1.889747178205673	10x_cells_v2
10x_cells_v2_CGCTGGAGTTCCACAA-11L8TX_171026_01_C05	2	1	1	6	-0.2654599344521493	-3.477539194095082	10x_cells_v2
10x_cells_v2_GAACGGACATCGTCGG-11L8TX_171026_01_C05	2	1	1	3	0.7258338427067922	0.9984443640774292	10x_cells_v2
10x_cells_v2_GACGTTATCCGTAGGC-11L8TX_171026_01_C05	2	1	1	3	-1.7228253323265073	-0.9162569424448318	10x_cells_v2
10x_cells_v2_GATCAGTAGGTTACCT-11L8TX_171026_01_C05	2	1	1	6	-1.3470984319045123	-3.1850779796039674	10x_cells_v2
10x_cells_v2_GATGAAAAGTGCCAGA-11L8TX_171026_01_C05	2	1	1	6	-1.9092883070317612	-1.948360855155193	10x_cells_v2
10x_cells_v2_GCGCAGTAGCAGGTCA-11L8TX_171026_01_C05	2	1	1	5	-0.41923865446127223	-0.5467351232394284	10x_cells_v2
10x_cells_v2_GGCCGATCATATGCTG-11L8TX_171026_01_C05	2	1	1	6	-0.40827268217146984	-2.9831836600617194	10x_cells_v2
10x_cells_v2_GGCCGATGTTGGTGGA-11L8TX_171026_01_C05	2	1	1	6	-1.0683352475945465	-2.2049599484519384	10x_cells_v2
10x_cells_v2_GTCATTTAGTGTGGCA-11L8TX_171026_01_C05	2	1	1	3	-0.9607546206670065	-1.8528261739332104	10x_cells_v2
10x_cells_v2_GTCCTCAAGGGCACTA-11L8TX_171026_01_C05	2	1	1	5	-1.747450151397454	0.21371258470412208	10x_cells_v2
10x_cells_v2_TGAGAGGGTGTTTGTG-11L8TX_171026_01_C05	2	1	1	5	-1.2760609192207877	0.2907847514282128	10x_cells_v2
10x_cells_v2_TTAGGACCACCATGTA-11L8TX_171026_01_C05	2	1	1	5	-0.1736524915618964	-0.010202789463415693	10x_cells_v2
10x_cells_v2_TTGGCAAAGCTCCTTC-11L8TX_171026_01_C05	2	1	1	6	-0.5134563773279066	-2.9707124298781746	10x_cells_v2
10x_cells_v2_TTTCCTCCATGCTGGC-11L8TX_171026_01_C05	2	1	1	3	0.7222153108958281	-1.47623659574041	10x_cells_v2
10x_cells_v2_AACTCAGAGCGGATCA-12L8TX_171026_01_D05	2	1	1	4	-0.5323868147838864	3.345136177688985	10x_cells_v2
10x_cells_v2_AACTGGTGTACAGACG-12L8TX_171026_01_D05	2	1	1	5	-1.4952194535915266	-0.2634546896753463	10x_cells_v2
10x_cells_v2_ACTGATGAGACTCGGA-12L8TX_171026_01_D05	2	1	1	6	-0.5351698586519453	-3.5679263879220935	10x_cells_v2
10x_cells_v2_AGGCCGTGTACGACCC-12L8TX_171026_01_D05	2	1	1	5	0.716175012025107	-0.13494310799489878	10x_cells_v2
10x_cells_v2_CCTCTGATCTCTGCTG-12L8TX_171026_01_D05	2	1	1	6	-1.151016093356182	-2.6556173177752784	10x_cells_v2
10x_cells_v2_CGCGGTATCATCTGCC-12L8TX_171026_01_D05	2	1	1	3	-1.629542803444868	0.02656987540743591	10x_cells_v2
10x_cells_v2_CGGACTGGTTGTCTTT-12L8TX_171026_01_D05	2	1	1	6	-0.6805433135344061	-1.680484912621348	10x_cells_v2
10x_cells_v2_CGTCCATAGCATGGCA-12L8TX_171026_01_D05	2	1	1	4	-4.1457492579370285	0.5261400290865552	10x_cells_v2
10x_cells_v2_CGTGTAATCTTACCTA-12L8TX_171026_01_D05	2	1	1	6	-0.25043305257497595	-2.5027706452961773	10x_cells_v2
10x_cells_v2_CTACATTTCCCAGGTG-12L8TX_171026_01_D05	2	1	1	6	-0.7325790634467229	-1.5903444382333007	10x_cells_v2
10x_cells_v2_CTCAGAAAGACGCAAC-12L8TX_171026_01_D05	2	1	1	3	-1.9811001975248446	-2.0370299121156137	10x_cells_v2
10x_cells_v2_CTGGTCTCATGGTCTA-12L8TX_171026_01_D05	2	1	1	3	1.2990453392521946	-1.8199142987950803	10x_cells_v2
10x_cells_v2_CTTTGCGTCTTGCATT-12L8TX_171026_01_D05	2	1	1	5	0.2791233809413287	0.37572401241147946	10x_cells_v2
10x_cells_v2_GCTTCCACAAGAAAGG-12L8TX_171026_01_D05	2	1	1	5	0.4375872724918285	-0.18925833392843874	10x_cells_v2
10x_cells_v2_GGTGAAGCATAGGATA-12L8TX_171026_01_D05	2	1	1	6	-1.3238839710449963	-2.990526298900589	10x_cells_v2
10x_cells_v2_GTATTCTCAAGAGGCT-12L8TX_171026_01_D05	2	1	1	6	-1.037274036413545	-3.055741767516726	10x_cells_v2
10x_cells_v2_TGAGGGAAGACACGAC-12L8TX_171026_01_D05	2	1	1	4	-2.9919994455846823	0.9395432226239859	10x_cells_v2
10x_cells_v2_TGGACGCAGGCCGAAT-12L8TX_171026_01_D05	2	1	1	4	-4.462290114587542	0.7861858446572367	10x_cells_v2
10x_cells_v2_TTAGGCACAACACCCG-12L8TX_171026_01_D05	2	1	1	6	0.09864292885358976	-3.8343853982773184	10x_cells_v2
10x_cells_v2_AAGTCTGGTTTACTCT-13L8TX_171026_01_E05	2	1	1	4	-1.196316469495159	2.480515689004938	10x_cells_v2
10x_cells_v2_ACACCAAAGGCGACAT-13L8TX_171026_01_E05	2	1	1	5	0.8009503306954575	-0.08373196389133143	10x_cells_v2
10x_cells_v2_ACACCAAGTCGCCATG-13L8TX_171026_01_E05	2	1	1	5	-0.11482603585257456	0.12256331478203017	10x_cells_v2
10x_cells_v2_ACACCAAGTGTTTGGT-13L8TX_171026_01_E05	2	1	1	4	-2.091388950243219	0.3546831694537238	10x_cells_v2
10x_cells_v2_ACCGTAAGTTAAGACA-13L8TX_171026_01_E05	2	1	1	4	-3.5979941819901105	1.001283991228005	10x_cells_v2
10x_cells_v2_ACCTTTAGTCTCAACA-13L8TX_171026_01_E05	2	1	1	4	-4.054791943586814	1.6020489771007336	10x_cells_v2
10x_cells_v2_ACGCCAGTCCAAGCCG-13L8TX_171026_01_E05	2	1	1	5	-0.26198540575037993	-0.23793546607393715	10x_cells_v2
10x_cells_v2_AGAGCTTAGGTACTCT-13L8TX_171026_01_E05	2	1	1	5	-1.6389844140737322	0.521398818977664	10x_cells_v2
10x_cells_v2_AGAGCTTTCTTAGCCC-13L8TX_171026_01_E05	2	1	1	4	-2.316463413909388	2.4316786648248625	10x_cells_v2
10x_cells_v2_AGCAGCCGTACAGACG-13L8TX_171026_01_E05	2	1	1	5	1.4217331852848043	-0.223139903473658	10x_cells_v2
10x_cells_v2_AGGCCGTGTGGCCCTA-13L8TX_171026_01_E05	2	1	1	5	-2.315915327632585	0.31554002893235195	10x_cells_v2
10x_cells_v2_AGTGTCACACGTGAGA-13L8TX_171026_01_E05	2	1	1	5	-0.94317035322829	0.6935178688259448	10x_cells_v2
10x_cells_v2_ATGAGGGTCCACTGGG-13L8TX_171026_01_E05	2	1	1	5	1.2229280427813092	0.07973471578534781	10x_cells_v2
10x_cells_v2_CACCACTAGCGATCCC-13L8TX_171026_01_E05	2	1	1	5	-0.32329317249706674	0.3619967280005379	10x_cells_v2
10x_cells_v2_CAGAGAGCAGCGTAAG-13L8TX_171026_01_E05	2	1	1	5	0.018395571555923227	-0.40135037956586406	10x_cells_v2
10x_cells_v2_CAGGTGCTCCGTACAA-13L8TX_171026_01_E05	2	1	1	3	-2.422311819268545	-1.9426280204567576	10x_cells_v2
10x_cells_v2_CATATTCCACCGAAAG-13L8TX_171026_01_E05	2	1	1	5	-1.0195956013092478	0.39204007591893625	10x_cells_v2
10x_cells_v2_CATCAGAGTACCGAGA-13L8TX_171026_01_E05	2	1	1	5	1.4212431120013944	0.26055191466887084	10x_cells_v2
10x_cells_v2_CATCGAACATGCCTAA-13L8TX_171026_01_E05	2	1	1	5	0.7378064087057142	-0.24864878654505643	10x_cells_v2
10x_cells_v2_CCACCTATCACTTACT-13L8TX_171026_01_E05	2	1	1	3	-1.2509085444203754	-2.2196547687366857	10x_cells_v2
10x_cells_v2_CGGTTAAAGCTAGGCA-13L8TX_171026_01_E05	2	1	1	6	-1.050695930492898	-3.076673158063486	10x_cells_v2
10x_cells_v2_CGTGTCTCAATGTAAG-13L8TX_171026_01_E05	2	1	1	6	-0.2811819954687965	-2.5762019297796446	10x_cells_v2
10x_cells_v2_CTAACTTCAGACAGGT-13L8TX_171026_01_E05	2	1	1	4	-4.486283220493732	1.0430038641321524	10x_cells_v2
10x_cells_v2_CTCGGAGGTATGGTTC-13L8TX_171026_01_E05	2	1	1	5	-1.6049769194418566	-0.27215178082849695	10x_cells_v2
10x_cells_v2_CTCGGGATCAAGAAGT-13L8TX_171026_01_E05	2	1	1	6	-0.9607253893745947	-1.438469810676446	10x_cells_v2
10x_cells_v2_CTCTACGCAATCAGAA-13L8TX_171026_01_E05	2	1	1	5	0.044325577336467026	-0.5782462063958581	10x_cells_v2
10x_cells_v2_CTGATCCGTGGCAAAC-13L8TX_171026_01_E05	2	1	1	6	-1.1783333622991556	-3.2225727127852357	10x_cells_v2
10x_cells_v2_CTTAGGAAGAACAACT-13L8TX_171026_01_E05	2	1	1	6	-0.6183607010849269	-3.35684027483144	10x_cells_v2
10x_cells_v2_GAACATCGTTCATGGT-13L8TX_171026_01_E05	2	1	1	6	-2.17727649585938	-1.9256359640174778	10x_cells_v2
10x_cells_v2_GAAGCAGTCCACGACG-13L8TX_171026_01_E05	1	3	3	2	2.115748795767747	-0.058959711425952334	10x_cells_v2
10x_cells_v2_GCACTCTGTCCAAGTT-13L8TX_171026_01_E05	2	1	1	6	-2.261893086448805	-1.304329504563313	10x_cells_v2
10x_cells_v2_GCATGTAAGCATGGCA-13L8TX_171026_01_E05	2	1	1	6	-1.2115336342461491	-2.9207504752147937	10x_cells_v2
10x_cells_v2_GCATGTATCTATCGCC-13L8TX_171026_01_E05	2	1	1	4	-4.337976836466821	1.2951320326862892	10x_cells_v2
10x_cells_v2_GCTTGAATCAGCGACC-13L8TX_171026_01_E05	2	1	1	3	-0.2412527772053277	-1.98601067190976	10x_cells_v2
10x_cells_v2_GTCATTTCAAGCGCTC-13L8TX_171026_01_E05	2	1	1	4	-4.168303246029194	1.3783887047601027	10x_cells_v2
10x_cells_v2_GTCGGGTTCATGTGGT-13L8TX_171026_01_E05	2	1	1	5	-1.4473110818609336	0.4486522496660644	10x_cells_v2
10x_cells_v2_GTTCGGGGTTCAGTAC-13L8TX_171026_01_E05	2	1	1	4	-4.269289864198666	0.7602172559752486	10x_cells_v2
10x_cells_v2_TAAACCGCATCCTAGA-13L8TX_171026_01_E05	2	1	1	5	-1.6588225589926813	0.477881404994537	10x_cells_v2
10x_cells_v2_TACACGAGTACGCTGC-13L8TX_171026_01_E05	2	1	1	3	1.1203818288061829	-1.5270915745677696	10x_cells_v2
10x_cells_v2_TACTCGCCAGACAAGC-13L8TX_171026_01_E05	2	1	1	3	1.0683059622527653	-1.5118868856718526	10x_cells_v2
10x_cells_v2_TGCCAAATCAGCTCGG-13L8TX_171026_01_E05	2	1	1	5	-0.5485151595303654	0.26324044105182204	10x_cells_v2
10x_cells_v2_TGCTACCGTCGGCATC-13L8TX_171026_01_E05	2	1	1	4	-2.71142037289972	-1.4210050806472287	10x_cells_v2
10x_cells_v2_TGGACGCTCCATGAAC-13L8TX_171026_01_E05	2	1	1	4	-3.5526516644972728	2.480841956881841	10x_cells_v2
10x_cells_v2_TGGGAAGAGTATTGGA-13L8TX_171026_01_E05	2	1	1	4	-3.1346482982925856	2.0234980889816603	10x_cells_v2
10x_cells_v2_TGTGGTATCTCAAACG-13L8TX_171026_01_E05	2	1	1	5	0.2183206231613353	-0.18661049671320248	10x_cells_v2
10x_cells_v2_TTAACTCAGTTATCGC-13L8TX_171026_01_E05	2	1	1	5	-1.3082790446748664	-0.11619219647201465	10x_cells_v2
10x_cells_v2_TTCCCAGAGACGCAAC-13L8TX_171026_01_E05	2	1	1	4	-3.8472176989009137	1.449651326534622	10x_cells_v2
10x_cells_v2_AACCGCGTCACTTATC-14L8TX_171026_01_F05	2	1	1	6	-0.7648574346405724	-2.6146126426851968	10x_cells_v2
10x_cells_v2_ACCGTAACACACGCTG-14L8TX_171026_01_F05	2	1	1	3	0.12303579194192037	2.5175104531830055	10x_cells_v2
10x_cells_v2_ATTGGTGGTGCGATAG-14L8TX_171026_01_F05	2	1	1	5	-1.5095982794747405	0.5550466354505659	10x_cells_v2
10x_cells_v2_CAACCAATCGAGGTAG-14L8TX_171026_01_F05	2	1	1	4	-4.227931397204422	0.4425972657843264	10x_cells_v2
10x_cells_v2_CATGCCTGTTGCGCAC-14L8TX_171026_01_F05	2	1	1	3	-1.3683054649631765	2.0122933084302974	10x_cells_v2
10x_cells_v2_CGACCTTTCTGCTGCT-14L8TX_171026_01_F05	2	1	1	6	-0.8778523381725112	-3.044498853752024	10x_cells_v2
10x_cells_v2_CGGAGCTTCCCTAACC-14L8TX_171026_01_F05	2	1	1	5	-0.8242037280873533	-0.45202129225706	10x_cells_v2
10x_cells_v2_CGTCACTCATTAGGCT-14L8TX_171026_01_F05	2	1	1	3	1.360867129469389	-1.1590306021271186	10x_cells_v2
10x_cells_v2_CGTTGGGAGATATACG-14L8TX_171026_01_F05	2	1	1	5	-1.2126316603716423	-0.5620149216181862	10x_cells_v2
10x_cells_v2_CTAGTGATCCATGAAC-14L8TX_171026_01_F05	2	1	1	4	-3.2151733090649066	1.3568761271521497	10x_cells_v2
10x_cells_v2_CTGAAGTAGACTAGAT-14L8TX_171026_01_F05	2	1	1	3	-0.780055713932683	1.8290083368855454	10x_cells_v2
10x_cells_v2_GAAACTCTCGACCAGC-14L8TX_171026_01_F05	2	1	1	3	0.7220656255190203	2.5765366341139844	10x_cells_v2
10x_cells_v2_GACGGCTGTGTCGCTG-14L8TX_171026_01_F05	2	1	1	5	-1.6774614599662458	0.17643157279509647	10x_cells_v2
10x_cells_v2_GAGTCCGGTGATAAAC-14L8TX_171026_01_F05	2	1	1	5	-0.24837208652917384	0.1564249162623637	10x_cells_v2
10x_cells_v2_GATCAGTAGCGCTTAT-14L8TX_171026_01_F05	2	1	1	5	-0.3696202968935775	0.4793295016875899	10x_cells_v2
10x_cells_v2_GCATGTATCCCTAATT-14L8TX_171026_01_F05	2	1	1	5	-0.01590212120787869	0.3925503132580196	10x_cells_v2
10x_cells_v2_GCCAAATAGATGCCAG-14L8TX_171026_01_F05	2	1	1	5	-1.6256133323537643	0.07186986999172373	10x_cells_v2
10x_cells_v2_GGGTCTGGTCCATGAT-14L8TX_171026_01_F05	2	1	1	3	-1.2240624117539052	-1.5436491504272376	10x_cells_v2
10x_cells_v2_GGGTCTGTCCCTCAGT-14L8TX_171026_01_F05	2	1	1	3	-3.5937179653303337	0.4114444301085798	10x_cells_v2
10x_cells_v2_GGTATTGGTACATCCA-14L8TX_171026_01_F05	2	1	1	4	-3.0325088540345693	0.9289715141538168	10x_cells_v2
10x_cells_v2_GTGAAGGAGTCGCCGT-14L8TX_171026_01_F05	2	1	1	5	0.36983278633177985	0.03657361793786048	10x_cells_v2
10x_cells_v2_GTGGGTCTCCAGTATG-14L8TX_171026_01_F05	2	1	1	5	0.3930648630688911	-0.20651911523568384	10x_cells_v2
10x_cells_v2_TAGAGCTCACTAGTAC-14L8TX_171026_01_F05	2	1	1	5	-1.1303199805668973	0.5415278094643896	10x_cells_v2
10x_cells_v2_TCAATCTTCGACCAGC-14L8TX_171026_01_F05	1	3	3	2	2.194905512523067	-0.03500470660384108	10x_cells_v2
10x_cells_v2_TCACAAGAGCCTATGT-14L8TX_171026_01_F05	2	1	1	5	-1.5371373651229092	1.2705756346411645	10x_cells_v2
10x_cells_v2_TCAGCAACAATGCCAT-14L8TX_171026_01_F05	2	1	1	5	-0.1818811616620131	0.21424270010124652	10x_cells_v2
10x_cells_v2_TGGCCAGTCTTACCTA-14L8TX_171026_01_F05	2	1	1	4	-3.864412281456515	0.1826407481978056	10x_cells_v2
10x_cells_v2_TGGTTCCGTGAACCTT-14L8TX_171026_01_F05	2	1	1	5	-1.2576965707749819	0.77512338365999	10x_cells_v2
10x_cells_v2_TGTGTTTTCGAGAGCA-14L8TX_171026_01_F05	2	1	1	6	-1.2796924387329458	-2.8822265130382108	10x_cells_v2
10x_cells_v2_AAACGGGCACAGCGTC-15L8TX_171026_01_G05	2	1	1	5	-1.4828935599093496	-0.32965874917646687	10x_cells_v2
10x_cells_v2_ACTGAACAGATAGCAT-15L8TX_171026_01_G05	2	1	1	3	-2.2563709620587193	-2.3675110928291923	10x_cells_v2
10x_cells_v2_AGCAGCCCATTACGAC-15L8TX_171026_01_G05	2	1	1	5	-0.2077352633159784	0.013517584900965085	10x_cells_v2
10x_cells_v2_CAGCTGGGTGAGGGTT-15L8TX_171026_01_G05	2	1	1	4	-2.9451531160661997	0.5826798654555425	10x_cells_v2
10x_cells_v2_CCTACCACAGACACTT-15L8TX_171026_01_G05	2	1	1	3	-3.345191217767897	-0.013632439314090708	10x_cells_v2
10x_cells_v2_CGGTTAACACAGCCCA-15L8TX_171026_01_G05	2	1	1	5	-1.6891741737176424	0.3475311562513931	10x_cells_v2
10x_cells_v2_CGTGTAATCGCCTGTT-15L8TX_171026_01_G05	2	1	1	3	-1.5505749332336498	-1.50859881018619	10x_cells_v2
10x_cells_v2_CTCGGGAAGCCACCTG-15L8TX_171026_01_G05	2	1	1	4	-4.308987832251427	1.056682764695635	10x_cells_v2
10x_cells_v2_GGTGAAGAGTATGACA-15L8TX_171026_01_G05	2	1	1	3	0.8921591840072416	-1.6545417911784213	10x_cells_v2
10x_cells_v2_GTGTTAGAGCACGCCT-15L8TX_171026_01_G05	2	1	1	5	0.31761373248295016	0.2623223155518485	10x_cells_v2
10x_cells_v2_TCAGGATAGACTAGGC-15L8TX_171026_01_G05	1	2	2	1	1.9351993694233838	-0.8654106160003336	10x_cells_v2
10x_cells_v2_TTATGCTTCGGAGCAA-15L8TX_171026_01_G05	2	1	1	6	0.06400323644968905	-3.425990906117066	10x_cells_v2
10x_cells_v2_AAACCTGAGAGTCTGG-16L8TX_171026_01_H05	2	1	1	5	1.1637778645522077	-0.382182189197461	10x_cells_v2
10x_cells_v2_AAACGGGCATGGGAAC-16L8TX_171026_01_H05	2	1	1	3	-1.5847046964721219	1.81351923928323	10x_cells_v2
10x_cells_v2_ACTATCTGTTCCAACA-16L8TX_171026_01_H05	2	1	1	5	0.6654155816710452	-0.060887445586764406	10x_cells_v2
10x_cells_v2_AGATTGCCAGCGAACA-16L8TX_171026_01_H05	2	1	1	4	-3.9417872935531193	1.7294568388682299	10x_cells_v2
10x_cells_v2_ATCTGCCTCCGTACAA-16L8TX_171026_01_H05	2	1	1	3	-1.0100686004505395	1.5517635299516592	10x_cells_v2
10x_cells_v2_CATATGGTCGCCATAA-16L8TX_171026_01_H05	2	1	1	3	-0.8743626217015984	-0.5352142185323614	10x_cells_v2
10x_cells_v2_CCCAATCCAGTATCTG-16L8TX_171026_01_H05	2	1	1	3	-1.5452634354034833	-2.140140170980226	10x_cells_v2
10x_cells_v2_CCGTACTCACCTATCC-16L8TX_171026_01_H05	2	1	1	5	0.059865941155889606	0.2868656475790107	10x_cells_v2
10x_cells_v2_CCTACACAGCTCCTTC-16L8TX_171026_01_H05	2	1	1	6	-0.7838344971550427	-2.4166063390471537	10x_cells_v2
10x_cells_v2_CCTATTAGTTCGAATC-16L8TX_171026_01_H05	2	1	1	6	-0.0174939791897024	-3.5631763875631255	10x_cells_v2
10x_cells_v2_CGAGAAGTCTACTATC-16L8TX_171026_01_H05	2	1	1	5	-1.3974821034682054	0.1270398357908052	10x_cells_v2
10x_cells_v2_CGGAGCTGTATTAGCC-16L8TX_171026_01_H05	2	1	1	5	1.296188359795338	-0.4116437782946186	10x_cells_v2
10x_cells_v2_CGGTTAACAAAGCGGT-16L8TX_171026_01_H05	2	1	1	6	-1.0357444872854507	-1.45231195650116	10x_cells_v2
10x_cells_v2_GAATAAGAGATGGGTC-16L8TX_171026_01_H05	2	1	1	5	-0.5400962093512359	0.44562768340481124	10x_cells_v2
10x_cells_v2_GATGAAATCGCTTAGA-16L8TX_171026_01_H05	2	1	1	5	-1.6544509251354251	0.7824698545048383	10x_cells_v2
10x_cells_v2_GCTGCAGGTACAAGTA-16L8TX_171026_01_H05	2	1	1	3	-0.617267429930572	1.5256589838808572	10x_cells_v2
10x_cells_v2_GGCGTGTGTACTTAGC-16L8TX_171026_01_H05	2	1	1	3	-2.718789160353136	0.22051897972518786	10x_cells_v2
10x_cells_v2_GTTCATTTCATGGTCA-16L8TX_171026_01_H05	2	1	1	4	-4.16239086720738	1.5350629216593525	10x_cells_v2
10x_cells_v2_TACGGGCTCGTATCAG-16L8TX_171026_01_H05	2	1	1	4	-3.635930846025773	1.1798521847892964	10x_cells_v2
10x_cells_v2_TATGCCCCACCGGAAA-16L8TX_171026_01_H05	2	1	1	4	-1.1947085363456122	3.6200465281316183	10x_cells_v2
10x_cells_v2_TGCGGGTTCATCACCC-16L8TX_171026_01_H05	2	1	1	4	-1.869034266473094	3.5072670353520747	10x_cells_v2
10x_cells_v2_TGGCCAGGTCATCGGC-16L8TX_171026_01_H05	2	1	1	3	0.6857701741124591	-1.6650418806449232	10x_cells_v2
10x_cells_v2_TTCTCCTTCTCGCTTG-16L8TX_171026_01_H05	1	2	2	1	2.5489989361088186	-1.4918680076139768	10x_cells_v2
10x_cells_v2_ACACCGGAGCTGAACG-1L8TX_171026_01_F03	1	3	3	2	4.198503098587527	0.6670533904424191	10x_cells_v2
10x_cells_v2_AGCGTATCACCCTATC-1L8TX_171026_01_F03	1	3	3	2	7.008456707584389	2.497603185847746	10x_cells_v2
10x_cells_v2_CACTCCACAAGGTGTG-1L8TX_171026_01_F03	1	3	3	2	4.500076148833755	2.2792037753318763	10x_cells_v2
10x_cells_v2_CCTCAGTTCCGCGGTA-1L8TX_171026_01_F03	1	3	3	2	3.906112625821664	0.9658397862190343	10x_cells_v2
10x_cells_v2_CTTCTCTAGGCTATCT-1L8TX_171026_01_F03	1	3	3	2	3.8578385147832415	0.5014186176420596	10x_cells_v2
10x_cells_v2_GACGCGTAGACGCACA-1L8TX_171026_01_F03	1	3	3	2	4.6249703418741674	0.8118880647355947	10x_cells_v2
10x_cells_v2_GATCGATGTGACGGTA-1L8TX_171026_01_F03	1	3	3	2	6.677309828276258	2.8760586389501257	10x_cells_v2
10x_cells_v2_GCATGATGTCGCTTCT-1L8TX_171026_01_F03	1	3	3	2	4.336991379657595	1.0245911169099269	10x_cells_v2
10x_cells_v2_GTACTCCAGCCACGTC-1L8TX_171026_01_F03	1	3	3	2	4.314799704839521	1.7898558195259404	10x_cells_v2
10x_cells_v2_TATTACCAGTTGTAGA-1L8TX_171026_01_F03	1	3	3	2	5.037725558636502	1.133970274660564	10x_cells_v2
10x_cells_v2_ACGCCGATCCAATGGT-2L8TX_171026_01_G03	1	3	3	2	4.546059366319797	1.9995543618550904	10x_cells_v2
10x_cells_v2_ATCTACTAGCGTTGCC-2L8TX_171026_01_G03	1	3	3	2	2.648246644616937	-0.25924784899888514	10x_cells_v2
10x_cells_v2_GTCTCGTAGCTCCTTC-2L8TX_171026_01_G03	1	2	2	1	1.4002209537563381	-4.18397718404388	10x_cells_v2
10x_cells_v2_AAACGGGTCCTGCAGG-3L8TX_171026_01_B04	1	3	3	2	6.626944390663789	2.510361527551089	10x_cells_v2
10x_cells_v2_ATAACGCCAGGTCTCG-3L8TX_171026_01_B04	1	3	3	2	4.1396610874915085	1.2826507988802314	10x_cells_v2
10x_cells_v2_CGTTAGAGTCTTCAAG-3L8TX_171026_01_B04	1	3	3	2	2.6088505638740025	0.2737167002543742	10x_cells_v2
10x_cells_v2_CTGATCCCAAGTAGTA-3L8TX_171026_01_B04	1	3	3	2	4.771744238158659	2.2830752834603065	10x_cells_v2
10x_cells_v2_GGTGCGTAGCTAAGAT-3L8TX_171026_01_B04	1	3	3	2	5.563060103017743	3.2113280094957077	10x_cells_v2
10x_cells_v2_GTCTCGTGTACCGTAT-3L8TX_171026_01_B04	1	3	3	2	4.121635386942689	1.1316816676660642	10x_cells_v2
10x_cells_v2_TAGTTGGAGCACACAG-3L8TX_171026_01_B04	1	3	3	2	6.008852731171268	2.3489728922748845	10x_cells_v2
10x_cells_v2_AACTCTTTCGCCTGAG-4L8TX_171026_01_F04	1	3	3	2	4.140225491004478	1.7964101541658233	10x_cells_v2
10x_cells_v2_CACACTCAGAGCTGCA-4L8TX_171026_01_F04	1	3	3	2	3.7632373891647255	1.4300612881463086	10x_cells_v2
10x_cells_v2_CCGGTAGTCACCCGAG-4L8TX_171026_01_F04	1	2	2	6	0.9881398049013154	-4.016877547011716	10x_cells_v2
10x_cells_v2_CGCTTCATCGTGACAT-4L8TX_171026_01_F04	1	3	3	2	4.724924724558288	2.951314611664848	10x_cells_v2
10x_cells_v2_GGAAAGCGTGTGACGA-4L8TX_171026_01_F04	1	3	3	2	5.81510037793794	2.5158108711333935	10x_cells_v2
10x_cells_v2_TCTATTGGTACTCTCC-4L8TX_171026_01_F04	1	3	3	2	4.870903492108619	2.8465946984731696	10x_cells_v2
10x_cells_v2_GACCAATTCCGCATCT-5L8TX_171026_01_G04	1	2	2	1	1.6105821390421657	-3.4940647960398543	10x_cells_v2
10x_cells_v2_GCTCCTATCGTTGACA-5L8TX_171026_01_G04	1	3	3	2	5.961526812755809	0.6302860187520988	10x_cells_v2
10x_cells_v2_TCTATTGAGGCCATAG-5L8TX_171026_01_G04	1	3	3	2	5.891196783089169	0.7775135156993048	10x_cells_v2
10x_cells_v2_TTGCGTCAGAGTTGGC-5L8TX_171026_01_G04	1	3	3	2	3.183905217203111	1.3865755311530081	10x_cells_v2
10x_cells_v2_CATCGGGTCAGCTCTC-6L8TX_171026_01_B05	1	3	3	2	4.81549343980441	1.6603489846097257	10x_cells_v2
10x_cells_v2_CTCGTACTCATGTAGC-6L8TX_171026_01_B05	1	3	3	2	4.507894507589841	2.969041729191657	10x_cells_v2
10x_cells_v2_GACGTTAAGAGTTGGC-6L8TX_171026_01_B05	1	3	3	2	2.9581946590379413	2.0846971894637267	10x_cells_v2
10x_cells_v2_GCTCTGTAGGACAGCT-6L8TX_171026_01_B05	1	3	3	2	4.0644944791348	1.3640862954245296	10x_cells_v2
10x_cells_v2_AAGGAGCCATCCGTGG-7L8TX_171026_01_H04	1	2	3	1	5.755604306700229	-0.25294813186178755	10x_cells_v2
10x_cells_v2_ACCCACTAGCGCTTAT-7L8TX_171026_01_H04	1	3	3	2	6.835183915211813	2.1284431917795	10x_cells_v2
10x_cells_v2_ACGAGGATCATGTCCC-7L8TX_171026_01_H04	1	3	3	2	5.4986351476670245	2.930143804148151	10x_cells_v2
10x_cells_v2_ACGGGTCTCTTGCATT-7L8TX_171026_01_H04	1	3	3	2	3.3570368152605505	1.4325132852788693	10x_cells_v2
10x_cells_v2_ACTATCTTCAATAAGG-7L8TX_171026_01_H04	1	3	3	2	2.748626413654274	1.9842935051573438	10x_cells_v2
10x_cells_v2_AGCGTCGTCGGCGCAT-7L8TX_171026_01_H04	1	3	3	2	4.6555519501861315	1.422250348413075	10x_cells_v2
10x_cells_v2_GGAAAGCGTGCAACGA-7L8TX_171026_01_H04	1	3	3	2	4.771731408827767	2.814050981384848	10x_cells_v2
10x_cells_v2_GGCCGATCATTCACTT-7L8TX_171026_01_H04	1	3	3	2	6.2746081003745715	1.614734733995682	10x_cells_v2
10x_cells_v2_GTGCATAAGTTAACGA-7L8TX_171026_01_H04	1	3	3	2	2.4806738607127374	-0.19252421712183693	10x_cells_v2
10x_cells_v2_TTTCCTCCACCCTATC-7L8TX_171026_01_H04	1	2	3	1	5.493629635162615	-0.1424526247352503	10x_cells_v2
10x_cells_v2_AACGTTGGTACCGTAT-8L8TX_171026_01_A05	1	3	3	2	6.877993418662604	2.651288499498285	10x_cells_v2
10x_cells_v2_CCTTACGCAGATGAGC-8L8TX_171026_01_A05	1	3	3	2	4.242242981383708	2.686015249042113	10x_cells_v2
10x_cells_v2_GTTACAGGTTGACGTT-8L8TX_171026_01_A05	1	3	3	2	6.433054720994858	2.534446453637291	10x_cells_v2
10x_cells_v2_TTCTACACAAGTCTAC-8L8TX_171026_01_A05	1	3	3	2	5.146039579112955	3.008758979857612	10x_cells_v2
10x_cells_v2_CGAGCCATCAAGATCC-9L8TX_171026_01_H03	1	3	3	2	4.243030804626675	0.7425182008086453	10x_cells_v2
10x_cells_v2_GAATAAGAGCGCTCCA-9L8TX_171026_01_H03	1	3	3	2	4.710731807445299	0.7441504073337085	10x_cells_v2
10x_cells_v2_GCTGGGTTCAGCTGGC-9L8TX_171026_01_H03	1	3	3	2	4.486780205363571	0.803200231776515	10x_cells_v2
10x_cells_v2_ACACTGAGTCCGCTGA-10L8TX_171026_01_A04	1	3	3	2	4.49781531430415	2.5892026006303883	10x_cells_v2
10x_cells_v2_CCGTGGAGTCTCGTTC-10L8TX_171026_01_A04	1	3	3	2	4.486539807051512	1.7656080378853887	10x_cells_v2
10x_cells_v2_CCTATTAAGTTTCCTT-10L8TX_171026_01_A04	1	3	3	2	4.1859710712743565	2.677061555530304	10x_cells_v2
10x_cells_v2_GGAACTTCAGTCAGCC-10L8TX_171026_01_A04	1	3	3	2	4.532978174804207	1.6488804198674365	10x_cells_v2
10x_cells_v2_GTTTCTAAGAGTAAGG-10L8TX_171026_01_A04	1	3	3	2	5.11170265846685	3.1132267700957463	10x_cells_v2
10x_cells_v2_TGTCCCACATGTCTCC-10L8TX_171026_01_A04	1	3	3	2	4.789574850597048	2.121739584216159	10x_cells_v2
10x_cells_v2_AAACGGGTCTTCATGT-11L8TX_171026_01_C05	1	3	3	2	3.5969881173915392	0.47318198170116577	10x_cells_v2
10x_cells_v2_GGCGTGTTCGTTTAGG-11L8TX_171026_01_C05	1	3	3	2	3.9526520345113547	1.266209011143603	10x_cells_v2
10x_cells_v2_GGTGAAGAGGCATGGT-11L8TX_171026_01_C05	1	2	3	1	3.1364852394627043	-1.303847783763176	10x_cells_v2
10x_cells_v2_TGGCGCATCCTTCAAT-11L8TX_171026_01_C05	2	1	1	6	-0.1849089483402603	-3.19807365539506	10x_cells_v2
10x_cells_v2_TTCCCAGCATTAACCG-11L8TX_171026_01_C05	2	1	1	6	0.20121591171364728	-3.2970528848701943	10x_cells_v2
10x_cells_v2_ATCCACCAGCTAAGAT-12L8TX_171026_01_D05	1	2	2	1	5.899824854501519	-0.24715369469298643	10x_cells_v2
10x_cells_v2_CGTGTAACAAGTTAAG-12L8TX_171026_01_D05	1	2	2	1	6.1881795932528725	0.23138081162753804	10x_cells_v2
10x_cells_v2_CTAGAGTAGTCCATAC-12L8TX_171026_01_D05	1	3	3	2	5.2166740719536895	1.0854905672214603	10x_cells_v2
10x_cells_v2_GTCGTAACATTCCTGC-12L8TX_171026_01_D05	1	3	3	2	2.596918238040991	1.2868995084500021	10x_cells_v2
10x_cells_v2_TTCTCAATCAGAAATG-12L8TX_171026_01_D05	1	3	3	2	4.376259298738965	2.587815260376735	10x_cells_v2
10x_cells_v2_AGGTCATTCAAAGACA-13L8TX_171026_01_E05	1	2	2	1	1.6637337345769168	-4.472606543128291	10x_cells_v2
10x_cells_v2_AGTGTCATCTAGAGTC-13L8TX_171026_01_E05	1	3	3	2	5.688732355453133	1.1357284073687737	10x_cells_v2
10x_cells_v2_ATTACTCCACTAAGTC-13L8TX_171026_01_E05	1	3	3	2	4.336975878563701	1.4247507695279593	10x_cells_v2
10x_cells_v2_CAACCAAAGGAGTCTG-13L8TX_171026_01_E05	1	3	3	2	3.6624066569049942	0.7026596648553443	10x_cells_v2
10x_cells_v2_CATTATCAGTTCGCGC-13L8TX_171026_01_E05	1	3	3	2	7.111673236342481	1.7564594989005562	10x_cells_v2
10x_cells_v2_CCGTACTCATCATCCC-13L8TX_171026_01_E05	1	3	3	2	7.087185458687464	2.1671255189489544	10x_cells_v2
10x_cells_v2_CGTAGGCAGACTTTCG-13L8TX_171026_01_E05	1	3	3	2	6.741212491490704	1.6515171911577073	10x_cells_v2
10x_cells_v2_CTCGGGACACCACCAG-13L8TX_171026_01_E05	1	3	3	2	2.3486991805615327	0.45267358076589403	10x_cells_v2
10x_cells_v2_CTTCTCTAGACACTAA-13L8TX_171026_01_E05	1	3	3	2	5.028286850069599	3.023958839707094	10x_cells_v2
10x_cells_v2_GATCTAGAGCGGCTTC-13L8TX_171026_01_E05	1	3	3	2	6.158855949732862	1.0774996325373924	10x_cells_v2
10x_cells_v2_GCACTCTCAATAGCAA-13L8TX_171026_01_E05	1	3	3	2	4.043347298887964	1.0714053836451427	10x_cells_v2
10x_cells_v2_GCGCAACCACCAGCAC-13L8TX_171026_01_E05	1	3	2	1	6.356793601390514	0.3483641718557096	10x_cells_v2
10x_cells_v2_GTCACGGAGTTGAGAT-13L8TX_171026_01_E05	1	2	3	2	6.011380089846813	0.11095543028917804	10x_cells_v2
10x_cells_v2_GTCACGGTCGTTGCCT-13L8TX_171026_01_E05	1	3	3	2	6.707673766279058	2.083051224239438	10x_cells_v2
10x_cells_v2_GTCGGGTTCACTGGGC-13L8TX_171026_01_E05	1	3	3	2	6.968455963260412	2.3662022431649	10x_cells_v2
10x_cells_v2_TAGGCATCAGCTGCTG-13L8TX_171026_01_E05	1	3	3	2	2.3109583205737447	0.557207647331306	10x_cells_v2
10x_cells_v2_ACCGTAATCCGAGCCA-14L8TX_171026_01_F05	1	3	3	2	4.762629681319007	2.3862602348854947	10x_cells_v2
10x_cells_v2_ACGCAGCTCTGGTTCC-14L8TX_171026_01_F05	1	3	3	2	3.8443961024709195	1.0843876022296388	10x_cells_v2
10x_cells_v2_AGAGCTTCAGCTATTG-14L8TX_171026_01_F05	1	3	3	2	7.007161022333151	1.9506810551962033	10x_cells_v2
10x_cells_v2_CGGCTAGCATCCCATC-14L8TX_171026_01_F05	1	3	3	2	7.116986570892475	1.9155978256592443	10x_cells_v2
10x_cells_v2_CGGGTCAGTGATGTCT-14L8TX_171026_01_F05	1	3	3	2	7.002873417603756	1.761076645996932	10x_cells_v2
10x_cells_v2_CGTTGGGTCTTGTATC-14L8TX_171026_01_F05	1	3	3	2	4.820515698014073	2.1618745637165255	10x_cells_v2
10x_cells_v2_GACGTTACAGGAATGC-14L8TX_171026_01_F05	1	2	3	2	5.933322193344407	0.32873826036087933	10x_cells_v2
10x_cells_v2_GCAGCCAAGGCTATCT-14L8TX_171026_01_F05	1	2	3	1	5.984044924333629	-0.012874153120585947	10x_cells_v2
10x_cells_v2_GCGACCATCGCTGATA-14L8TX_171026_01_F05	1	2	3	2	3.0284219663278464	0.9452720581643602	10x_cells_v2
10x_cells_v2_GGGAATGGTAACGCGA-14L8TX_171026_01_F05	1	3	3	2	5.0244584470290246	1.5780311865635583	10x_cells_v2
10x_cells_v2_GTACTTTAGACCGGAT-14L8TX_171026_01_F05	1	3	3	2	2.3622859601379194	0.7496566508319732	10x_cells_v2
10x_cells_v2_TCCCGATTCACTTACT-14L8TX_171026_01_F05	1	3	3	2	6.866270025651144	1.7720065126365292	10x_cells_v2
10x_cells_v2_TTTCCTCGTTGAGGTG-14L8TX_171026_01_F05	1	2	3	2	4.490740359047342	0.1801518731058427	10x_cells_v2
10x_cells_v2_AATCCAGCATGCTGGC-15L8TX_171026_01_G05	2	1	1	3	-2.2284646041675247	-1.282543445058799	10x_cells_v2
10x_cells_v2_GGCAATTGTAGCGTCC-15L8TX_171026_01_G05	1	3	3	2	6.860364676414527	2.672386601309909	10x_cells_v2
10x_cells_v2_GGGCATCCAAAGGCGT-15L8TX_171026_01_G05	1	3	3	2	4.717104349130687	2.0566778036752456	10x_cells_v2
10x_cells_v2_GGGTCTGTCATGGTCA-15L8TX_171026_01_G05	1	3	3	2	2.6228707780670764	0.2923571914421097	10x_cells_v2
10x_cells_v2_CTGATAGTCGCCATAA-16L8TX_171026_01_H05	1	3	3	2	6.833850565010316	2.557289203483164	10x_cells_v2
10x_cells_v2_GCCAAATAGGACGAAA-16L8TX_171026_01_H05	1	2	2	1	3.2831025204094373	-3.0913346617602504	10x_cells_v2
10x_cells_v2_TCTATTGCACCAGATT-16L8TX_171026_01_H05	1	3	3	2	2.925823390540863	0.8546718093987014	10x_cells_v2
10x_cells_v2_TTCTACACAGGCAGTA-16L8TX_171026_01_H05	1	3	3	2	5.216896580807692	2.122202733884585	10x_cells_v2
10x_cells_v2_ACTGTCCCACGGCTAC-1L8TX_171026_01_F03	1	2	2	1	5.470776946775418	-3.916368137069579	10x_cells_v2
10x_cells_v2_CCCAATCGTGTAATGA-1L8TX_171026_01_F03	1	2	2	1	2.699401949918478	-3.0915658261011068	10x_cells_v2
10x_cells_v2_CCCTCCTAGAACTCGG-1L8TX_171026_01_F03	1	2	2	1	5.443712468543425	-2.8495337756508072	10x_cells_v2
10x_cells_v2_GATTCAGTCCTAGTGA-1L8TX_171026_01_F03	1	2	2	1	4.796811435922671	-3.3857553962322218	10x_cells_v2
10x_cells_v2_GCGGGTTAGGCCCTCA-1L8TX_171026_01_F03	1	2	2	1	4.553347394662962	-2.150043458995105	10x_cells_v2
10x_cells_v2_GGGACCTCAGGTGCCT-1L8TX_171026_01_F03	1	2	2	1	3.422214352476181	-3.439140246672061	10x_cells_v2
10x_cells_v2_TGGCCAGGTAGCGATG-1L8TX_171026_01_F03	1	2	2	1	5.8258400164004644	-2.467383178052956	10x_cells_v2
10x_cells_v2_TGGGCGTTCTGTTTGT-1L8TX_171026_01_F03	1	2	2	1	3.4545081468626586	-1.1085756220211551	10x_cells_v2
10x_cells_v2_TTGGAACCAGACGTAG-1L8TX_171026_01_F03	1	2	2	1	6.1928608591815815	-3.853186617425912	10x_cells_v2
10x_cells_v2_ACCTTTAAGTTATCGC-2L8TX_171026_01_G03	1	2	2	1	3.6404676125068898	-4.697806268694183	10x_cells_v2
10x_cells_v2_ACTATCTGTAACGCGA-2L8TX_171026_01_G03	1	2	2	1	4.657245951508192	-4.142335304468551	10x_cells_v2
10x_cells_v2_AGTAGTCCATGCTAGT-2L8TX_171026_01_G03	1	2	2	1	6.382013414837395	-3.7473499045794174	10x_cells_v2
10x_cells_v2_CACAGTAGTAAGTAGT-2L8TX_171026_01_G03	1	2	2	1	6.291240415517007	-3.7064855802539896	10x_cells_v2
10x_cells_v2_CTAGTGACATGCAACT-2L8TX_171026_01_G03	1	2	2	1	3.8265543817086107	-1.8683829084309773	10x_cells_v2
10x_cells_v2_GTAGGCCTCGTTACAG-2L8TX_171026_01_G03	1	2	2	1	1.2199469377374696	-4.296475071250668	10x_cells_v2
10x_cells_v2_GTGCGGTAGACTACAA-2L8TX_171026_01_G03	1	2	2	1	3.8835507834275362	-3.2418585787337926	10x_cells_v2
10x_cells_v2_TCTGAGAAGCTAAACA-2L8TX_171026_01_G03	1	2	2	1	3.818707798555745	-2.2206944090150387	10x_cells_v2
10x_cells_v2_TGCGTGGGTACAGTTC-2L8TX_171026_01_G03	1	2	2	1	5.046846169079504	-2.0280394271498956	10x_cells_v2
10x_cells_v2_TTTGTCAAGTTCCACA-2L8TX_171026_01_G03	1	2	2	1	5.428272614597276	-3.1565297066245006	10x_cells_v2
10x_cells_v2_ACTTGTTTCGGAGCAA-3L8TX_171026_01_B04	1	2	2	1	2.8558116913928564	-3.046087149237021	10x_cells_v2
10x_cells_v2_ATTACTCAGTCAATAG-3L8TX_171026_01_B04	1	2	2	1	5.308274881325304	-2.252762189453883	10x_cells_v2
10x_cells_v2_CAGTAACAGCTACCTA-3L8TX_171026_01_B04	1	2	2	1	3.4420502930734136	-2.745988153357333	10x_cells_v2
10x_cells_v2_CGCTATCCATATGCTG-3L8TX_171026_01_B04	1	2	2	1	3.841682286602766	-1.6944823122880692	10x_cells_v2
10x_cells_v2_CTCCTAGCAAGAAAGG-3L8TX_171026_01_B04	1	2	2	1	6.381297294011472	-3.0209953550035973	10x_cells_v2
10x_cells_v2_GACGCGTGTGGCCCTA-3L8TX_171026_01_B04	1	2	2	1	4.678687850574045	-3.6228621336988884	10x_cells_v2
10x_cells_v2_GCATGATGTTAGAACA-3L8TX_171026_01_B04	1	2	2	1	4.724001375288222	-2.8140348382879896	10x_cells_v2
10x_cells_v2_GCATGCGTCTAACTCT-3L8TX_171026_01_B04	1	2	2	1	2.883630115299191	-3.05756234630343	10x_cells_v2
10x_cells_v2_TAGACCACAGTAAGAT-3L8TX_171026_01_B04	1	2	2	1	1.3430973816542777	-4.680268935472734	10x_cells_v2
10x_cells_v2_TGTTCCGCAGTCACTA-3L8TX_171026_01_B04	1	2	2	1	3.8721414355524737	-1.92880469219883	10x_cells_v2
10x_cells_v2_TTCTTAGGTGAGGCTA-3L8TX_171026_01_B04	1	2	2	1	4.233980323830265	-3.1492275700042325	10x_cells_v2
10x_cells_v2_ACATCAGTCAGAAATG-4L8TX_171026_01_F04	1	2	2	1	5.704528548258913	-3.669877466490991	10x_cells_v2
10x_cells_v2_ACGAGGAAGTTATCGC-4L8TX_171026_01_F04	1	2	2	1	3.077284669053732	-2.496651760308765	10x_cells_v2
10x_cells_v2_ACGGGCTTCTCACATT-4L8TX_171026_01_F04	1	2	2	1	4.384765862318874	-3.602844992891822	10x_cells_v2
10x_cells_v2_GATGAAATCTCTTGAT-4L8TX_171026_01_F04	1	2	2	1	6.287759637826763	-2.8229986020258173	10x_cells_v2
10x_cells_v2_GTCACAAAGAGGTTGC-4L8TX_171026_01_F04	1	2	2	1	5.789515996358143	-3.597592445035601	10x_cells_v2
10x_cells_v2_TACTCGCCAAGTTAAG-4L8TX_171026_01_F04	1	2	2	1	6.41351133246919	-2.8681535532727898	10x_cells_v2
10x_cells_v2_ATCATGGGTCAATACC-5L8TX_171026_01_G04	1	2	2	1	6.221859119646352	-3.076502025168946	10x_cells_v2
10x_cells_v2_CACACAAGTGGCTCCA-5L8TX_171026_01_G04	1	2	2	1	4.217133397411482	-1.1361380224701916	10x_cells_v2
10x_cells_v2_GGGCACTCAGATCTGT-5L8TX_171026_01_G04	1	2	3	2	4.911260248524441	-0.9752546386581814	10x_cells_v2
10x_cells_v2_AAAGTAGAGATATGGT-6L8TX_171026_01_B05	1	2	2	1	5.821292265243864	-2.825344885581021	10x_cells_v2
10x_cells_v2_CAGCATACACAAGACG-6L8TX_171026_01_B05	1	2	2	1	6.2611518939560415	-3.295346623792119	10x_cells_v2
10x_cells_v2_CATATGGTCGGATGGA-6L8TX_171026_01_B05	1	2	2	1	6.186152507512324	-2.718774273311658	10x_cells_v2
10x_cells_v2_TCAGCAATCGGTTAAC-6L8TX_171026_01_B05	1	2	2	1	4.820078344380314	-2.8714587020822493	10x_cells_v2
10x_cells_v2_ACATGGTTCCATGCTC-7L8TX_171026_01_H04	1	2	2	1	6.293269383842927	-3.6865567493169453	10x_cells_v2
10x_cells_v2_CATTATCTCCACGACG-7L8TX_171026_01_H04	1	2	2	1	5.371115658037546	-2.1834535855210877	10x_cells_v2
10x_cells_v2_CCTACACAGGGATGGG-7L8TX_171026_01_H04	1	2	2	1	4.612189420889813	-2.540520873914697	10x_cells_v2
10x_cells_v2_CTTGGCTTCTCACATT-7L8TX_171026_01_H04	1	2	2	1	5.702836015177308	-2.8504675820054417	10x_cells_v2
10x_cells_v2_GCATGCGAGGCTAGCA-7L8TX_171026_01_H04	1	2	2	1	3.349890922818275	-2.729110746600145	10x_cells_v2
10x_cells_v2_GGTGAAGCAAGAGGCT-7L8TX_171026_01_H04	1	2	2	1	4.8694060468650475	-2.6061576479606856	10x_cells_v2
10x_cells_v2_GTGCAGCTCTGCAGTA-7L8TX_171026_01_H04	1	2	2	1	5.787186063875957	-2.5550561309254642	10x_cells_v2
10x_cells_v2_TACTCATAGTGTGAAT-7L8TX_171026_01_H04	1	2	2	1	1.6240458196115806	-4.469621179485328	10x_cells_v2
10x_cells_v2_TACTCGCGTCTCACCT-7L8TX_171026_01_H04	1	2	2	1	6.140509871502318	-3.1280941333343697	10x_cells_v2
10x_cells_v2_TCTTCGGCAGACTCGC-7L8TX_171026_01_H04	1	2	2	1	4.328542685909796	-1.821980123281625	10x_cells_v2
10x_cells_v2_TGCTGCTGTCGCGAAA-7L8TX_171026_01_H04	1	2	2	1	6.287245341872216	-3.722386395481166	10x_cells_v2
10x_cells_v2_AAATGCCAGTACGACG-8L8TX_171026_01_A05	1	2	2	1	5.520315682306525	-4.123246910064836	10x_cells_v2
10x_cells_v2_ACGGGCTTCATCATTC-8L8TX_171026_01_A05	1	2	2	1	5.114889101237126	-1.5285183799476236	10x_cells_v2
10x_cells_v2_ATTGGACAGACTGGGT-8L8TX_171026_01_A05	1	2	2	1	3.523696482817156	-2.951556477464055	10x_cells_v2
10x_cells_v2_GACAGAGCAACCGCCA-8L8TX_171026_01_A05	1	2	2	1	5.409453210689259	-1.7284469260684865	10x_cells_v2
10x_cells_v2_GCATACAAGCCAGTTT-8L8TX_171026_01_A05	1	2	2	1	6.172910323975207	-3.4551958472505886	10x_cells_v2
10x_cells_v2_GGTATTGAGGTCGGAT-8L8TX_171026_01_A05	1	2	2	1	3.8154667532488005	-1.3676024836957281	10x_cells_v2
10x_cells_v2_GTCTTCGGTACCGCTG-8L8TX_171026_01_A05	1	2	2	1	6.498052646441142	-3.370380518174033	10x_cells_v2
10x_cells_v2_TCAGATGTCCCAACGG-8L8TX_171026_01_A05	1	2	2	1	5.126542902107929	-2.3219739395944616	10x_cells_v2
10x_cells_v2_AGACGTTAGCCGGTAA-9L8TX_171026_01_H03	1	2	2	1	3.1476040007687662	-1.5119032120975666	10x_cells_v2
10x_cells_v2_AGTTGGTCACGCATCG-9L8TX_171026_01_H03	1	2	2	1	3.894882161356924	-1.7436882817650607	10x_cells_v2
10x_cells_v2_CACATAGTCACTGGGC-9L8TX_171026_01_H03	1	2	2	1	3.3244424424611725	-4.24124635566255	10x_cells_v2
10x_cells_v2_CAGCCGACACAAGTAA-9L8TX_171026_01_H03	1	2	2	1	2.778202217619544	-3.300487452752714	10x_cells_v2
10x_cells_v2_CAGCTGGCATACGCCG-9L8TX_171026_01_H03	1	2	2	1	3.893773693796206	-4.120302333470254	10x_cells_v2
10x_cells_v2_GAAACTCGTGCCTGTG-9L8TX_171026_01_H03	1	2	2	1	5.559235503283434	-2.621790335818288	10x_cells_v2
10x_cells_v2_GGATTACCAGCGTAAG-9L8TX_171026_01_H03	1	2	2	1	3.1265307696141194	-2.9560001159731892	10x_cells_v2
10x_cells_v2_GGGACCTTCGACAGCC-9L8TX_171026_01_H03	1	2	2	1	6.398854185730988	-3.777153958484009	10x_cells_v2
10x_cells_v2_GTCCTCACAGGGCATA-9L8TX_171026_01_H03	1	2	2	1	2.558373269292662	-3.4338389482854406	10x_cells_v2
10x_cells_v2_TTCGGTCAGACGACGT-9L8TX_171026_01_H03	1	2	2	1	3.229282403328858	-4.0206533503786135	10x_cells_v2
10x_cells_v2_AAAGATGAGGTTACCT-10L8TX_171026_01_A04	1	2	2	1	3.041007903220094	-2.080873031775976	10x_cells_v2
10x_cells_v2_AACTTTCAGTTTGCGT-10L8TX_171026_01_A04	1	2	2	1	3.190999263570854	-2.427116772064674	10x_cells_v2
10x_cells_v2_AACTTTCCATCATCCC-10L8TX_171026_01_A04	1	2	2	1	5.593576679786927	-1.8068787624469917	10x_cells_v2
10x_cells_v2_AATCCAGGTCCATCCT-10L8TX_171026_01_A04	1	2	2	1	5.515682740717928	-2.5677297803111636	10x_cells_v2
10x_cells_v2_GCATGTATCTGCCCTA-10L8TX_171026_01_A04	1	2	2	1	4.769153032376056	-2.6989258915975087	10x_cells_v2
10x_cells_v2_GGGTCTGAGCACGCCT-10L8TX_171026_01_A04	1	2	2	1	5.137981868065401	-2.6086714390739236	10x_cells_v2
10x_cells_v2_ACTGTCCCAGACGCCT-11L8TX_171026_01_C05	1	2	2	1	3.8452592604432763	-3.439876409834925	10x_cells_v2
10x_cells_v2_ACTTACTGTTGAACTC-11L8TX_171026_01_C05	1	2	2	1	2.4602561283407907	-3.2618490483177975	10x_cells_v2
10x_cells_v2_CAAGGCCCAAGTTAAG-11L8TX_171026_01_C05	1	2	2	1	1.7776638121352908	-4.869426808411243	10x_cells_v2
10x_cells_v2_CGCTATCCAGGTTTCA-11L8TX_171026_01_C05	1	2	2	1	1.7343306923257078	-4.7541924398278335	10x_cells_v2
10x_cells_v2_CGTCTACTCTAGAGTC-11L8TX_171026_01_C05	1	2	2	1	3.636202621678066	-4.535550820174154	10x_cells_v2
10x_cells_v2_GCAGCCAAGGGTTCCC-11L8TX_171026_01_C05	1	2	2	1	2.678125127398822	-3.792894278368177	10x_cells_v2
10x_cells_v2_GGACAGACATCGTCGG-11L8TX_171026_01_C05	1	2	2	1	2.343321480165023	-4.3053390834356575	10x_cells_v2
10x_cells_v2_GTACTCCTCCTCTAGC-11L8TX_171026_01_C05	1	2	2	1	3.8748408997925288	-1.7665572988890081	10x_cells_v2
10x_cells_v2_GTAGGCCAGGCTACGA-11L8TX_171026_01_C05	1	2	2	1	2.7868085818029016	-3.3735237676822614	10x_cells_v2
10x_cells_v2_TACCTATTCAACACGT-11L8TX_171026_01_C05	1	2	2	1	3.7608269978775644	-4.67755333799466	10x_cells_v2
10x_cells_v2_CCTACCACATGGATGG-12L8TX_171026_01_D05	1	2	2	1	3.3657642773340077	-3.8981160169915445	10x_cells_v2
10x_cells_v2_CGCGGTAGTTCCAACA-12L8TX_171026_01_D05	1	2	2	1	3.068501536625554	-3.6380934066875694	10x_cells_v2
10x_cells_v2_GCCTCTATCGCATGGC-12L8TX_171026_01_D05	1	2	2	1	1.5367950094666025	-4.759639527774939	10x_cells_v2
10x_cells_v2_GCTCCTAAGAGTGACC-12L8TX_171026_01_D05	1	2	2	1	3.3462411597318247	-4.295851003697159	10x_cells_v2
10x_cells_v2_TGGACGCCACAACGCC-12L8TX_171026_01_D05	1	2	2	1	3.2925853948188784	-1.504347755102637	10x_cells_v2
10x_cells_v2_AAAGCAAAGAGACGAA-13L8TX_171026_01_E05	1	2	2	1	3.4943024244335663	-3.2266104523195924	10x_cells_v2
10x_cells_v2_AGAATAGCACTGTGTA-13L8TX_171026_01_E05	1	2	2	1	3.5834429554340708	-3.007388832948481	10x_cells_v2
10x_cells_v2_AGCATACGTCTGCAAT-13L8TX_171026_01_E05	1	2	2	1	3.4496963695532235	-4.091163028515678	10x_cells_v2
10x_cells_v2_CATATTCCAGCTCCGA-13L8TX_171026_01_E05	1	2	2	6	0.7552492318755607	-4.2138910423754545	10x_cells_v2
10x_cells_v2_CATCCACAGCAACGGT-13L8TX_171026_01_E05	1	2	2	1	3.8640919108447043	-2.641864997337544	10x_cells_v2
10x_cells_v2_CCCTCCTAGTGAATTG-13L8TX_171026_01_E05	1	2	2	1	3.6370113748032145	-3.709229265622504	10x_cells_v2
10x_cells_v2_CCTTCCCGTCATATCG-13L8TX_171026_01_E05	1	2	2	1	4.086231208040664	-4.338680142471489	10x_cells_v2
10x_cells_v2_CGAACATCAGTCGTGC-13L8TX_171026_01_E05	1	2	2	1	3.820297798860574	-4.748187227794646	10x_cells_v2
10x_cells_v2_CGACCTTGTTCCACGG-13L8TX_171026_01_E05	1	2	2	1	3.517005535242949	-4.190331556227444	10x_cells_v2
10x_cells_v2_CGGAGCTAGCCACGCT-13L8TX_171026_01_E05	1	2	2	1	1.032507811214509	-4.340776668483058	10x_cells_v2
10x_cells_v2_CGTGTCTGTTAAAGAC-13L8TX_171026_01_E05	1	2	2	1	1.4156778265387464	-4.592549179945526	10x_cells_v2
10x_cells_v2_CTCGTCAAGCCTCGTG-13L8TX_171026_01_E05	1	2	2	1	2.7819550591608526	-2.8787632163935237	10x_cells_v2
10x_cells_v2_GAAGCAGTCTATCCCG-13L8TX_171026_01_E05	1	2	2	1	4.130285382058493	-3.9219306225088237	10x_cells_v2
10x_cells_v2_GACGGCTCATGACGGA-13L8TX_171026_01_E05	1	2	2	1	3.634333277201297	-4.732669500182781	10x_cells_v2
10x_cells_v2_GACTGCGGTCGCGAAA-13L8TX_171026_01_E05	1	2	2	1	4.1382724812054885	-4.639861229110557	10x_cells_v2
10x_cells_v2_GAGTCCGAGGTGTTAA-13L8TX_171026_01_E05	1	2	2	1	4.250577316996107	-3.2898537714480045	10x_cells_v2
10x_cells_v2_GATCGTATCCGTCAAA-13L8TX_171026_01_E05	1	2	2	1	1.1483647887981951	-4.5465503394749796	10x_cells_v2
10x_cells_v2_GATGCTATCCTCTAGC-13L8TX_171026_01_E05	1	2	2	1	4.460873300655686	-2.4706126756012976	10x_cells_v2
10x_cells_v2_GCGCAACTCAGTTAGC-13L8TX_171026_01_E05	1	2	2	1	4.02651227582408	-4.268423947363708	10x_cells_v2
10x_cells_v2_GGTGTTACATGCCTTC-13L8TX_171026_01_E05	1	2	2	1	3.2972179947145563	-2.6442735169907223	10x_cells_v2
10x_cells_v2_TGAGGGAAGGCCATAG-13L8TX_171026_01_E05	1	2	2	1	1.5659496663277168	-4.9527899096669445	10x_cells_v2
10x_cells_v2_TGGCTGGTCACGCATA-13L8TX_171026_01_E05	1	2	2	1	2.9452632757586885	-1.534657202091855	10x_cells_v2
10x_cells_v2_TGTGGTATCCTCATTA-13L8TX_171026_01_E05	1	2	2	1	3.415628581964485	-1.998605843020271	10x_cells_v2
10x_cells_v2_TTAGGCATCCAGGGCT-13L8TX_171026_01_E05	1	2	2	1	3.7241332709906385	-4.745917148080877	10x_cells_v2
10x_cells_v2_ACACCGGAGAGTGAGA-14L8TX_171026_01_F05	1	2	2	1	3.276765988614878	-4.726753655269457	10x_cells_v2
10x_cells_v2_ACGAGGATCCCAGGTG-14L8TX_171026_01_F05	1	2	2	1	4.537445209361516	-3.8447602667150678	10x_cells_v2
10x_cells_v2_CAGCTGGGTTTGACTG-14L8TX_171026_01_F05	1	2	2	1	3.0168711792175666	-3.4769219923021133	10x_cells_v2
10x_cells_v2_CATATTCGTGGAAAGA-14L8TX_171026_01_F05	1	2	2	1	4.6985300059336845	-1.8176525736866787	10x_cells_v2
