FangmingXie/SingleCellFusion_dev/example_l5pt/results/intg_summary_test_scf_mouse_mop.tsv
sample	cluster_joint_r0.1	cluster_joint_r0.2	cluster_joint_r0.4	cluster_joint_r0.8	tsne_x	tsne_y	modality
snmcseq_gene_2C_M_1054	1	3	3	3	5.726330088449448	2.6936166107836446	snmcseq_gene
snmcseq_gene_2C_M_106	1	3	3	3	5.630625636450207	1.8701176564474435	snmcseq_gene
snmcseq_gene_2C_M_1076	1	3	3	3	5.071988951012511	3.6276692211205734	snmcseq_gene
snmcseq_gene_2C_M_1078	1	2	2	1	5.423690287319783	-1.7020713078080374	snmcseq_gene
snmcseq_gene_2C_M_1110	1	2	2	1	4.175855449567322	-4.216455746353183	snmcseq_gene
snmcseq_gene_2C_M_1152	1	3	3	3	6.422929392331598	3.2786668234311893	snmcseq_gene
snmcseq_gene_2C_M_1238	1	2	2	1	3.6842233965678517	-3.0351936702994613	snmcseq_gene
snmcseq_gene_2C_M_1279	1	3	3	3	5.2469630368573	3.7984018892869056	snmcseq_gene
snmcseq_gene_2C_M_1359	1	2	2	1	4.3092288907288765	-4.0193366127427685	snmcseq_gene
snmcseq_gene_2C_M_1392	2	1	1	4	-3.0911097605364715	-0.9733239402247184	snmcseq_gene
snmcseq_gene_2C_M_1398	1	3	3	3	5.157982163042533	2.3711637122945577	snmcseq_gene
snmcseq_gene_2C_M_1446	1	2	2	1	5.638333071754674	-0.0223764292649562	snmcseq_gene
snmcseq_gene_2C_M_1540	2	1	1	4	-3.3075033431103935	1.0696248342968995	snmcseq_gene
snmcseq_gene_2C_M_1559	1	3	3	3	5.9000234662354005	1.9677537920893158	snmcseq_gene
snmcseq_gene_2C_M_1563	1	3	3	3	6.556891682182358	2.5828328002576364	snmcseq_gene
snmcseq_gene_2C_M_1599	1	2	2	1	3.3897370297468674	-1.6528277891277414	snmcseq_gene
snmcseq_gene_2C_M_1610	1	3	3	3	4.052748147232057	2.2689418208670347	snmcseq_gene
snmcseq_gene_2C_M_1644	2	1	4	2	-2.648364276937744	-1.3938753857324644	snmcseq_gene
snmcseq_gene_2C_M_1678	1	3	3	3	4.473924833157262	1.1480663659878505	snmcseq_gene
snmcseq_gene_2C_M_1697	1	3	3	5	3.448956624228286	1.880587497770675	snmcseq_gene
snmcseq_gene_2C_M_1758	1	3	3	5	3.316685988812572	0.8775417283209519	snmcseq_gene
snmcseq_gene_2C_M_1793	1	3	3	3	5.532515977549396	3.597509478690256	snmcseq_gene
snmcseq_gene_2C_M_1808	1	2	2	1	5.26366660247059	-2.940852374502036	snmcseq_gene
snmcseq_gene_2C_M_1844	2	1	4	2	1.0516302058217402	0.39475978691542823	snmcseq_gene
snmcseq_gene_2C_M_1913	1	2	2	1	4.1911427455706685	-2.427083172151549	snmcseq_gene
snmcseq_gene_2C_M_1989	1	2	2	1	3.1073729495093017	-5.048505964374485	snmcseq_gene
snmcseq_gene_2C_M_1990	1	3	3	5	1.9167391388937054	1.6935551506801727	snmcseq_gene
snmcseq_gene_2C_M_2014	1	3	3	3	4.888832509682104	3.651759027261551	snmcseq_gene
snmcseq_gene_2C_M_2025	1	2	2	1	6.175347001907325	-2.23028155029414	snmcseq_gene
snmcseq_gene_2C_M_2039	1	3	3	5	3.1983284913983727	2.1845505552110778	snmcseq_gene
snmcseq_gene_2C_M_2062	1	3	3	3	4.010343313766104	2.3989814758612606	snmcseq_gene
snmcseq_gene_2C_M_2064	2	1	1	4	-3.374892662755711	1.960244589763285	snmcseq_gene
snmcseq_gene_2C_M_2192	1	2	2	1	3.8335448859607157	-2.5619649082728766	snmcseq_gene
snmcseq_gene_2C_M_2205	2	1	4	2	-1.7419707704433154	-1.4932666027227042	snmcseq_gene
snmcseq_gene_2C_M_244	1	2	2	1	3.27652941591147	-1.250975725800389	snmcseq_gene
snmcseq_gene_2C_M_248	1	2	2	1	4.19726670209813	0.40637907209846025	snmcseq_gene
snmcseq_gene_2C_M_260	1	3	3	3	5.933414371648224	3.6221632259078884	snmcseq_gene
snmcseq_gene_2C_M_272	1	3	3	3	4.558684755219199	1.9212327526738906	snmcseq_gene
snmcseq_gene_2C_M_296	1	2	2	1	5.915943808999686	-2.882006395346014	snmcseq_gene
snmcseq_gene_2C_M_396	1	3	3	3	4.238315199190794	2.581701464278335	snmcseq_gene
snmcseq_gene_2C_M_411	1	2	2	1	6.062954296766653	-1.4560630095177634	snmcseq_gene
snmcseq_gene_2C_M_412	1	2	2	1	4.087188747752958	-4.7156353697281315	snmcseq_gene
snmcseq_gene_2C_M_454	1	3	3	3	5.790623913575754	3.344713339079763	snmcseq_gene
snmcseq_gene_2C_M_464	2	1	1	4	-2.8153634139935826	-1.180195587980531	snmcseq_gene
snmcseq_gene_2C_M_525	1	3	3	3	6.454197672906518	3.0037415088406614	snmcseq_gene
snmcseq_gene_2C_M_574	1	3	3	5	2.603653633294652	1.8506794452681663	snmcseq_gene
snmcseq_gene_2C_M_608	1	3	3	3	4.273355971312846	1.955168523905822	snmcseq_gene
snmcseq_gene_2C_M_676	2	1	4	2	-1.135359712702181	-1.8143137114808043	snmcseq_gene
snmcseq_gene_2C_M_726	1	3	3	3	6.677636294517363	2.211629321542995	snmcseq_gene
snmcseq_gene_2C_M_760	1	2	2	1	3.6972052054959685	-2.85708212631638	snmcseq_gene
snmcseq_gene_2C_M_806	1	3	3	3	5.29738496457247	2.959500383245854	snmcseq_gene
snmcseq_gene_2C_M_82	1	2	3	1	5.00048771336033	0.26469943171924404	snmcseq_gene
snmcseq_gene_2C_M_921	1	3	3	5	2.264227504751645	1.3980476785345715	snmcseq_gene
snmcseq_gene_2C_M_942	1	2	2	1	5.339036586934944	-3.1258736642522984	snmcseq_gene
snmcseq_gene_2C_M_972	1	3	3	3	6.31671229161514	3.1656375236790897	snmcseq_gene
snmcseq_gene_2C_M_976	2	1	1	5	-0.7061635446237441	1.8069760506763504	snmcseq_gene
snmcseq_gene_3C_M_1026	2	1	1	4	-2.2543817635609034	-0.9528976926144196	snmcseq_gene
snmcseq_gene_3C_M_1060	2	1	4	2	-2.3884484590949016	-1.5680271548555047	snmcseq_gene
snmcseq_gene_3C_M_1065	1	2	2	1	5.157648981542618	-3.446385229470114	snmcseq_gene
snmcseq_gene_3C_M_1087	1	2	2	1	3.9146748028584537	-4.760003030499314	snmcseq_gene
snmcseq_gene_3C_M_111	1	3	3	5	2.660155693589337	1.6183239703296641	snmcseq_gene
snmcseq_gene_3C_M_1123	1	2	2	1	4.663946771653364	-2.080575464921103	snmcseq_gene
snmcseq_gene_3C_M_1137	1	2	2	1	3.174677898997077	-1.4038179538808382	snmcseq_gene
snmcseq_gene_3C_M_116	1	2	2	1	6.021724078161433	-2.7371161471103234	snmcseq_gene
snmcseq_gene_3C_M_1178	2	1	4	2	-0.7339641756920529	-2.1268752693732496	snmcseq_gene
snmcseq_gene_3C_M_1186	2	1	4	2	-1.8213288829585517	-1.7922349313984123	snmcseq_gene
snmcseq_gene_3C_M_1189	1	3	3	3	5.826761729992388	0.7936589727787735	snmcseq_gene
snmcseq_gene_3C_M_1211	1	2	2	1	5.099051150259886	-3.06939116328799	snmcseq_gene
snmcseq_gene_3C_M_1301	2	1	1	4	-3.7667168788266103	0.2723115965038817	snmcseq_gene
snmcseq_gene_3C_M_1330	1	3	3	3	5.246342166498299	3.51981500047395	snmcseq_gene
snmcseq_gene_3C_M_1342	1	2	2	1	3.597718656966128	-4.975934584547284	snmcseq_gene
snmcseq_gene_3C_M_1355	1	3	3	3	4.766195006620978	3.8940610376079587	snmcseq_gene
snmcseq_gene_3C_M_1405	1	3	3	3	6.725992081434286	2.5216438706606237	snmcseq_gene
snmcseq_gene_3C_M_1416	1	3	3	3	5.367950668633434	2.127313079504679	snmcseq_gene
snmcseq_gene_3C_M_1476	1	3	3	3	6.236537464607633	1.938959690155075	snmcseq_gene
snmcseq_gene_3C_M_1487	2	1	4	2	0.5859795879145066	-0.005777130464341283	snmcseq_gene
snmcseq_gene_3C_M_1493	2	1	1	5	-1.505606146949308	2.436001078277884	snmcseq_gene
snmcseq_gene_3C_M_1548	2	1	1	4	-2.6316237915136123	-1.2317898896279382	snmcseq_gene
snmcseq_gene_3C_M_1571	1	3	3	5	3.628056047750971	2.327728731282035	snmcseq_gene
snmcseq_gene_3C_M_1579	1	3	3	3	5.1875638900758965	1.09707350314296	snmcseq_gene
snmcseq_gene_3C_M_1596	1	2	3	1	5.262424462472352	0.343052483817081	snmcseq_gene
snmcseq_gene_3C_M_1631	1	3	3	5	2.6217127754291556	1.3725238364729724	snmcseq_gene
snmcseq_gene_3C_M_1638	1	3	3	3	4.273790709869704	2.808706024931365	snmcseq_gene
snmcseq_gene_3C_M_1639	1	3	3	3	4.939821228316661	1.661040479749135	snmcseq_gene
snmcseq_gene_3C_M_1648	2	1	4	2	-2.5518381285345377	-1.9764578784446474	snmcseq_gene
snmcseq_gene_3C_M_1736	1	2	2	1	3.7936073315121877	-3.2406804035377714	snmcseq_gene
snmcseq_gene_3C_M_1787	1	2	2	1	5.13580872168672	-3.5684186607045483	snmcseq_gene
snmcseq_gene_3C_M_1846	1	2	2	1	5.240884970541761	-2.569256045929254	snmcseq_gene
snmcseq_gene_3C_M_187	2	1	4	2	0.8055280651899608	-0.3829301966443247	snmcseq_gene
snmcseq_gene_3C_M_193	1	3	3	3	6.5561068418393695	1.9899344306072835	snmcseq_gene
snmcseq_gene_3C_M_1961	1	2	2	1	3.6208206898895505	-5.014517491200652	snmcseq_gene
snmcseq_gene_3C_M_1964	2	1	1	4	-3.219669418078947	1.677858602460027	snmcseq_gene
snmcseq_gene_3C_M_1973	1	2	2	1	4.519930637765398	-2.0578422287388607	snmcseq_gene
snmcseq_gene_3C_M_2006	2	1	4	2	-0.13456651255283478	-0.8155143820600735	snmcseq_gene
snmcseq_gene_3C_M_201	2	1	4	2	0.2279815471672404	-1.813495006824165	snmcseq_gene
snmcseq_gene_3C_M_2067	2	1	1	2	-1.8686225157576706	-1.202526476130603	snmcseq_gene
snmcseq_gene_3C_M_2082	2	1	4	2	-0.5216129914169111	-0.33625376436076543	snmcseq_gene
snmcseq_gene_3C_M_2126	2	3	3	5	1.75153036654631	1.4319617653464287	snmcseq_gene
snmcseq_gene_3C_M_2130	2	1	4	2	-0.17137295003258124	-0.1533610946629695	snmcseq_gene
snmcseq_gene_3C_M_2149	1	2	2	1	6.232473969308484	-2.422512145855399	snmcseq_gene
snmcseq_gene_3C_M_217	2	1	1	4	-2.728647176892495	1.7468772258473788	snmcseq_gene
snmcseq_gene_3C_M_2229	1	3	3	5	1.702357943066809	1.7523468092229104	snmcseq_gene
snmcseq_gene_3C_M_2249	2	1	4	2	-2.819717799639888	-1.6673470507251387	snmcseq_gene
snmcseq_gene_3C_M_2266	1	3	3	3	5.796718599322609	1.9344121089925894	snmcseq_gene
snmcseq_gene_3C_M_2290	2	1	4	2	-2.0870570540882034	-1.5336729129689881	snmcseq_gene
snmcseq_gene_3C_M_2308	1	2	2	1	4.978014534352151	-3.4141697587494857	snmcseq_gene
snmcseq_gene_3C_M_2318	1	2	2	1	4.623491168959408	-2.2943665262239428	snmcseq_gene
snmcseq_gene_3C_M_2353	1	3	3	3	5.626534010781622	3.4636172874415525	snmcseq_gene
snmcseq_gene_3C_M_2394	1	2	2	1	4.474643057193567	-3.4930397627270757	snmcseq_gene
snmcseq_gene_3C_M_2446	2	1	4	2	-0.5642342936831548	-2.666749724703761	snmcseq_gene
snmcseq_gene_3C_M_2459	1	2	2	1	4.5274013800804065	-3.252957669311856	snmcseq_gene
snmcseq_gene_3C_M_266	2	1	4	2	-1.9119899580066297	-0.6282145101326724	snmcseq_gene
snmcseq_gene_3C_M_268	2	1	4	2	-0.6347769370972649	-2.5538185232307553	snmcseq_gene
snmcseq_gene_3C_M_275	1	3	3	3	5.201353285580164	2.0629388051359507	snmcseq_gene
snmcseq_gene_3C_M_278	2	1	1	4	-3.7509122263839494	1.8958178047574867	snmcseq_gene
snmcseq_gene_3C_M_299	2	1	4	2	-0.5972227341301359	-2.36837070774438	snmcseq_gene
snmcseq_gene_3C_M_386	2	1	1	4	-3.4757024136946972	1.7413660141139071	snmcseq_gene
snmcseq_gene_3C_M_465	1	3	3	3	5.5084459730606135	0.7670298844113249	snmcseq_gene
snmcseq_gene_3C_M_467	2	1	1	4	-2.704386403487467	-1.0544237702379389	snmcseq_gene
snmcseq_gene_3C_M_488	1	2	2	1	4.238073172835667	-2.0650278493141885	snmcseq_gene
snmcseq_gene_3C_M_544	1	2	2	1	3.847349315922413	-4.2850883617981586	snmcseq_gene
snmcseq_gene_3C_M_546	1	3	3	3	4.780937156382855	3.278178022204882	snmcseq_gene
snmcseq_gene_3C_M_62	1	3	3	3	6.133354066787916	2.139141365743477	snmcseq_gene
snmcseq_gene_3C_M_621	1	2	2	1	4.235591452039284	-2.2847085217303627	snmcseq_gene
snmcseq_gene_3C_M_625	2	1	4	2	-2.265527458319888	-2.2235557474599603	snmcseq_gene
snmcseq_gene_3C_M_63	2	1	1	4	-3.4331637110836137	0.8102404938985847	snmcseq_gene
snmcseq_gene_3C_M_655	1	2	2	1	4.118486207435151	-3.3913922820361355	snmcseq_gene
snmcseq_gene_3C_M_656	2	1	4	2	-1.7088055236030726	-2.1235755249941284	snmcseq_gene
snmcseq_gene_3C_M_664	1	2	2	1	4.2326447250536114	-3.1885726863850388	snmcseq_gene
snmcseq_gene_3C_M_665	1	2	2	1	5.906865094753747	-3.1147426721470173	snmcseq_gene
snmcseq_gene_3C_M_686	2	1	1	4	-3.617955773513181	1.816411980763116	snmcseq_gene
snmcseq_gene_3C_M_693	1	2	2	1	6.317197160471364	-2.032307494547119	snmcseq_gene
snmcseq_gene_3C_M_793	1	3	3	3	4.511734561405413	1.0686577825012307	snmcseq_gene
snmcseq_gene_3C_M_82	1	3	3	3	6.013185028576022	2.7419095755291134	snmcseq_gene
snmcseq_gene_3C_M_878	2	1	4	2	-2.043506150444033	-2.3694442917695406	snmcseq_gene
snmcseq_gene_3C_M_895	1	3	3	3	6.320374431362752	1.7964746633248208	snmcseq_gene
snmcseq_gene_3C_M_926	1	3	3	3	5.888000752019134	1.4094344515348909	snmcseq_gene
snmcseq_gene_3C_M_944	1	3	3	3	6.029689989400628	1.4109733785053482	snmcseq_gene
snmcseq_gene_3C_M_946	1	2	2	1	4.167854429122852	-3.8504337119997643	snmcseq_gene
snmcseq_gene_3C_M_953	1	2	2	1	4.208587425130039	-4.745899478644921	snmcseq_gene
snmcseq_gene_3C_M_978	2	1	4	2	0.9430150154008609	-0.7000054584112778	snmcseq_gene
snmcseq_gene_4B_M_1017	2	1	4	2	-1.7675772942665813	-2.5514049559389687	snmcseq_gene
snmcseq_gene_4B_M_106	1	2	2	1	3.7619938145509604	-4.91396866818684	snmcseq_gene
snmcseq_gene_4B_M_1087	2	1	1	5	-0.4175516039498802	2.009105567976054	snmcseq_gene
snmcseq_gene_4B_M_1185	2	1	1	4	-2.1787611823804034	-0.6400243371681377	snmcseq_gene
snmcseq_gene_4B_M_1215	1	3	3	3	4.925999195137187	3.733588306370344	snmcseq_gene
snmcseq_gene_4B_M_125	1	2	2	1	3.624705089865351	-4.476667159084996	snmcseq_gene
snmcseq_gene_4B_M_1262	2	1	4	2	-1.9017084080351891	-1.2737154042059045	snmcseq_gene
snmcseq_gene_4B_M_1269	1	3	3	3	6.53202880829367	2.6345800608707513	snmcseq_gene
snmcseq_gene_4B_M_1330	1	2	2	1	4.542274892726275	-3.4624821280430087	snmcseq_gene
snmcseq_gene_4B_M_1334	1	2	2	1	3.6417239684298273	-4.863677462076282	snmcseq_gene
snmcseq_gene_4B_M_1340	2	1	4	2	1.9244950115662276	0.20003235601814065	snmcseq_gene
snmcseq_gene_4B_M_1350	1	2	2	1	5.607132176552097	-2.6953518832142445	snmcseq_gene
snmcseq_gene_4B_M_1416	1	3	3	3	4.577102726787692	2.0485876336149267	snmcseq_gene
snmcseq_gene_4B_M_1448	1	3	3	3	5.070659026368624	2.498751265918661	snmcseq_gene
snmcseq_gene_4B_M_1483	2	1	1	4	-3.8811480203560462	1.7590532166372437	snmcseq_gene
snmcseq_gene_4B_M_1485	1	3	3	3	5.68906988446862	2.2815373618592187	snmcseq_gene
snmcseq_gene_4B_M_1486	1	2	2	1	5.3517294632582875	-1.4420457136935163	snmcseq_gene
snmcseq_gene_4B_M_1490	2	1	1	2	-1.0041955811608276	0.0033383006320745327	snmcseq_gene
snmcseq_gene_4B_M_1519	1	2	2	1	4.090478911967999	-2.700472908269563	snmcseq_gene
snmcseq_gene_4B_M_1537	1	2	2	1	3.573598303435541	-2.749776996048991	snmcseq_gene
snmcseq_gene_4B_M_1543	2	1	4	2	-1.2993758936988293	-1.1528568175875533	snmcseq_gene
snmcseq_gene_4B_M_1557	1	3	3	3	4.026728613311865	1.4560134090872963	snmcseq_gene
snmcseq_gene_4B_M_1580	1	2	2	1	3.6155183614313753	-3.64743061051948	snmcseq_gene
snmcseq_gene_4B_M_1581	2	1	1	4	-2.6347583900293516	-0.5877111249037561	snmcseq_gene
snmcseq_gene_4B_M_1583	2	1	1	4	-3.1249111090800277	-0.4447406531508313	snmcseq_gene
snmcseq_gene_4B_M_1584	1	3	3	5	2.040992729467132	1.024970289271597	snmcseq_gene
snmcseq_gene_4B_M_1608	2	1	1	4	-3.0997221331045495	0.3454022698651235	snmcseq_gene
snmcseq_gene_4B_M_1610	2	1	1	4	-2.216344912019035	0.5187896790176392	snmcseq_gene
snmcseq_gene_4B_M_1613	2	1	1	4	-3.576969690031913	0.4633813221728041	snmcseq_gene
snmcseq_gene_4B_M_1614	1	2	2	1	4.041373512821289	-3.888818097342992	snmcseq_gene
snmcseq_gene_4B_M_1624	1	2	2	1	5.032916923656653	-2.45910047159793	snmcseq_gene
snmcseq_gene_4B_M_1655	2	1	4	2	-0.3354487386643549	-1.3177438772969845	snmcseq_gene
snmcseq_gene_4B_M_173	1	3	3	3	6.119193473094357	2.8410316694705378	snmcseq_gene
snmcseq_gene_4B_M_1896	1	2	2	1	4.834210039513843	-2.1928397784021394	snmcseq_gene
snmcseq_gene_4B_M_1909	2	1	1	2	-1.5095283394379069	-0.6874655547931476	snmcseq_gene
snmcseq_gene_4B_M_1915	1	2	2	1	3.3596155072787397	-2.6228588813697957	snmcseq_gene
snmcseq_gene_4B_M_1928	1	2	2	1	3.4108407577232525	-4.738947406820231	snmcseq_gene
snmcseq_gene_4B_M_198	2	1	1	4	-2.987783568423053	-0.5673799151508764	snmcseq_gene
snmcseq_gene_4B_M_1989	1	3	3	3	6.2738352138680265	2.115404587251528	snmcseq_gene
snmcseq_gene_4B_M_2005	2	1	4	2	-0.21012978998289028	-2.2263249547440367	snmcseq_gene
snmcseq_gene_4B_M_2023	2	1	4	2	-2.1896047367678544	-1.4977774877461123	snmcseq_gene
snmcseq_gene_4B_M_2080	1	2	2	1	4.094775016691366	-4.761587729465596	snmcseq_gene
snmcseq_gene_4B_M_2133	1	3	3	3	6.570226332738419	3.1936871303868632	snmcseq_gene
snmcseq_gene_4B_M_215	1	2	2	1	4.734005734056384	-3.673053606418787	snmcseq_gene
snmcseq_gene_4B_M_22	1	2	2	1	4.137432091181403	-4.471817814860188	snmcseq_gene
snmcseq_gene_4B_M_221	1	2	2	1	6.04871444955646	-2.6577646281789122	snmcseq_gene
snmcseq_gene_4B_M_2218	1	3	3	3	5.0799145292586525	1.3459707091876931	snmcseq_gene
snmcseq_gene_4B_M_2240	1	2	2	1	5.42581997389791	-2.820678982304602	snmcseq_gene
snmcseq_gene_4B_M_2264	1	3	3	3	5.399456025865023	3.0160686105254246	snmcseq_gene
snmcseq_gene_4B_M_2325	2	1	1	4	-2.1890395255276354	1.9528519182691562	snmcseq_gene
snmcseq_gene_4B_M_2329	2	1	4	2	-0.1612887969109156	-1.875904452500319	snmcseq_gene
snmcseq_gene_4B_M_2343	2	1	4	2	1.159123178602977	-1.5689222812985446	snmcseq_gene
snmcseq_gene_4B_M_2350	1	2	2	5	2.130167729475077	0.060764523618131824	snmcseq_gene
snmcseq_gene_4B_M_2369	2	1	4	2	-1.2145062992354834	-2.838542787275185	snmcseq_gene
snmcseq_gene_4B_M_2429	2	1	4	2	1.4360287133197158	-0.26377864507331233	snmcseq_gene
snmcseq_gene_4B_M_251	1	3	3	3	5.322552045845926	3.601001202759719	snmcseq_gene
snmcseq_gene_4B_M_2536	2	1	1	4	-2.984037395785122	1.0173494664752474	snmcseq_gene
snmcseq_gene_4B_M_2539	2	1	1	4	-4.205795113269563	0.9227127428137748	snmcseq_gene
snmcseq_gene_4B_M_2555	2	1	1	5	-1.5818195963511055	1.6142078276569556	snmcseq_gene
snmcseq_gene_4B_M_2562	1	3	3	3	4.087578841898473	3.280738149770232	snmcseq_gene
snmcseq_gene_4B_M_2566	1	2	2	1	5.591196170219654	-2.0658868235667587	snmcseq_gene
snmcseq_gene_4B_M_2571	1	3	3	3	6.335844225946192	2.758113880050976	snmcseq_gene
snmcseq_gene_4B_M_2634	2	1	4	2	0.0838166122743366	-0.19469520562587078	snmcseq_gene
snmcseq_gene_4B_M_2651	1	2	2	1	3.427606242085743	-2.2699405953844214	snmcseq_gene
snmcseq_gene_4B_M_267	1	3	3	3	4.610398561887952	3.374885312233221	snmcseq_gene
snmcseq_gene_4B_M_2771	2	1	4	2	-1.4876971186191297	-1.3992598375422065	snmcseq_gene
snmcseq_gene_4B_M_2774	1	2	2	1	2.8742724984521257	-2.1087644842032747	snmcseq_gene
snmcseq_gene_4B_M_2815	1	2	2	1	4.791172581750751	-1.9183448215172203	snmcseq_gene
snmcseq_gene_4B_M_283	2	1	4	2	-0.9500054273571567	-2.081688291255776	snmcseq_gene
snmcseq_gene_4B_M_373	1	3	3	3	6.327127915082728	2.940208184345099	snmcseq_gene
snmcseq_gene_4B_M_386	2	1	1	4	-3.639107798129992	1.1377580231459985	snmcseq_gene
snmcseq_gene_4B_M_418	1	3	3	3	4.922873523952816	2.9604460026442245	snmcseq_gene
snmcseq_gene_4B_M_448	2	1	4	2	-0.8243011811317302	-1.5116413546226948	snmcseq_gene
snmcseq_gene_4B_M_529	2	1	4	2	-0.8989064389361612	-2.8811367386795395	snmcseq_gene
snmcseq_gene_4B_M_532	1	2	2	1	3.4204416845316143	-4.895841803153515	snmcseq_gene
snmcseq_gene_4B_M_545	1	3	3	3	5.9956951316020515	1.8455476870417729	snmcseq_gene
snmcseq_gene_4B_M_630	1	2	2	1	4.153524838099014	-4.163138293199582	snmcseq_gene
snmcseq_gene_4B_M_640	2	1	4	2	-2.1678862468555367	-2.1594368560004806	snmcseq_gene
snmcseq_gene_4B_M_671	1	2	2	1	3.497007792602128	-4.600086488125287	snmcseq_gene
snmcseq_gene_4B_M_700	1	3	3	5	2.2244369340476635	1.6307659776177696	snmcseq_gene
snmcseq_gene_4B_M_724	1	3	3	3	5.710970367207698	3.143285183051382	snmcseq_gene
snmcseq_gene_4B_M_76	1	3	3	3	6.44240377406248	2.2080501581904293	snmcseq_gene
snmcseq_gene_4B_M_791	1	3	3	3	3.6604495717443046	2.7091898388840807	snmcseq_gene
snmcseq_gene_4B_M_831	1	2	2	1	4.027063076743065	-4.395235792092438	snmcseq_gene
snmcseq_gene_4B_M_891	2	1	1	4	-2.7392221086366444	0.7708785665462317	snmcseq_gene
snmcseq_gene_4B_M_9	2	1	4	2	-0.8860976934546984	-2.0018743680162325	snmcseq_gene
snmcseq_gene_4B_M_949	2	1	4	2	-0.9141774756985546	-0.9642676652307368	snmcseq_gene
snmcseq_gene_5D_M_1007	2	1	4	2	-2.4329456176719733	-2.05425914642204	snmcseq_gene
snmcseq_gene_5D_M_1068	2	1	4	2	-0.6883009792548009	-3.098461234529735	snmcseq_gene
snmcseq_gene_5D_M_1086	1	3	3	3	5.43728476550605	3.1821261438621096	snmcseq_gene
snmcseq_gene_5D_M_1143	1	2	2	1	3.4864599564432006	-5.087126956077185	snmcseq_gene
snmcseq_gene_5D_M_1202	2	1	1	4	-1.6862476220446707	1.478825983502945	snmcseq_gene
snmcseq_gene_5D_M_1231	1	2	2	1	6.213630447222494	-1.7849043737965138	snmcseq_gene
snmcseq_gene_5D_M_1246	1	3	3	3	4.916412881938416	1.721750994698624	snmcseq_gene
snmcseq_gene_5D_M_1261	2	1	4	2	-1.2368806367435332	-2.8162693869469173	snmcseq_gene
snmcseq_gene_5D_M_1275	1	2	2	1	4.748463730376875	-4.257572082455285	snmcseq_gene
snmcseq_gene_5D_M_1311	1	3	3	3	6.156466346777218	1.9668102107950578	snmcseq_gene
snmcseq_gene_5D_M_1348	1	3	3	3	4.587106234962061	2.984837071223532	snmcseq_gene
snmcseq_gene_5D_M_1385	2	1	4	2	1.6843257764261477	0.4027759481667428	snmcseq_gene
snmcseq_gene_5D_M_1431	2	1	4	2	0.004638284541781482	-0.9446200949591632	snmcseq_gene
snmcseq_gene_5D_M_1436	2	1	1	4	-2.1897352891084227	0.17924886569616316	snmcseq_gene
snmcseq_gene_5D_M_1470	1	2	2	1	2.857768364409132	-2.238417779488798	snmcseq_gene
snmcseq_gene_5D_M_1505	2	1	4	2	-0.6085323475423035	-0.8101241279595448	snmcseq_gene
snmcseq_gene_5D_M_1519	1	2	2	1	3.7241131360789583	-3.110716255700941	snmcseq_gene
snmcseq_gene_5D_M_1538	1	2	2	1	3.447277252285866	-4.624562349200262	snmcseq_gene
snmcseq_gene_5D_M_1557	2	1	4	2	1.595996823483319	-0.8461640712290687	snmcseq_gene
snmcseq_gene_5D_M_1564	1	3	3	3	6.430725707685927	2.4582374843004136	snmcseq_gene
snmcseq_gene_5D_M_1569	2	1	1	6	-1.3120466870487444	-0.505433679170916	snmcseq_gene
snmcseq_gene_5D_M_16	1	2	2	1	6.013198517548332	-2.473809010625072	snmcseq_gene
snmcseq_gene_5D_M_1604	2	1	4	2	-1.44340921178654	-2.435104789746348	snmcseq_gene
snmcseq_gene_5D_M_162	1	3	3	3	5.951371421433211	2.83298567537453	snmcseq_gene
snmcseq_gene_5D_M_1700	1	3	3	5	2.465795365550609	1.6529824796650887	snmcseq_gene
snmcseq_gene_5D_M_1725	1	3	3	3	5.479205087360594	3.8122568759884286	snmcseq_gene
snmcseq_gene_5D_M_1757	2	1	1	6	-1.238522389778681	-0.11814330278848542	snmcseq_gene
snmcseq_gene_5D_M_178	1	2	2	1	3.692250346147832	-3.251663049910266	snmcseq_gene
snmcseq_gene_5D_M_1786	1	2	2	1	4.185390955562432	0.10363979751829629	snmcseq_gene
snmcseq_gene_5D_M_1791	1	2	2	1	4.491067762624218	-4.491702121587556	snmcseq_gene
snmcseq_gene_5D_M_1837	2	1	1	6	-0.8837105416126547	0.07000146014229519	snmcseq_gene
snmcseq_gene_5D_M_1847	2	1	1	2	-1.0657307969319951	-0.28196830782224463	snmcseq_gene
snmcseq_gene_5D_M_1868	1	2	2	1	2.5777991430322644	-1.928384447566863	snmcseq_gene
snmcseq_gene_5D_M_1889	2	1	1	4	-2.1751890581575655	-1.0366843277521693	snmcseq_gene
snmcseq_gene_5D_M_1891	1	3	3	3	6.111128876343025	1.1163503840223277	snmcseq_gene
snmcseq_gene_5D_M_1894	1	3	3	2	2.4208653916346865	0.8132904373541955	snmcseq_gene
snmcseq_gene_5D_M_1900	1	2	2	5	2.3364936154201503	0.5715605709539974	snmcseq_gene
snmcseq_gene_5D_M_1947	1	2	2	1	2.546988908451261	-1.9468230923556982	snmcseq_gene
snmcseq_gene_5D_M_1965	2	1	1	4	-1.9922850534779109	-1.0628255162817732	snmcseq_gene
snmcseq_gene_5D_M_1995	2	1	4	2	-1.2457322233965598	-2.6098415991230834	snmcseq_gene
snmcseq_gene_5D_M_2062	2	1	1	4	-1.8944265915498564	-0.10424949953862199	snmcseq_gene
snmcseq_gene_5D_M_2078	1	2	2	6	2.286851308161075	-0.5745288620815242	snmcseq_gene
snmcseq_gene_5D_M_208	2	1	1	4	-2.231483164321376	2.070994709989736	snmcseq_gene
snmcseq_gene_5D_M_2099	1	3	3	3	5.985250664431215	3.8710960150087326	snmcseq_gene
snmcseq_gene_5D_M_210	2	1	1	5	-0.7469450193398549	1.8683800510771535	snmcseq_gene
snmcseq_gene_5D_M_2132	2	1	4	2	1.015858540372031	-1.2465412239451255	snmcseq_gene
snmcseq_gene_5D_M_2170	2	1	1	2	-0.8630928919265394	-0.2952408551536624	snmcseq_gene
snmcseq_gene_5D_M_2209	2	1	1	4	-2.056127930486807	-0.15648105399795098	snmcseq_gene
snmcseq_gene_5D_M_2229	1	2	2	1	3.815746926532868	-4.299412649041466	snmcseq_gene
snmcseq_gene_5D_M_2255	2	1	1	2	-0.6950692118292155	1.3212769475896915	snmcseq_gene
snmcseq_gene_5D_M_2291	1	2	2	1	3.7950987636729936	-0.8645528134402668	snmcseq_gene
snmcseq_gene_5D_M_2302	2	1	1	4	-3.03584057089664	0.22982709429400622	snmcseq_gene
snmcseq_gene_5D_M_236	1	3	3	3	5.800254058778716	2.4484403091658393	snmcseq_gene
snmcseq_gene_5D_M_2370	2	1	1	2	-0.5719913286045478	-0.05377955377708609	snmcseq_gene
snmcseq_gene_5D_M_347	1	2	2	1	3.7140086849167315	-0.08283254536401775	snmcseq_gene
snmcseq_gene_5D_M_417	1	3	3	5	2.228248120969743	1.5723448715737114	snmcseq_gene
snmcseq_gene_5D_M_420	2	1	4	2	-0.8346557654307145	-2.4701204449918417	snmcseq_gene
snmcseq_gene_5D_M_461	2	1	4	2	0.6399889999018556	-0.6381422494278505	snmcseq_gene
snmcseq_gene_5D_M_591	1	2	2	1	5.394771972398965	-3.222713257462545	snmcseq_gene
snmcseq_gene_5D_M_632	1	3	3	3	5.386598758316947	2.5402682559948784	snmcseq_gene
snmcseq_gene_5D_M_634	1	2	2	1	3.3603636544164073	-1.8810904707597094	snmcseq_gene
snmcseq_gene_5D_M_673	1	2	2	1	5.990005864378717	-3.1837182045157046	snmcseq_gene
snmcseq_gene_5D_M_738	2	1	1	6	-0.8594123076540762	-0.18144690091948157	snmcseq_gene
snmcseq_gene_5D_M_753	1	2	2	1	3.1878585351597457	-4.3345513523014505	snmcseq_gene
snmcseq_gene_5D_M_761	1	3	3	3	5.467146875544863	3.28030672438184	snmcseq_gene
snmcseq_gene_5D_M_898	1	2	2	1	5.672268567148392	-2.975201242160991	snmcseq_gene
snmcseq_gene_5D_M_922	1	2	2	1	5.846485099856631	-0.7590649263650564	snmcseq_gene
snmcseq_gene_5D_M_931	1	2	2	1	3.4568623282320803	-2.6682586917814084	snmcseq_gene
snmcseq_gene_5D_M_981	2	1	4	2	1.109975998610968	0.10486259610668454	snmcseq_gene
snmcseq_gene_5D_M_995	1	2	2	1	5.4714981482157246	-3.8471260398728737	snmcseq_gene
smarter_cells_SM-D9E4M_S34_E1-50	2	1	4	2	-0.09589804250702584	-1.1631713779036377	smarter_cells
smarter_cells_LS-15521_S05_E1-50	1	3	3	3	5.513428997623735	2.669147238325537	smarter_cells
smarter_cells_LS-15524_S51_E1-50	1	3	3	3	4.5142043388628865	3.189695887520003	smarter_cells
smarter_cells_SM-D9D8K_S26_E1-50	2	1	1	4	-2.079695065604794	1.6298113119649393	smarter_cells
smarter_cells_SM-D9D8K_S29_E1-50	2	1	1	4	-2.8388040195008686	2.052202028754023	smarter_cells
smarter_cells_SM-D9D8S_S22_E1-50	2	1	1	4	-3.4027274890215233	1.5357339202458324	smarter_cells
smarter_cells_SM-D9E5T_S91_E1-50	2	1	1	4	-1.4175282433686422	1.064152478442279	smarter_cells
smarter_cells_SM-DAIFC_S61_E1-50	2	1	4	2	0.06544411181407297	-1.0001123169053114	smarter_cells
smarter_cells_SM-DAIGV_S26_E1-50	2	1	4	2	-0.5834097156767067	-2.5008257856549005	smarter_cells
smarter_cells_SM-DAIHG_S79_E1-50	1	3	3	3	3.834382602783117	2.547171643576829	smarter_cells
smarter_cells_SM-DD43N_S23_E1-50	2	1	1	5	-1.000567890478434	2.700840117779244	smarter_cells
smarter_cells_SM-DD43Q_S43_E1-50	1	2	2	1	6.186765087145553	-3.3041159952397456	smarter_cells
smarter_cells_SM-GE67S_S060_E1-50	2	1	1	5	-0.31399420303640047	2.8304614080824595	smarter_cells
smarter_nuclei_SM-GE66E_S183_E1-50	2	1	1	4	-2.488295517900256	-0.6074807386881688	smarter_nuclei
smarter_nuclei_SM-GE64S_S058_E1-50	2	1	1	5	-0.7342006847524463	2.575733183273559	smarter_nuclei
smarter_nuclei_SM-GE64S_S076_E1-50	2	1	1	4	-2.613940576525353	-1.2035103597168948	smarter_nuclei
smarter_nuclei_SM-GE64V_S027_E1-50	2	1	1	5	-1.0779658438583717	2.112068126502024	smarter_nuclei
smarter_nuclei_SM-GE64G_S171_E1-50	2	1	1	4	-2.736816006760928	1.0802276823904213	smarter_nuclei
smarter_nuclei_SM-GE64H_S005_E1-50	2	1	1	4	-2.8208777324256613	0.3929838708257699	smarter_nuclei
smarter_nuclei_SM-GE64H_S097_E1-50	2	1	1	5	0.9033905318440839	2.2264479752209603	smarter_nuclei
smarter_nuclei_SM-GE64H_S111_E1-50	2	1	1	4	-2.1674892547077595	2.563908994726043	smarter_nuclei
smarter_nuclei_SM-GE64I_S074_E1-50	2	1	1	4	-2.07072326675352	-1.3116940752831467	smarter_nuclei
smarter_nuclei_SM-GE64J_S005_E1-50	2	1	1	5	0.05080186596042255	2.4989942867775694	smarter_nuclei
smarter_nuclei_SM-GE64J_S009_E1-50	2	1	4	2	1.4841705537265955	-0.5503185102255254	smarter_nuclei
smarter_nuclei_SM-GE64J_S018_E1-50	2	1	1	4	-2.9810028019219423	2.144789530470897	smarter_nuclei
smarter_nuclei_SM-GE64K_S165_E1-50	2	1	4	2	-1.67641051572711	-1.6622712555686385	smarter_nuclei
smarter_nuclei_SM-GE64K_S184_E1-50	2	1	1	4	-3.3601574932099285	1.3450816286896143	smarter_nuclei
smarter_nuclei_SM-GE64K_S186_E1-50	2	1	1	5	-1.2330276439140302	3.0227315813344533	smarter_nuclei
smarter_nuclei_SM-GE64M_S141_E1-50	1	3	3	5	2.528536113472449	1.7456816534717703	smarter_nuclei
smarter_nuclei_SM-GE64N_S091_E1-50	2	1	1	4	-3.7067938351023306	1.2453182660972781	smarter_nuclei
smarter_nuclei_SM-GE649_S021_E1-50	2	1	1	4	-1.9833572726985427	0.7774119353085056	smarter_nuclei
smarter_nuclei_SM-GE649_S111_E1-50	2	1	1	4	-2.7106779749468464	-0.22230976498696453	smarter_nuclei
smarter_nuclei_SM-GE649_S118_E1-50	2	1	1	5	-0.4811103245499735	2.8547434106320297	smarter_nuclei
smarter_nuclei_SM-GE64A_S008_E1-50	2	1	1	4	-2.3581646348319727	2.914545730874512	smarter_nuclei
smarter_nuclei_SM-GE64A_S102_E1-50	2	1	1	4	-2.302367428657595	0.3092907924642686	smarter_nuclei
smarter_nuclei_SM-GE64A_S110_E1-50	2	1	1	5	-1.3005009555548925	2.012598307832044	smarter_nuclei
smarter_nuclei_SM-GE64A_S122_E1-50	1	3	3	5	1.5741650002923746	2.0154222472219963	smarter_nuclei
smarter_nuclei_SM-GE64A_S126_E1-50	2	1	1	5	-1.036617342924544	2.5334647481942705	smarter_nuclei
smarter_nuclei_SM-GE64A_S132_E1-50	2	1	1	6	-0.7271071583311981	-0.15410389574559238	smarter_nuclei
smarter_nuclei_SM-GE64B_S014_E1-50	2	1	1	4	-2.4305618638069326	1.248326357773405	smarter_nuclei
smarter_nuclei_SM-GE64B_S031_E1-50	2	1	1	4	-2.306289590845792	1.799357099635962	smarter_nuclei
smarter_nuclei_SM-GE64B_S140_E1-50	2	1	1	4	-2.3188930878516607	2.6927364719535425	smarter_nuclei
smarter_nuclei_SM-GE64B_S156_E1-50	2	1	1	4	-1.9520241602959787	0.8391327061173397	smarter_nuclei
smarter_nuclei_SM-GE64E_S042_E1-50	2	1	1	5	-1.3814296405277156	2.362358924179519	smarter_nuclei
smarter_nuclei_SM-GE64E_S149_E1-50	2	1	1	4	-2.438898370761132	0.8885470825386133	smarter_nuclei
smarter_nuclei_SM-GE64F_S060_E1-50	2	1	1	4	-3.1362680070409694	0.4912534010125839	smarter_nuclei
smarter_nuclei_SM-GE64F_S064_E1-50	2	1	1	4	-2.545122934954616	-0.9149673806350912	smarter_nuclei
smarter_nuclei_SM-GE64F_S071_E1-50	2	1	1	4	-2.4693991059052482	0.3898633157657393	smarter_nuclei
smarter_nuclei_SM-GE64F_S094_E1-50	2	1	1	4	-2.236047595835133	0.6500686956923404	smarter_nuclei
smarter_nuclei_SM-GE63Z_S027_E1-50	2	1	1	4	-2.292426356895431	-0.22082003753769447	smarter_nuclei
smarter_nuclei_SM-GE63Z_S035_E1-50	2	1	1	4	-2.2177784628711152	0.05948515683023576	smarter_nuclei
smarter_nuclei_SM-GE63Z_S082_E1-50	2	1	1	6	1.842754573988249	-0.34377337182926726	smarter_nuclei
smarter_nuclei_SM-GE63Z_S088_E1-50	2	1	1	5	-0.9471304351310336	2.988926970952184	smarter_nuclei
smarter_nuclei_SM-GE63Z_S089_E1-50	2	1	1	5	-1.6772546607950072	2.7628763514940196	smarter_nuclei
smarter_nuclei_SM-GE63Z_S119_E1-50	2	1	1	4	-2.853318638600839	2.2089498428647065	smarter_nuclei
smarter_nuclei_SM-GE641_S006_E1-50	2	1	1	4	-2.3066098174982317	2.749549755210834	smarter_nuclei
smarter_nuclei_SM-GE641_S026_E1-50	2	1	1	4	-3.2330194694203236	-0.3279459821028583	smarter_nuclei
smarter_nuclei_SM-GE641_S119_E1-50	2	1	1	4	-2.6914608182867945	2.6261150732675715	smarter_nuclei
smarter_nuclei_SM-GE642_S035_E1-50	2	1	1	4	-2.849531431789074	1.9462851328456265	smarter_nuclei
smarter_nuclei_SM-GE642_S132_E1-50	2	1	1	5	0.1015879030942343	2.278657143614221	smarter_nuclei
smarter_nuclei_SM-GE643_S008_E1-50	2	1	1	4	-4.057029866860024	0.5998243375336967	smarter_nuclei
smarter_nuclei_SM-GE643_S063_E1-50	2	1	1	4	-3.3660911118523904	-0.1782288239579851	smarter_nuclei
smarter_nuclei_SM-GE643_S074_E1-50	2	1	1	4	-3.5303723918762064	0.8016758843785969	smarter_nuclei
smarter_nuclei_SM-GE644_S076_E1-50	2	1	1	4	-2.303864542425818	-1.0763163798350246	smarter_nuclei
smarter_nuclei_SM-GE644_S079_E1-50	2	1	1	5	-0.4286682451785132	2.748458661650158	smarter_nuclei
smarter_nuclei_SM-GE645_S051_E1-50	2	1	1	4	-2.0057182420548023	2.1662742612939447	smarter_nuclei
smarter_nuclei_SM-GE645_S124_E1-50	2	1	1	4	-2.902657617993908	-0.495183488900589	smarter_nuclei
smarter_nuclei_SM-GE646_S131_E1-50	2	1	1	4	-3.9173359274520587	1.6692524367338621	smarter_nuclei
smarter_nuclei_SM-GE646_S132_E1-50	2	1	1	4	-2.0101456317556132	2.4260382502579323	smarter_nuclei
smarter_nuclei_SM-GE646_S135_E1-50	2	1	1	6	1.2600592183800607	-0.05024700314871744	smarter_nuclei
smarter_nuclei_SM-GE646_S136_E1-50	2	1	1	4	-2.2143872962005866	-1.1250844603979502	smarter_nuclei
smarter_nuclei_SM-GE646_S143_E1-50	2	1	1	4	-2.7659865852159817	1.8274100460691538	smarter_nuclei
smarter_nuclei_SM-GE647_S028_E1-50	2	1	1	4	-2.7061572403063394	-0.07045352884078519	smarter_nuclei
smarter_nuclei_SM-GE647_S031_E1-50	2	1	1	5	-0.8734381133514898	2.8537086149756488	smarter_nuclei
smarter_nuclei_SM-GE66I_S047_E1-50	2	1	1	4	-2.915298396623795	2.2789246304554664	smarter_nuclei
smarter_nuclei_SM-GE66I_S059_E1-50	2	1	1	4	-2.465646919872817	2.9604206072046706	smarter_nuclei
smarter_nuclei_SM-GE66J_S049_E1-50	2	1	1	4	-3.802842586805724	0.5890843130228679	smarter_nuclei
smarter_nuclei_SM-GE66J_S050_E1-50	2	1	1	4	-2.409377879411197	2.826671552086852	smarter_nuclei
smarter_nuclei_SM-GE66J_S097_E1-50	2	1	1	4	-2.1592596936498194	0.8142603466562484	smarter_nuclei
smarter_nuclei_SM-GE66J_S112_E1-50	2	1	1	4	-1.9698281001525784	-1.2787271913231104	smarter_nuclei
smarter_nuclei_SM-GE66J_S136_E1-50	2	1	4	2	-0.5406839171502698	-0.539804835305854	smarter_nuclei
smarter_nuclei_SM-GE66K_S084_E1-50	2	1	1	4	-3.4335157266362084	-0.5711166167532528	smarter_nuclei
smarter_nuclei_SM-GE66K_S119_E1-50	2	1	1	4	-3.552151531974212	2.0784636449435867	smarter_nuclei
smarter_nuclei_SM-GE66K_S153_E1-50	2	1	4	2	0.002683192935993689	-0.5340650248120812	smarter_nuclei
smarter_nuclei_SM-GE66K_S161_E1-50	2	1	1	4	-3.9106608760278467	0.8358159007999676	smarter_nuclei
smarter_nuclei_SM-GE66K_S172_E1-50	2	1	1	4	-2.9895976758835925	0.7529275435065792	smarter_nuclei
smarter_nuclei_SM-GE66L_S162_E1-50	2	1	1	4	-2.5653586916973126	2.0516104608158297	smarter_nuclei
smarter_nuclei_SM-GE66M_S114_E1-50	2	1	1	4	-3.573856500260229	2.1647093653398923	smarter_nuclei
smarter_nuclei_SM-GE66M_S185_E1-50	2	1	1	4	-2.773560631878075	2.38466986253751	smarter_nuclei
smarter_nuclei_SM-GE66M_S188_E1-50	2	1	1	4	-3.469261982976825	1.1396182898744986	smarter_nuclei
smarter_nuclei_SM-GE66N_S016_E1-50	2	1	1	4	-3.0455796552996275	1.834609852930298	smarter_nuclei
smarter_nuclei_SM-GE66N_S172_E1-50	2	1	1	4	-2.7341247513440736	-0.2916751068413286	smarter_nuclei
smarter_nuclei_SM-GE66A_S120_E1-50	2	1	1	5	0.7466509744770613	2.341458855872685	smarter_nuclei
smarter_nuclei_SM-GE66C_S007_E1-50	2	1	1	4	-2.776423822813096	-0.3949772994454182	smarter_nuclei
smarter_nuclei_SM-GE66D_S024_E1-50	1	3	3	3	5.419104124146838	2.6508604398442865	smarter_nuclei
smarter_nuclei_SM-GE66F_S022_E1-50	2	1	1	4	-2.6055692651290134	2.6604786076858535	smarter_nuclei
smarter_nuclei_SM-GE66F_S030_E1-50	2	1	1	4	-2.8139132459138883	-1.4636289324017873	smarter_nuclei
smarter_nuclei_SM-GE66F_S070_E1-50	2	1	1	4	-3.5169039984869204	1.7777350452628111	smarter_nuclei
smarter_nuclei_SM-GE66G_S129_E1-50	2	1	1	4	-2.870384617848949	2.6754389497241804	smarter_nuclei
smarter_nuclei_SM-GE64U_S130_E1-50	1	3	3	3	6.656766849913072	2.639807652360981	smarter_nuclei
smarter_nuclei_SM-GE64U_S137_E1-50	1	3	3	3	5.09971109780956	4.3402831396956305	smarter_nuclei
smarter_nuclei_SM-GE64G_S025_E1-50	1	3	3	3	5.080559787912673	1.2331362942700057	smarter_nuclei
smarter_nuclei_SM-GE64G_S028_E1-50	1	3	3	3	5.803711985930166	3.5085540871678966	smarter_nuclei
smarter_nuclei_SM-GE64G_S103_E1-50	1	2	2	1	5.743312931153404	-1.2484416974607386	smarter_nuclei
smarter_nuclei_SM-GE64G_S123_E1-50	1	3	3	3	5.7559203254891145	1.7157500378930286	smarter_nuclei
smarter_nuclei_SM-GE64H_S002_E1-50	1	2	2	5	2.7938783693475995	0.4230997677239147	smarter_nuclei
smarter_nuclei_SM-GE64H_S032_E1-50	1	3	3	3	5.731511375675346	3.528963661432895	smarter_nuclei
smarter_nuclei_SM-GE64H_S116_E1-50	1	3	3	3	6.273126250468505	3.828898669665684	smarter_nuclei
smarter_nuclei_SM-GE64H_S139_E1-50	1	3	3	3	5.525807561568841	0.33691957521517296	smarter_nuclei
smarter_nuclei_SM-GE64I_S024_E1-50	1	2	2	5	3.2640627602121794	-0.4415671540866597	smarter_nuclei
smarter_nuclei_SM-GE64J_S171_E1-50	1	2	2	5	2.976567922266134	0.4387530880426157	smarter_nuclei
smarter_nuclei_SM-GE64L_S084_E1-50	1	2	2	5	3.0451973644966506	0.24536116424845883	smarter_nuclei
smarter_nuclei_SM-GE64L_S133_E1-50	1	2	2	1	5.970869266139859	-1.368457365655351	smarter_nuclei
smarter_nuclei_SM-GE64M_S038_E1-50	1	3	3	5	2.3715960015976973	1.8813629034578918	smarter_nuclei
smarter_nuclei_SM-GE64M_S143_E1-50	1	2	2	1	4.554422295734196	-1.1341087573056396	smarter_nuclei
smarter_nuclei_SM-GE64N_S120_E1-50	1	2	2	1	4.123248438242562	-1.3276013919305343	smarter_nuclei
smarter_nuclei_SM-GE648_S005_E1-50	1	2	2	1	4.643266407320514	-0.8355176071201245	smarter_nuclei
smarter_nuclei_SM-GE648_S016_E1-50	1	3	3	3	5.402030052569647	3.8706661813501633	smarter_nuclei
smarter_nuclei_SM-GE64B_S016_E1-50	1	3	3	5	2.3502131882910353	2.0814564465440597	smarter_nuclei
smarter_nuclei_SM-GE64B_S029_E1-50	1	2	2	1	4.918149550508057	-0.9616275138146964	smarter_nuclei
smarter_nuclei_SM-GE64B_S033_E1-50	1	2	2	1	5.909880274976066	-1.8137801229516446	smarter_nuclei
smarter_nuclei_SM-GE64B_S110_E1-50	1	2	2	1	5.299945498317962	-2.250325636950478	smarter_nuclei
smarter_nuclei_SM-GE64E_S010_E1-50	1	2	2	1	4.4584289731795534	-0.9781618794143236	smarter_nuclei
smarter_nuclei_SM-GE64E_S011_E1-50	1	2	2	1	5.6907764689710465	-2.1119262501903053	smarter_nuclei
smarter_nuclei_SM-GE64E_S026_E1-50	1	3	3	3	5.974927051739662	4.367600758775065	smarter_nuclei
smarter_nuclei_SM-GE64E_S032_E1-50	1	3	3	3	5.620521933529086	4.314293168009452	smarter_nuclei
smarter_nuclei_SM-GE64E_S152_E1-50	1	2	2	5	2.5654849712299126	0.6854068150533236	smarter_nuclei
smarter_nuclei_SM-GE64F_S043_E1-50	1	3	3	5	3.304906853801329	2.762488358583198	smarter_nuclei
smarter_nuclei_SM-GE64F_S049_E1-50	1	3	3	5	2.934603580865301	2.489328507618949	smarter_nuclei
smarter_nuclei_SM-GE64F_S053_E1-50	1	2	2	5	3.551507186451143	-0.009251123694197347	smarter_nuclei
smarter_nuclei_SM-GE63Z_S100_E1-50	1	2	2	5	3.1572962221611656	0.20197065212192	smarter_nuclei
smarter_nuclei_SM-GE63Z_S153_E1-50	1	2	2	5	2.794187469540397	0.5816017321835038	smarter_nuclei
smarter_nuclei_SM-GE641_S022_E1-50	1	2	2	1	4.369155264478994	-0.6200851918682717	smarter_nuclei
smarter_nuclei_SM-GE641_S139_E1-50	1	3	3	3	6.2622976252284515	2.507641374962525	smarter_nuclei
smarter_nuclei_SM-GE642_S016_E1-50	1	3	3	3	5.481745980873019	0.827412270369498	smarter_nuclei
smarter_nuclei_SM-GE642_S059_E1-50	1	2	2	5	3.4082508736490382	0.6988803832363095	smarter_nuclei
smarter_nuclei_SM-GE642_S074_E1-50	1	2	2	5	3.9823373277656064	-0.15636444101194588	smarter_nuclei
smarter_nuclei_SM-GE642_S119_E1-50	1	2	2	1	4.853493845194557	-0.9121068241003814	smarter_nuclei
smarter_nuclei_SM-GE642_S131_E1-50	1	2	2	1	6.033246638249787	-1.9393740851037788	smarter_nuclei
smarter_nuclei_SM-GE643_S044_E1-50	1	2	2	1	4.495342570095479	-0.6091818672185805	smarter_nuclei
smarter_nuclei_SM-GE644_S059_E1-50	1	2	2	1	4.34827784448761	-1.979419183176234	smarter_nuclei
smarter_nuclei_SM-GE644_S065_E1-50	1	3	3	3	6.361917187041142	1.8116552558730594	smarter_nuclei
smarter_nuclei_SM-GE644_S072_E1-50	1	3	3	3	5.900097959969715	3.9433603925899425	smarter_nuclei
smarter_nuclei_SM-GE644_S078_E1-50	1	3	3	5	2.1755212159144115	1.8619781942987301	smarter_nuclei
smarter_nuclei_SM-GE644_S153_E1-50	1	3	3	5	3.008998211474953	1.8702079887047054	smarter_nuclei
smarter_nuclei_SM-GE644_S159_E1-50	1	3	3	3	6.220208395610883	2.4874015488455874	smarter_nuclei
smarter_nuclei_SM-GE645_S053_E1-50	1	3	3	3	6.166108105833276	2.8709480040419257	smarter_nuclei
smarter_nuclei_SM-GE645_S056_E1-50	1	3	3	3	5.235281266254279	3.677498864668207	smarter_nuclei
smarter_nuclei_SM-GE645_S123_E1-50	1	3	3	3	5.281363398427549	2.8836564735308885	smarter_nuclei
smarter_nuclei_SM-GE645_S125_E1-50	1	2	2	1	5.078008956324645	-0.6825568777507125	smarter_nuclei
smarter_nuclei_SM-GE645_S138_E1-50	1	2	2	1	3.9647605306921063	-1.2130415496842584	smarter_nuclei
smarter_nuclei_SM-GE645_S140_E1-50	1	2	2	1	5.420950483424478	-0.0785923374627772	smarter_nuclei
smarter_nuclei_SM-GE646_S144_E1-50	1	2	2	1	4.107188905748758	-1.5212551310463722	smarter_nuclei
smarter_nuclei_SM-GE647_S132_E1-50	1	2	2	1	3.8722501834166447	-1.515069907661431	smarter_nuclei
smarter_nuclei_SM-GE647_S141_E1-50	1	3	3	3	5.408512164433881	3.468409616099797	smarter_nuclei
smarter_nuclei_SM-GE66I_S029_E1-50	1	2	2	1	4.2730988427391665	-1.1022960817653369	smarter_nuclei
smarter_nuclei_SM-GE66I_S031_E1-50	1	2	2	1	5.138433817487021	-1.1562602938143607	smarter_nuclei
smarter_nuclei_SM-GE66I_S036_E1-50	1	3	3	5	3.3965864408560695	3.0543750146321176	smarter_nuclei
smarter_nuclei_SM-GE66I_S038_E1-50	1	3	3	3	5.4020622174592665	0.6023347568346102	smarter_nuclei
smarter_nuclei_SM-GE66J_S053_E1-50	2	1	1	5	-0.2907536487930516	2.7012312646672525	smarter_nuclei
smarter_nuclei_SM-GE66L_S068_E1-50	1	3	3	3	6.098498550972409	2.6583833377023476	smarter_nuclei
smarter_nuclei_SM-GE66M_S033_E1-50	1	2	2	5	2.8278297828938412	0.7653270847435997	smarter_nuclei
smarter_nuclei_SM-GE66M_S148_E1-50	1	3	3	3	5.416318834632826	1.0422566618660871	smarter_nuclei
smarter_nuclei_SM-GE66M_S158_E1-50	1	2	2	5	2.6661526207340898	0.8952726891917474	smarter_nuclei
smarter_nuclei_SM-GE66N_S049_E1-50	1	2	2	1	4.9589581200969155	-0.9605307583263232	smarter_nuclei
smarter_nuclei_SM-GE66N_S060_E1-50	1	2	2	1	5.320987401995129	-0.3962563204388685	smarter_nuclei
smarter_nuclei_SM-GE66N_S090_E1-50	1	3	3	3	4.785599418371576	3.767248517240748	smarter_nuclei
smarter_nuclei_SM-GE66N_S165_E1-50	1	2	2	1	5.161270030730008	-0.3183882749125101	smarter_nuclei
smarter_nuclei_SM-GE66O_S057_E1-50	1	3	3	3	5.8399174178781665	4.091706305626511	smarter_nuclei
smarter_nuclei_SM-GE66O_S068_E1-50	2	1	1	5	1.5274376022615541	2.0384927624105864	smarter_nuclei
smarter_nuclei_SM-GE66O_S071_E1-50	1	3	3	3	4.889597438603379	4.048539038822636	smarter_nuclei
smarter_nuclei_SM-GE66O_S078_E1-50	1	3	3	5	3.0753191257983374	2.7007838393585315	smarter_nuclei
smarter_nuclei_SM-GE66O_S192_E1-50	1	3	3	3	5.391989605895138	1.1583500800284137	smarter_nuclei
smarter_nuclei_SM-GE66P_S044_E1-50	1	2	2	1	4.217485054269988	-1.6301997132046588	smarter_nuclei
smarter_nuclei_SM-GE66P_S045_E1-50	1	2	2	5	4.059053528325516	-0.1314068791046027	smarter_nuclei
smarter_nuclei_SM-GE66P_S057_E1-50	1	2	2	5	3.4025050347831542	0.4393701090031375	smarter_nuclei
smarter_nuclei_SM-GE66P_S060_E1-50	1	3	3	3	5.456621992251313	3.710859928228356	smarter_nuclei
smarter_nuclei_SM-GE66P_S063_E1-50	1	3	3	3	5.672867332637385	4.235129857350866	smarter_nuclei
smarter_nuclei_SM-GE66P_S172_E1-50	1	3	3	3	5.537303261637721	0.9452325713480987	smarter_nuclei
smarter_nuclei_SM-GE66A_S033_E1-50	1	2	2	1	4.47782455124771	-0.9396105925214671	smarter_nuclei
smarter_nuclei_SM-GE66A_S036_E1-50	1	3	3	3	5.0540997984867575	4.191096422570906	smarter_nuclei
smarter_nuclei_SM-GE66A_S055_E1-50	1	3	3	3	5.035536231771335	4.05929739276318	smarter_nuclei
smarter_nuclei_SM-GE66A_S059_E1-50	1	2	2	1	4.596679319637078	-1.633272251638006	smarter_nuclei
smarter_nuclei_SM-GE66A_S062_E1-50	1	3	3	3	5.507370317025616	4.393088517352701	smarter_nuclei
smarter_nuclei_SM-GE66A_S072_E1-50	1	2	2	1	4.601506638653707	-1.2722211744479657	smarter_nuclei
smarter_nuclei_SM-GE66A_S107_E1-50	1	3	3	5	2.677816166632776	2.18249280396656	smarter_nuclei
smarter_nuclei_SM-GE66A_S117_E1-50	1	2	2	1	4.090416851608295	-0.8585051898117902	smarter_nuclei
smarter_nuclei_SM-GE66A_S142_E1-50	1	3	3	3	4.64616059040963	4.091856564535875	smarter_nuclei
smarter_nuclei_SM-GE66C_S026_E1-50	1	2	2	1	4.41436572026053	-1.0672510852305959	smarter_nuclei
smarter_nuclei_SM-GE66D_S001_E1-50	1	3	3	3	5.127055582702811	2.078029891335029	smarter_nuclei
smarter_nuclei_SM-GE66D_S009_E1-50	1	2	2	1	4.517079499226949	-1.2509370003142366	smarter_nuclei
smarter_nuclei_SM-GE66D_S016_E1-50	1	3	3	5	3.18425523531456	2.815644445980152	smarter_nuclei
smarter_nuclei_SM-GE66D_S022_E1-50	1	3	3	5	3.2014079012682	2.8243187497791746	smarter_nuclei
smarter_nuclei_SM-GE66D_S100_E1-50	1	3	3	3	6.869333506372817	2.316331037111713	smarter_nuclei
smarter_nuclei_SM-GE64E_S022_E1-50	2	1	4	2	-1.1374720602380919	-2.296363015736178	smarter_nuclei
smarter_nuclei_SM-GE64E_S144_E1-50	2	1	1	6	1.0624661993727047	-0.35137814884563634	smarter_nuclei
smarter_nuclei_SM-GE64E_S164_E1-50	2	1	1	4	-2.994600165038832	0.055154178073147736	smarter_nuclei
smarter_nuclei_SM-GE644_S157_E1-50	2	1	1	4	-3.6199654336268274	0.1694062955680454	smarter_nuclei
smarter_nuclei_SM-GE645_S127_E1-50	2	1	1	6	1.5529112751684784	-0.15610288194502592	smarter_nuclei
smarter_nuclei_SM-GE645_S139_E1-50	2	1	1	4	-3.647132065260431	0.3414529338827344	smarter_nuclei
smarter_nuclei_SM-GE645_S144_E1-50	2	1	1	6	0.924676726009604	-0.07378313685782506	smarter_nuclei
smarter_nuclei_SM-GE646_S028_E1-50	2	1	1	4	-4.19465134198519	0.7031679291916566	smarter_nuclei
smarter_nuclei_SM-GE646_S173_E1-50	2	1	1	4	-2.785365566502124	-0.8645998816234008	smarter_nuclei
smarter_nuclei_SM-GE66I_S041_E1-50	2	1	1	4	-4.044309408535414	0.42237435944460916	smarter_nuclei
smarter_nuclei_SM-GE66L_S094_E1-50	2	1	1	4	-3.3160165087910625	0.3200379460616256	smarter_nuclei
smarter_nuclei_SM-GE66N_S089_E1-50	2	1	1	4	-4.081458965314768	1.2147193339209594	smarter_nuclei
smarter_nuclei_SM-GE66N_S114_E1-50	2	1	1	4	-2.8439443655220096	-0.21048220808490342	smarter_nuclei
smarter_nuclei_SM-GE66B_S042_E1-50	1	2	2	1	4.124735911868327	-1.521759982272493	smarter_nuclei
10x_cells_v2_CACAAACGTCGATTGT-4L8TX_171026_01_F04	2	1	4	2	-0.02601302193479721	-4.104511162259293	10x_cells_v2
10x_cells_v2_CCCATACGTTTAAGCC-9L8TX_171026_01_H03	1	2	4	2	2.0352928799276886	-4.477418938276271	10x_cells_v2
10x_cells_v2_CCAATCCAGTTGTAGA-13L8TX_171026_01_E05	2	1	4	2	-0.34854227774319063	-3.9048565692633974	10x_cells_v2
10x_cells_v2_TGCGCAGAGCCAGTTT-13L8TX_171026_01_E05	2	1	4	2	2.2452427319002	-0.22067713611639223	10x_cells_v2
10x_cells_v2_CTTTGCGAGGTTACCT-15L8TX_171026_01_G05	1	2	4	2	2.532764000322404	-4.92091714011366	10x_cells_v2
10x_cells_v2_CCCTCCTAGTTAGCGG-16L8TX_171026_01_H05	2	1	4	2	0.2310116815468736	-3.9412278397980294	10x_cells_v2
10x_cells_v2_GGACAAGGTAGCGCTC-16L8TX_171026_01_H05	2	1	4	2	0.40374669947405806	-4.08508785928223	10x_cells_v2
10x_cells_v2_CCTATTAGTTGAGTTC-13L8TX_171026_01_E05	2	1	4	2	0.4724076542024329	-3.8433304759549283	10x_cells_v2
10x_cells_v2_CGCTGGAGTGAAGGCT-9L8TX_171026_01_H03	1	2	2	1	2.7603437928125723	-2.6129646644314732	10x_cells_v2
10x_cells_v2_GCGCGATGTACGAAAT-8L8TX_171026_01_A05	2	1	4	2	0.06901054467749895	-3.5319362334350317	10x_cells_v2
10x_cells_v2_TAAGAGACATCCGCGA-10L8TX_171026_01_A04	2	1	4	2	1.1393213689647523	-4.113010731145179	10x_cells_v2
10x_cells_v2_AATCGGTCATCCGTGG-1L8TX_171026_01_F03	2	1	4	2	-1.6968961186518867	-2.5914816143411215	10x_cells_v2
10x_cells_v2_ACGGCCAAGGCAAAGA-1L8TX_171026_01_F03	2	1	1	6	-0.7936891301799404	-0.1157000077168057	10x_cells_v2
10x_cells_v2_AGAGTGGGTGTGACGA-1L8TX_171026_01_F03	2	1	4	2	-0.29223778555463353	-2.2717824401457127	10x_cells_v2
10x_cells_v2_AGGCCACGTCAAACTC-1L8TX_171026_01_F03	2	1	1	5	0.4344980575531474	2.089428496413645	10x_cells_v2
10x_cells_v2_CGACTTCTCATCACCC-1L8TX_171026_01_F03	2	1	1	4	-3.0171181154025883	0.6944362508877818	10x_cells_v2
10x_cells_v2_CTGTGCTTCGGAAATA-1L8TX_171026_01_F03	2	1	1	4	-3.7065059798033193	0.21368686540625897	10x_cells_v2
10x_cells_v2_GAACATCAGGTGACCA-1L8TX_171026_01_F03	2	1	1	4	-2.0568131211351695	0.9820230176468657	10x_cells_v2
10x_cells_v2_GCACTCTAGCAAATCA-1L8TX_171026_01_F03	2	1	4	2	2.1757529943972975	-1.4315988668821262	10x_cells_v2
10x_cells_v2_GTACGTACATCGACGC-1L8TX_171026_01_F03	2	1	4	2	-1.2739529901148816	-2.8258366631225007	10x_cells_v2
10x_cells_v2_TACTCATTCGGAAATA-1L8TX_171026_01_F03	2	1	4	2	-0.11710673182451571	-1.5741373295919128	10x_cells_v2
10x_cells_v2_TGCGGGTAGGCCCTTG-1L8TX_171026_01_F03	2	1	1	4	-4.063730376975059	1.2389102261206162	10x_cells_v2
10x_cells_v2_TGTTCCGAGTGCCAGA-1L8TX_171026_01_F03	2	1	4	2	0.4695960028644488	-0.646320685557437	10x_cells_v2
10x_cells_v2_TTCCCAGAGGGCTCTC-1L8TX_171026_01_F03	2	1	1	4	-2.006530465457555	-0.9771046378222566	10x_cells_v2
10x_cells_v2_TTGAACGCACGGCCAT-1L8TX_171026_01_F03	2	1	1	4	-2.108121296636597	1.1868259304589608	10x_cells_v2
10x_cells_v2_AAAGCAATCGATCCCT-2L8TX_171026_01_G03	2	1	4	6	0.19943657399988382	-1.2644310599873205	10x_cells_v2
10x_cells_v2_ACCCACTCATCCGTGG-2L8TX_171026_01_G03	2	1	4	2	0.3950292848427587	-1.4479306259867328	10x_cells_v2
10x_cells_v2_ACGCCAGAGTATTGGA-2L8TX_171026_01_G03	2	1	4	2	0.6166218566210139	-1.5532535482939762	10x_cells_v2
10x_cells_v2_AGGTCCGAGTTAGCGG-2L8TX_171026_01_G03	2	1	4	2	1.6976088464628951	0.7146926628957445	10x_cells_v2
10x_cells_v2_CAGCTAAGTGCGCTTG-2L8TX_171026_01_G03	2	1	1	4	-2.034281875536971	3.1245235800718762	10x_cells_v2
10x_cells_v2_CATATTCAGCACAGGT-2L8TX_171026_01_G03	2	1	4	2	1.334822146909663	-1.0271350772864736	10x_cells_v2
10x_cells_v2_CCTTACGTCATCGGAT-2L8TX_171026_01_G03	2	1	4	2	0.4176025124941516	-2.22670289360305	10x_cells_v2
10x_cells_v2_CTCTACGGTGCACGAA-2L8TX_171026_01_G03	2	1	1	6	-0.2145959905129208	0.5412929853795632	10x_cells_v2
10x_cells_v2_GACACGCGTGTAACGG-2L8TX_171026_01_G03	2	1	4	2	0.9678305587350551	-1.2800292915190834	10x_cells_v2
10x_cells_v2_GGACGTCAGTGGGTTG-2L8TX_171026_01_G03	2	1	4	2	1.4945743281979404	-1.0072364053440543	10x_cells_v2
10x_cells_v2_GGCAATTTCGGAAACG-2L8TX_171026_01_G03	2	1	1	5	1.2833943228979678	1.3043798613914748	10x_cells_v2
10x_cells_v2_GTACTTTCAACGATGG-2L8TX_171026_01_G03	2	1	4	2	0.210350296168064	-1.8611127036203257	10x_cells_v2
10x_cells_v2_TCAGCTCAGGGTGTGT-2L8TX_171026_01_G03	2	1	1	6	1.2840577318382058	0.2971199306029573	10x_cells_v2
10x_cells_v2_TGGCTGGGTATGAATG-2L8TX_171026_01_G03	2	1	4	2	0.9698481683849418	-1.0672761835813087	10x_cells_v2
10x_cells_v2_AAAGTAGGTCTCACCT-3L8TX_171026_01_B04	2	1	1	4	-3.9438664493826225	0.53166875919919	10x_cells_v2
10x_cells_v2_ACCGTAACACGACGAA-3L8TX_171026_01_B04	2	1	4	2	0.2977528283895488	-2.9555943103358677	10x_cells_v2
10x_cells_v2_ACGCCAGGTGCTCTTC-3L8TX_171026_01_B04	2	1	4	2	1.0831380028259228	-1.2099113729606825	10x_cells_v2
10x_cells_v2_AGCTCTCCATACTACG-3L8TX_171026_01_B04	2	1	1	4	-4.377351971473235	0.39404663901968456	10x_cells_v2
10x_cells_v2_AGTTGGTAGTGCAAGC-3L8TX_171026_01_B04	2	1	4	2	-0.19866798011871875	-3.5584247231276915	10x_cells_v2
10x_cells_v2_CAAGATCCAGAGCCAA-3L8TX_171026_01_B04	2	1	4	2	-1.3850056742105425	-2.9021393046130526	10x_cells_v2
10x_cells_v2_CACTCCAGTTCTCATT-3L8TX_171026_01_B04	2	1	1	6	0.17658416224169213	0.3604397633176374	10x_cells_v2
10x_cells_v2_CAGCCGAGTGTTTGGT-3L8TX_171026_01_B04	2	1	4	2	1.7146360109392633	-0.6894664510309145	10x_cells_v2
10x_cells_v2_CCCAGTTCAAGTCTGT-3L8TX_171026_01_B04	2	1	4	2	0.3335736128966656	-0.9481381015766381	10x_cells_v2
10x_cells_v2_CGATTGAGTCGCCATG-3L8TX_171026_01_B04	2	1	4	2	1.9107233504498273	-1.3292459123816287	10x_cells_v2
10x_cells_v2_CGGGTCAGTAACGTTC-3L8TX_171026_01_B04	2	1	1	5	-1.6218086061204993	1.8797433211148102	10x_cells_v2
10x_cells_v2_CTAATGGAGTACGACG-3L8TX_171026_01_B04	2	1	4	2	-0.4575316708085337	-1.6993264606805558	10x_cells_v2
10x_cells_v2_CTGATCCAGTATGACA-3L8TX_171026_01_B04	2	1	1	6	-0.7744360401532135	0.7605577955960028	10x_cells_v2
10x_cells_v2_GATTCAGAGTAGATGT-3L8TX_171026_01_B04	2	1	1	4	-2.5070979182999777	0.518133869015365	10x_cells_v2
10x_cells_v2_GCAGTTATCCGCTGTT-3L8TX_171026_01_B04	2	1	1	6	-0.0700124560662262	0.47055164016822393	10x_cells_v2
10x_cells_v2_GCTGCGATCCACGCAG-3L8TX_171026_01_B04	2	1	1	6	-1.7889071830398882	1.0919536157101328	10x_cells_v2
10x_cells_v2_GGCTGGTCACTTAACG-3L8TX_171026_01_B04	2	1	4	2	1.0819262025356462	-1.2583796352594054	10x_cells_v2
10x_cells_v2_GTGCATAGTCTGCCAG-3L8TX_171026_01_B04	2	1	1	6	-0.2842992106908567	0.2617106185843598	10x_cells_v2
10x_cells_v2_TAAGAGATCTTACCTA-3L8TX_171026_01_B04	1	1	1	6	2.064558742040989	0.5919337623093693	10x_cells_v2
10x_cells_v2_TGACAACCAGTAAGCG-3L8TX_171026_01_B04	2	1	1	4	-4.340325297983549	0.6421830011335418	10x_cells_v2
10x_cells_v2_AAAGCAACACGTCAGC-4L8TX_171026_01_F04	2	1	4	2	2.5556384328359973	-0.08653844805639013	10x_cells_v2
10x_cells_v2_ACGCCGACAAACTGCT-4L8TX_171026_01_F04	2	1	4	2	0.2476605874019413	-3.4388556772766066	10x_cells_v2
10x_cells_v2_CATCCACAGCTAGTTC-4L8TX_171026_01_F04	2	1	1	5	0.6163891936330177	2.4253958538871148	10x_cells_v2
10x_cells_v2_CCCAATCCACCACGTG-4L8TX_171026_01_F04	2	1	1	5	1.0719878956238749	0.828320469789491	10x_cells_v2
10x_cells_v2_GCATGATAGTGATCGG-4L8TX_171026_01_F04	2	1	4	2	0.8138639225562201	-0.98627123936229	10x_cells_v2
10x_cells_v2_GCGGGTTCACATCTTT-4L8TX_171026_01_F04	2	1	1	4	-4.0286600013622555	-0.12330017536657308	10x_cells_v2
10x_cells_v2_GGGAGATCACCAGCAC-4L8TX_171026_01_F04	2	1	1	5	-1.755992912981036	2.9254559446077106	10x_cells_v2
10x_cells_v2_GTCACAACATCGGAAG-4L8TX_171026_01_F04	2	1	1	5	1.3443534941403397	2.2123872035348016	10x_cells_v2
10x_cells_v2_TAAACCGCAATCGGTT-4L8TX_171026_01_F04	2	1	4	4	-0.3320877886381497	-0.36421501315882127	10x_cells_v2
10x_cells_v2_TACCTATAGCTGATAA-4L8TX_171026_01_F04	2	1	1	6	0.39593122761194527	0.06700049392647926	10x_cells_v2
10x_cells_v2_TCTCTAAAGAAACGAG-4L8TX_171026_01_F04	2	1	4	2	1.7814076408687527	-1.283880183250901	10x_cells_v2
10x_cells_v2_TGGCTGGTCAGTCCCT-4L8TX_171026_01_F04	2	1	4	2	-0.31161358572118397	-3.963311694120026	10x_cells_v2
10x_cells_v2_ACCCACTAGCTCAACT-5L8TX_171026_01_G04	2	1	1	6	-1.8797545021731834	0.3255412892994634	10x_cells_v2
10x_cells_v2_ACGGCCACACAAGTAA-5L8TX_171026_01_G04	2	1	1	5	-0.5072926288427102	1.6713621763647366	10x_cells_v2
10x_cells_v2_AGAGCTTCAGTTCATG-5L8TX_171026_01_G04	2	1	1	5	-1.5656224573812412	1.3183640740096192	10x_cells_v2
10x_cells_v2_CAGATCAAGAGCTGGT-5L8TX_171026_01_G04	2	1	1	4	-3.6218708771442563	1.951512370400824	10x_cells_v2
10x_cells_v2_GGCTGGTTCAAAGACA-5L8TX_171026_01_G04	2	1	1	5	0.8677338282866074	2.1428203789850873	10x_cells_v2
10x_cells_v2_GTCAAGTAGACCTTTG-5L8TX_171026_01_G04	2	1	4	2	-0.06860371127729953	-3.6391159942850417	10x_cells_v2
10x_cells_v2_AAGTCTGCATCCTTGC-6L8TX_171026_01_B05	2	1	1	5	-1.2689380476387468	2.984603755714086	10x_cells_v2
10x_cells_v2_ATGAGGGAGCGTTGCC-6L8TX_171026_01_B05	2	1	1	5	-0.563109031188445	2.099312087249948	10x_cells_v2
10x_cells_v2_CAAGAAATCTCCAGGG-6L8TX_171026_01_B05	2	1	1	5	0.14555610010774542	2.6178419666177986	10x_cells_v2
10x_cells_v2_CCTTACGAGCACAGGT-6L8TX_171026_01_B05	2	1	1	6	-1.0193624889906094	0.3476680277744875	10x_cells_v2
10x_cells_v2_CGAATGTCAAGCGAGT-6L8TX_171026_01_B05	2	1	1	5	-1.8229163560837522	2.696480656977881	10x_cells_v2
10x_cells_v2_CGAGAAGGTAGAAGGA-6L8TX_171026_01_B05	2	1	1	5	1.36665551653825	1.9769452546698216	10x_cells_v2
10x_cells_v2_CTCGTCATCACAGTAC-6L8TX_171026_01_B05	2	1	1	5	-1.1688977284489364	2.5759394485067064	10x_cells_v2
10x_cells_v2_GACGTGCAGGCTACGA-6L8TX_171026_01_B05	2	1	1	5	-1.3958434319940292	2.2623250042598233	10x_cells_v2
10x_cells_v2_ACTATCTCAAAGCAAT-7L8TX_171026_01_H04	2	1	1	5	-0.8670947740198195	3.037189129348891	10x_cells_v2
10x_cells_v2_ACTGTCCGTAGGGACT-7L8TX_171026_01_H04	2	1	1	4	-2.7927464031501117	2.792930104178272	10x_cells_v2
10x_cells_v2_ATAACGCGTAGATTAG-7L8TX_171026_01_H04	2	1	4	2	1.1763159981881808	-1.3887296437082868	10x_cells_v2
10x_cells_v2_CTGCTGTGTTACCGAT-7L8TX_171026_01_H04	2	1	4	2	-0.8100794240091909	-3.5888363547743647	10x_cells_v2
10x_cells_v2_GATCGCGAGTTCGCAT-7L8TX_171026_01_H04	2	1	4	2	-1.019244815064345	-3.249290431912364	10x_cells_v2
10x_cells_v2_GTTAAGCCACCAGCAC-7L8TX_171026_01_H04	2	1	1	5	1.3375317088986716	2.031900282264461	10x_cells_v2
10x_cells_v2_TTAGTTCCATCAGTAC-7L8TX_171026_01_H04	2	1	1	4	-3.6266794497815047	1.3788500483779114	10x_cells_v2
10x_cells_v2_TTGCCGTGTGGTGTAG-7L8TX_171026_01_H04	2	1	4	2	-0.6944334882748366	-3.4488275389139793	10x_cells_v2
10x_cells_v2_AATCGGTTCTACCTGC-8L8TX_171026_01_A05	2	1	4	2	-1.5895673961041195	-1.736729028213308	10x_cells_v2
10x_cells_v2_CAAGATCCAAGTCATC-8L8TX_171026_01_A05	2	1	1	5	-0.7757981752491699	1.490769474360362	10x_cells_v2
10x_cells_v2_CACCACTCATATACCG-8L8TX_171026_01_A05	2	1	4	2	-0.1866490842378234	-2.2135729773431945	10x_cells_v2
10x_cells_v2_CCTTACGAGTGACTCT-8L8TX_171026_01_A05	2	1	4	2	-0.9782462734096289	-1.4871428492418197	10x_cells_v2
10x_cells_v2_CGAGCCATCCCTAACC-8L8TX_171026_01_A05	2	1	1	6	0.846316383827885	0.26092395305580945	10x_cells_v2
10x_cells_v2_CTCGGAGTCAAGAAGT-8L8TX_171026_01_A05	2	1	1	5	-0.5613000846859553	1.1553411944059009	10x_cells_v2
10x_cells_v2_CTCTACGCAGACACTT-8L8TX_171026_01_A05	2	1	1	6	-1.2349744683464259	0.08742001691863154	10x_cells_v2
10x_cells_v2_CTGATAGCAGATGGCA-8L8TX_171026_01_A05	2	1	1	4	-2.211215483335837	2.3325338372815216	10x_cells_v2
10x_cells_v2_CTGATAGGTAATAGCA-8L8TX_171026_01_A05	2	1	1	6	-0.7087609488078807	0.8676404559946772	10x_cells_v2
10x_cells_v2_CTGTTTAAGGAATGGA-8L8TX_171026_01_A05	2	1	1	4	-3.8751707639046797	1.4170570837808747	10x_cells_v2
10x_cells_v2_GGAACTTCAACTGCGC-8L8TX_171026_01_A05	2	1	1	5	-1.1597114020617751	1.174496280848064	10x_cells_v2
10x_cells_v2_GGCGACTTCGCTAGCG-8L8TX_171026_01_A05	2	1	1	5	0.38911776142777627	2.544290838818964	10x_cells_v2
10x_cells_v2_GGGCATCTCACGAAGG-8L8TX_171026_01_A05	2	1	1	4	-3.0506768437627447	2.6728962448947335	10x_cells_v2
10x_cells_v2_TACGGGCGTGAGTATA-8L8TX_171026_01_A05	2	1	1	5	-1.4726337100333393	2.1451378481742402	10x_cells_v2
10x_cells_v2_TACTTACTCACGACTA-8L8TX_171026_01_A05	2	1	1	5	-0.4785128397903777	3.01026175072141	10x_cells_v2
10x_cells_v2_TAGTGGTGTATCACCA-8L8TX_171026_01_A05	2	1	1	4	-2.9791813684272097	1.7291600027823275	10x_cells_v2
10x_cells_v2_TCACGAAAGGGTCGAT-8L8TX_171026_01_A05	2	1	1	5	-0.48718011260391686	3.089935913284518	10x_cells_v2
10x_cells_v2_TGGCCAGGTTCCATGA-8L8TX_171026_01_A05	2	1	1	5	0.8569430000467776	2.3911581031825935	10x_cells_v2
10x_cells_v2_AGACGTTCACCTATCC-9L8TX_171026_01_H03	2	1	4	2	0.3145897799380384	-2.9210146822618404	10x_cells_v2
10x_cells_v2_CTGAAGTTCTGCGGCA-9L8TX_171026_01_H03	2	1	1	4	-1.579654759747675	0.5611337600256754	10x_cells_v2
10x_cells_v2_GCATGATAGCAGGTCA-9L8TX_171026_01_H03	2	1	1	4	-2.6259039782477385	0.9341848009857469	10x_cells_v2
10x_cells_v2_TACTCATGTCAGAAGC-9L8TX_171026_01_H03	2	1	4	2	0.4185770765926965	-1.558203899256471	10x_cells_v2
10x_cells_v2_TAGGCATCATAAGACA-9L8TX_171026_01_H03	2	1	4	2	2.0149611993058913	-1.5716499864880173	10x_cells_v2
10x_cells_v2_TATCAGGTCGTCGTTC-9L8TX_171026_01_H03	2	1	4	2	0.32625471870878087	-3.6851973201430783	10x_cells_v2
10x_cells_v2_AGACGTTAGGTCGGAT-10L8TX_171026_01_A04	2	1	1	6	-0.38898062930391464	1.056376810087059	10x_cells_v2
10x_cells_v2_AGGCCGTGTCCATCCT-10L8TX_171026_01_A04	2	1	1	6	-0.3878901357941475	0.6710614190333005	10x_cells_v2
10x_cells_v2_CACATAGGTAAAGTCA-10L8TX_171026_01_A04	2	1	1	6	-0.6197587827989047	0.5670836638921692	10x_cells_v2
10x_cells_v2_CATCCACGTCTTCTCG-10L8TX_171026_01_A04	2	1	1	6	0.12984512762453068	0.619458830784555	10x_cells_v2
10x_cells_v2_CGAATGTAGCGTTCCG-10L8TX_171026_01_A04	2	1	1	4	-1.9926399839898694	0.9470174870091946	10x_cells_v2
10x_cells_v2_CGAGAAGTCTATGTGG-10L8TX_171026_01_A04	2	1	4	2	1.102388100974126	-1.049553958975022	10x_cells_v2
10x_cells_v2_CGTGTCTCAAACGCGA-10L8TX_171026_01_A04	2	1	1	4	-2.704930479828854	1.4706908354023194	10x_cells_v2
10x_cells_v2_CGTGTCTGTGAGCGAT-10L8TX_171026_01_A04	2	1	1	4	-2.8438881300156393	1.1871867162428313	10x_cells_v2
10x_cells_v2_GCATGATAGACTAAGT-10L8TX_171026_01_A04	2	1	1	4	-2.6056914792254657	2.3928404708611724	10x_cells_v2
10x_cells_v2_GCTGCGAAGTGGAGTC-10L8TX_171026_01_A04	2	1	4	2	2.372788485906548	0.4842992892981058	10x_cells_v2
10x_cells_v2_GGATGTTAGCGATAGC-10L8TX_171026_01_A04	2	1	1	6	-1.1038765804859918	0.4930090337172373	10x_cells_v2
10x_cells_v2_GTTAAGCCAAGAAAGG-10L8TX_171026_01_A04	2	1	1	5	0.26438779386943256	1.1569598135853731	10x_cells_v2
10x_cells_v2_TGCTGCTCAGACTCGC-10L8TX_171026_01_A04	2	1	1	5	0.8529167701390582	1.1773826266730056	10x_cells_v2
10x_cells_v2_TGGTTAGTCAGCGATT-10L8TX_171026_01_A04	2	1	4	5	1.443711883416722	0.6826590185459614	10x_cells_v2
10x_cells_v2_AACGTTGAGAGGTAGA-11L8TX_171026_01_C05	1	2	2	5	2.433291049232346	-0.2771275442045349	10x_cells_v2
10x_cells_v2_AAGGTTCCAAGCTGTT-11L8TX_171026_01_C05	2	1	4	2	1.3235370487120512	-1.7351688107260987	10x_cells_v2
10x_cells_v2_AGCGTATCAGTAACGG-11L8TX_171026_01_C05	2	1	1	6	0.30208089684091716	0.4120956237352623	10x_cells_v2
10x_cells_v2_AGCTCCTGTGCGAAAC-11L8TX_171026_01_C05	2	1	1	6	-0.7864367444132123	-0.3998558776820673	10x_cells_v2
10x_cells_v2_CACCAGGAGTGTGGCA-11L8TX_171026_01_C05	2	1	1	4	-3.386676153912889	-0.8327696625991634	10x_cells_v2
10x_cells_v2_CCAGCGATCTCAAACG-11L8TX_171026_01_C05	2	1	4	2	1.3246504058249	-1.7411866772778384	10x_cells_v2
10x_cells_v2_CGCTGGAGTTCCACAA-11L8TX_171026_01_C05	2	1	4	2	0.45512331384774235	-3.685302374243325	10x_cells_v2
10x_cells_v2_GAACGGACATCGTCGG-11L8TX_171026_01_C05	2	1	1	6	0.5828619715947683	-0.14606698626054562	10x_cells_v2
10x_cells_v2_GACGTTATCCGTAGGC-11L8TX_171026_01_C05	2	1	1	2	-1.7002343506293478	-1.3426443992864696	10x_cells_v2
10x_cells_v2_GATCAGTAGGTTACCT-11L8TX_171026_01_C05	2	1	4	2	-0.4746621471086292	-3.5304513137179203	10x_cells_v2
10x_cells_v2_GATGAAAAGTGCCAGA-11L8TX_171026_01_C05	2	1	4	2	-1.6277446710908008	-2.7718834121642066	10x_cells_v2
10x_cells_v2_GCGCAGTAGCAGGTCA-11L8TX_171026_01_C05	2	1	1	6	-0.0308391951179194	0.29692700559084084	10x_cells_v2
10x_cells_v2_GGCCGATCATATGCTG-11L8TX_171026_01_C05	2	1	4	2	-0.11451343447594126	-3.335230514831241	10x_cells_v2
10x_cells_v2_GGCCGATGTTGGTGGA-11L8TX_171026_01_C05	2	1	4	2	-0.9022253473407394	-2.721517112772832	10x_cells_v2
10x_cells_v2_GTCATTTAGTGTGGCA-11L8TX_171026_01_C05	2	1	4	2	-0.6113169212165325	-2.6527905493829826	10x_cells_v2
10x_cells_v2_GTCCTCAAGGGCACTA-11L8TX_171026_01_C05	2	1	1	6	-1.8028070352876444	-0.23949005013623534	10x_cells_v2
10x_cells_v2_TGAGAGGGTGTTTGTG-11L8TX_171026_01_C05	2	1	1	6	-1.6698010473530895	-0.23635451458970258	10x_cells_v2
10x_cells_v2_TTAGGACCACCATGTA-11L8TX_171026_01_C05	2	1	1	6	0.21515587185376744	0.5262218985057463	10x_cells_v2
10x_cells_v2_TTGGCAAAGCTCCTTC-11L8TX_171026_01_C05	2	1	4	2	-0.11871091238302152	-3.200355960621776	10x_cells_v2
10x_cells_v2_TTTCCTCCATGCTGGC-11L8TX_171026_01_C05	2	1	4	2	1.0346022523267748	-1.671541467948829	10x_cells_v2
10x_cells_v2_AACTCAGAGCGGATCA-12L8TX_171026_01_D05	2	1	1	5	-0.41840084652217385	2.9933574099370563	10x_cells_v2
10x_cells_v2_AACTGGTGTACAGACG-12L8TX_171026_01_D05	2	1	1	6	-1.3078612569600283	-0.5934149338563531	10x_cells_v2
10x_cells_v2_ACTGATGAGACTCGGA-12L8TX_171026_01_D05	2	1	4	2	0.13867103408979675	-4.045780106165437	10x_cells_v2
10x_cells_v2_AGGCCGTGTACGACCC-12L8TX_171026_01_D05	2	1	1	6	0.8778370362085774	0.28805554622724244	10x_cells_v2
10x_cells_v2_CCTCTGATCTCTGCTG-12L8TX_171026_01_D05	2	1	4	2	-0.2934688086291596	-3.2041674846236163	10x_cells_v2
10x_cells_v2_CGCGGTATCATCTGCC-12L8TX_171026_01_D05	2	1	1	6	-1.572441739629389	0.2921629157642809	10x_cells_v2
10x_cells_v2_CGGACTGGTTGTCTTT-12L8TX_171026_01_D05	2	1	4	2	-1.0925186061754797	-2.2950285253883185	10x_cells_v2
10x_cells_v2_CGTCCATAGCATGGCA-12L8TX_171026_01_D05	2	1	1	4	-4.100087026652529	-0.059810440850720105	10x_cells_v2
10x_cells_v2_CGTGTAATCTTACCTA-12L8TX_171026_01_D05	2	1	4	2	-0.5369197666139642	-2.6210976790602256	10x_cells_v2
10x_cells_v2_CTACATTTCCCAGGTG-12L8TX_171026_01_D05	2	1	4	2	-0.9989408062190672	-2.217439284953662	10x_cells_v2
10x_cells_v2_CTCAGAAAGACGCAAC-12L8TX_171026_01_D05	2	1	4	2	-0.7866673726641832	-2.0868067562665282	10x_cells_v2
10x_cells_v2_CTGGTCTCATGGTCTA-12L8TX_171026_01_D05	2	1	4	2	1.5100901348710047	-1.7926898232747799	10x_cells_v2
10x_cells_v2_CTTTGCGTCTTGCATT-12L8TX_171026_01_D05	2	1	1	6	-0.44856747918671835	-0.357410155029567	10x_cells_v2
10x_cells_v2_GCTTCCACAAGAAAGG-12L8TX_171026_01_D05	2	1	1	6	-0.22056141177752384	-0.11385480099248484	10x_cells_v2
10x_cells_v2_GGTGAAGCATAGGATA-12L8TX_171026_01_D05	2	1	4	2	-0.6442289183852994	-3.4830923100823354	10x_cells_v2
10x_cells_v2_GTATTCTCAAGAGGCT-12L8TX_171026_01_D05	2	1	4	2	-0.45794080001036824	-3.532618502459754	10x_cells_v2
10x_cells_v2_TGAGGGAAGACACGAC-12L8TX_171026_01_D05	2	1	1	4	-2.6402608174475573	0.2511650385516809	10x_cells_v2
10x_cells_v2_TGGACGCAGGCCGAAT-12L8TX_171026_01_D05	2	1	1	4	-4.320314060238272	0.2961896019675229	10x_cells_v2
10x_cells_v2_TTAGGCACAACACCCG-12L8TX_171026_01_D05	2	1	4	2	0.7709305518856431	-4.024628810620578	10x_cells_v2
10x_cells_v2_AAGTCTGGTTTACTCT-13L8TX_171026_01_E05	2	1	1	5	-1.1605568179631176	2.2109122637758802	10x_cells_v2
10x_cells_v2_ACACCAAAGGCGACAT-13L8TX_171026_01_E05	2	1	1	6	0.6705268935265144	0.18511621217430388	10x_cells_v2
10x_cells_v2_ACACCAAGTCGCCATG-13L8TX_171026_01_E05	2	1	1	6	0.3420524780443641	0.6958252865361644	10x_cells_v2
10x_cells_v2_ACACCAAGTGTTTGGT-13L8TX_171026_01_E05	2	1	1	4	-2.277686515031426	0.33402286980614837	10x_cells_v2
10x_cells_v2_ACCGTAAGTTAAGACA-13L8TX_171026_01_E05	2	1	1	4	-2.814892789321138	0.49071499336775537	10x_cells_v2
10x_cells_v2_ACCTTTAGTCTCAACA-13L8TX_171026_01_E05	2	1	1	4	-4.109492802596985	0.845184147682492	10x_cells_v2
10x_cells_v2_ACGCCAGTCCAAGCCG-13L8TX_171026_01_E05	2	1	1	6	0.13642642173916047	0.043135102809415474	10x_cells_v2
10x_cells_v2_AGAGCTTAGGTACTCT-13L8TX_171026_01_E05	2	1	1	6	-1.4329035062017528	0.2829646039964784	10x_cells_v2
10x_cells_v2_AGAGCTTTCTTAGCCC-13L8TX_171026_01_E05	2	1	1	4	-1.8175048623511485	2.4928290786462552	10x_cells_v2
10x_cells_v2_AGCAGCCGTACAGACG-13L8TX_171026_01_E05	2	1	1	6	1.582151855197027	0.18866281818158556	10x_cells_v2
10x_cells_v2_AGGCCGTGTGGCCCTA-13L8TX_171026_01_E05	2	1	1	6	-2.4441440126363134	0.14079165919887024	10x_cells_v2
10x_cells_v2_AGTGTCACACGTGAGA-13L8TX_171026_01_E05	2	1	1	4	-2.6440318812049295	0.11418811478097017	10x_cells_v2
10x_cells_v2_ATGAGGGTCCACTGGG-13L8TX_171026_01_E05	2	1	1	6	1.6216196952855162	0.19676330123311508	10x_cells_v2
10x_cells_v2_CACCACTAGCGATCCC-13L8TX_171026_01_E05	2	1	1	6	-0.2839695407801773	0.7724326589913133	10x_cells_v2
10x_cells_v2_CAGAGAGCAGCGTAAG-13L8TX_171026_01_E05	2	1	1	6	0.3865483635868746	0.27397992893362444	10x_cells_v2
10x_cells_v2_CAGGTGCTCCGTACAA-13L8TX_171026_01_E05	2	1	4	2	-1.098853421780957	-2.3482444678097423	10x_cells_v2
10x_cells_v2_CATATTCCACCGAAAG-13L8TX_171026_01_E05	2	1	1	6	-0.1434662083506302	0.6000960268839323	10x_cells_v2
10x_cells_v2_CATCAGAGTACCGAGA-13L8TX_171026_01_E05	2	1	1	6	1.8082673013470731	-0.13161726078783806	10x_cells_v2
10x_cells_v2_CATCGAACATGCCTAA-13L8TX_171026_01_E05	2	1	1	6	0.8215629241388425	0.4933720393244374	10x_cells_v2
10x_cells_v2_CCACCTATCACTTACT-13L8TX_171026_01_E05	2	1	4	2	-0.24063930099390457	-2.5258478409626135	10x_cells_v2
10x_cells_v2_CGGTTAAAGCTAGGCA-13L8TX_171026_01_E05	2	1	4	2	-0.19925103526995167	-3.439919914377967	10x_cells_v2
10x_cells_v2_CGTGTCTCAATGTAAG-13L8TX_171026_01_E05	2	1	4	2	0.7643027478030524	-2.5798215324973524	10x_cells_v2
10x_cells_v2_CTAACTTCAGACAGGT-13L8TX_171026_01_E05	2	1	1	4	-4.142975491117756	0.5984530552628747	10x_cells_v2
10x_cells_v2_CTCGGAGGTATGGTTC-13L8TX_171026_01_E05	2	1	1	6	-1.5685242927267389	-0.6884346086018038	10x_cells_v2
10x_cells_v2_CTCGGGATCAAGAAGT-13L8TX_171026_01_E05	2	1	4	2	-1.2809719688222914	-2.0693706532028786	10x_cells_v2
10x_cells_v2_CTCTACGCAATCAGAA-13L8TX_171026_01_E05	2	1	4	6	0.4759392095996687	-0.40036953393311037	10x_cells_v2
10x_cells_v2_CTGATCCGTGGCAAAC-13L8TX_171026_01_E05	2	1	4	2	-0.2684792815095178	-3.863991788936122	10x_cells_v2
10x_cells_v2_CTTAGGAAGAACAACT-13L8TX_171026_01_E05	2	1	4	2	0.289769805152737	-3.6732966653255743	10x_cells_v2
10x_cells_v2_GAACATCGTTCATGGT-13L8TX_171026_01_E05	2	1	4	2	-1.8798269558424077	-2.303989967160456	10x_cells_v2
10x_cells_v2_GAAGCAGTCCACGACG-13L8TX_171026_01_E05	2	1	4	2	2.1157350427677506	0.44295850358568195	10x_cells_v2
10x_cells_v2_GCACTCTGTCCAAGTT-13L8TX_171026_01_E05	2	1	4	2	-2.051760618205792	-2.0209623612344125	10x_cells_v2
10x_cells_v2_GCATGTAAGCATGGCA-13L8TX_171026_01_E05	2	1	4	2	-0.41942170788190297	-3.2424273954802443	10x_cells_v2
10x_cells_v2_GCATGTATCTATCGCC-13L8TX_171026_01_E05	2	1	1	4	-4.359962691378384	0.8415899330496445	10x_cells_v2
10x_cells_v2_GCTTGAATCAGCGACC-13L8TX_171026_01_E05	2	1	4	2	0.1073921394989215	-2.270299016823596	10x_cells_v2
10x_cells_v2_GTCATTTCAAGCGCTC-13L8TX_171026_01_E05	2	1	1	4	-3.9678670493494446	0.8441394620140136	10x_cells_v2
10x_cells_v2_GTCGGGTTCATGTGGT-13L8TX_171026_01_E05	2	1	1	6	-1.4565426398091652	-0.14413731483659775	10x_cells_v2
10x_cells_v2_GTTCGGGGTTCAGTAC-13L8TX_171026_01_E05	2	1	1	4	-4.217022544087617	0.20125926397987592	10x_cells_v2
10x_cells_v2_TAAACCGCATCCTAGA-13L8TX_171026_01_E05	2	1	1	6	-1.5183911830685157	0.3871229356457349	10x_cells_v2
10x_cells_v2_TACACGAGTACGCTGC-13L8TX_171026_01_E05	2	1	4	2	1.4029143575535503	-1.5324532594028792	10x_cells_v2
10x_cells_v2_TACTCGCCAGACAAGC-13L8TX_171026_01_E05	2	1	4	2	1.3621112623883722	-1.3904509320532443	10x_cells_v2
10x_cells_v2_TGCCAAATCAGCTCGG-13L8TX_171026_01_E05	2	1	1	6	-0.15174895611821343	0.7951429238739922	10x_cells_v2
10x_cells_v2_TGCTACCGTCGGCATC-13L8TX_171026_01_E05	2	1	1	4	-3.010708671584867	-1.5710928258679087	10x_cells_v2
10x_cells_v2_TGGACGCTCCATGAAC-13L8TX_171026_01_E05	2	1	1	4	-3.7204385655311953	2.047331439251093	10x_cells_v2
10x_cells_v2_TGGGAAGAGTATTGGA-13L8TX_171026_01_E05	2	1	1	4	-3.195893853915129	2.1419344160788762	10x_cells_v2
10x_cells_v2_TGTGGTATCTCAAACG-13L8TX_171026_01_E05	2	1	1	6	0.47536971217011886	0.6138526777400088	10x_cells_v2
10x_cells_v2_TTAACTCAGTTATCGC-13L8TX_171026_01_E05	2	1	1	6	-1.5275542110197675	-0.5676182034812916	10x_cells_v2
10x_cells_v2_TTCCCAGAGACGCAAC-13L8TX_171026_01_E05	2	1	1	4	-3.612883944552949	0.6110147432864182	10x_cells_v2
10x_cells_v2_AACCGCGTCACTTATC-14L8TX_171026_01_F05	2	1	4	2	0.09568591520872222	-2.9303403939107278	10x_cells_v2
10x_cells_v2_ACCGTAACACACGCTG-14L8TX_171026_01_F05	2	1	1	5	-0.16422175034368874	2.493639132382319	10x_cells_v2
10x_cells_v2_ATTGGTGGTGCGATAG-14L8TX_171026_01_F05	2	1	1	6	-1.7142615489899178	0.3321443142694204	10x_cells_v2
10x_cells_v2_CAACCAATCGAGGTAG-14L8TX_171026_01_F05	2	1	1	4	-3.774232510639918	-0.1591869200096134	10x_cells_v2
10x_cells_v2_CATGCCTGTTGCGCAC-14L8TX_171026_01_F05	2	1	1	5	-1.0372241670541105	1.7665657277011657	10x_cells_v2
10x_cells_v2_CGACCTTTCTGCTGCT-14L8TX_171026_01_F05	2	1	4	2	-0.11822217207363704	-3.3177482964484937	10x_cells_v2
10x_cells_v2_CGGAGCTTCCCTAACC-14L8TX_171026_01_F05	2	1	1	6	-0.5515683205073107	-0.3909811126466029	10x_cells_v2
10x_cells_v2_CGTCACTCATTAGGCT-14L8TX_171026_01_F05	2	1	4	2	1.3159826551664298	-1.1652953559742187	10x_cells_v2
10x_cells_v2_CGTTGGGAGATATACG-14L8TX_171026_01_F05	2	1	1	6	-1.2861851949134784	-0.996588331843187	10x_cells_v2
10x_cells_v2_CTAGTGATCCATGAAC-14L8TX_171026_01_F05	2	1	1	4	-3.4331925972397226	0.5420409970769259	10x_cells_v2
10x_cells_v2_CTGAAGTAGACTAGAT-14L8TX_171026_01_F05	2	1	1	5	-0.7461524073407535	1.3323426777061682	10x_cells_v2
10x_cells_v2_GAAACTCTCGACCAGC-14L8TX_171026_01_F05	2	1	1	5	0.4630783220681977	2.385199922407364	10x_cells_v2
10x_cells_v2_GACGGCTGTGTCGCTG-14L8TX_171026_01_F05	2	1	1	6	-1.5717985711584166	-0.04822413791191021	10x_cells_v2
10x_cells_v2_GAGTCCGGTGATAAAC-14L8TX_171026_01_F05	2	1	1	6	-0.11894404563627467	0.5051186920747255	10x_cells_v2
10x_cells_v2_GATCAGTAGCGCTTAT-14L8TX_171026_01_F05	2	1	1	6	0.13320454505449442	0.486850306942741	10x_cells_v2
10x_cells_v2_GCATGTATCCCTAATT-14L8TX_171026_01_F05	2	1	1	6	-0.21536469921528548	0.5108407945782621	10x_cells_v2
10x_cells_v2_GCCAAATAGATGCCAG-14L8TX_171026_01_F05	2	1	1	6	-1.54555321070553	-0.24911735055625583	10x_cells_v2
10x_cells_v2_GGGTCTGGTCCATGAT-14L8TX_171026_01_F05	2	1	4	2	1.2007812042972255	0.24325310562940122	10x_cells_v2
10x_cells_v2_GGGTCTGTCCCTCAGT-14L8TX_171026_01_F05	2	1	1	4	-3.4422631751314543	-0.1339784680052018	10x_cells_v2
10x_cells_v2_GGTATTGGTACATCCA-14L8TX_171026_01_F05	2	1	1	4	-3.1203031862188957	0.20126568638372938	10x_cells_v2
10x_cells_v2_GTGAAGGAGTCGCCGT-14L8TX_171026_01_F05	2	1	1	6	0.5736847246477595	0.7791407653472127	10x_cells_v2
10x_cells_v2_GTGGGTCTCCAGTATG-14L8TX_171026_01_F05	2	1	1	6	0.5888426322850501	-0.27923367085731293	10x_cells_v2
10x_cells_v2_TAGAGCTCACTAGTAC-14L8TX_171026_01_F05	2	1	1	6	-1.5202564651734238	-0.03423488774308245	10x_cells_v2
10x_cells_v2_TCAATCTTCGACCAGC-14L8TX_171026_01_F05	2	1	4	2	1.97016288687359	0.28428554679048434	10x_cells_v2
10x_cells_v2_TCACAAGAGCCTATGT-14L8TX_171026_01_F05	2	1	1	6	-1.2671914813225393	0.6091910261712267	10x_cells_v2
10x_cells_v2_TCAGCAACAATGCCAT-14L8TX_171026_01_F05	2	1	1	6	0.27590728591374053	0.7470602625675943	10x_cells_v2
10x_cells_v2_TGGCCAGTCTTACCTA-14L8TX_171026_01_F05	2	1	1	4	-3.796790962310358	-0.18484918598430186	10x_cells_v2
10x_cells_v2_TGGTTCCGTGAACCTT-14L8TX_171026_01_F05	2	1	1	6	-1.3732956543025516	0.5714356975365974	10x_cells_v2
10x_cells_v2_TGTGTTTTCGAGAGCA-14L8TX_171026_01_F05	2	1	4	2	-0.544259685567217	-3.4167249845692176	10x_cells_v2
10x_cells_v2_AAACGGGCACAGCGTC-15L8TX_171026_01_G05	2	1	1	6	-1.5781643328105117	-0.7240668722514347	10x_cells_v2
10x_cells_v2_ACTGAACAGATAGCAT-15L8TX_171026_01_G05	2	1	4	2	-1.4951826327079012	-2.9780170006452193	10x_cells_v2
10x_cells_v2_AGCAGCCCATTACGAC-15L8TX_171026_01_G05	2	1	1	6	0.07199911900411345	0.5417163006918345	10x_cells_v2
10x_cells_v2_CAGCTGGGTGAGGGTT-15L8TX_171026_01_G05	2	1	1	4	-2.858307031696935	-0.1277829560946837	10x_cells_v2
10x_cells_v2_CCTACCACAGACACTT-15L8TX_171026_01_G05	2	1	1	4	-3.1976471950473084	0.2102098051881595	10x_cells_v2
10x_cells_v2_CGGTTAACACAGCCCA-15L8TX_171026_01_G05	2	1	1	6	-1.3767661747494941	-0.03677465567505551	10x_cells_v2
10x_cells_v2_CGTGTAATCGCCTGTT-15L8TX_171026_01_G05	2	1	4	2	-0.28222627554348056	-1.5605059089741435	10x_cells_v2
10x_cells_v2_CTCGGGAAGCCACCTG-15L8TX_171026_01_G05	2	1	1	4	-4.028824871515504	0.6382557457275112	10x_cells_v2
10x_cells_v2_GGTGAAGAGTATGACA-15L8TX_171026_01_G05	2	1	4	2	1.3328868075757496	-1.475717745525842	10x_cells_v2
10x_cells_v2_GTGTTAGAGCACGCCT-15L8TX_171026_01_G05	2	1	1	6	-0.6013614996366559	0.10022720938877087	10x_cells_v2
10x_cells_v2_TCAGGATAGACTAGGC-15L8TX_171026_01_G05	1	2	2	1	2.9992154240920845	-1.1628974332158488	10x_cells_v2
10x_cells_v2_TTATGCTTCGGAGCAA-15L8TX_171026_01_G05	2	1	4	2	1.1953142519785434	-3.674655013746092	10x_cells_v2
10x_cells_v2_AAACCTGAGAGTCTGG-16L8TX_171026_01_H05	2	1	1	6	1.345050298177441	0.2203889983599095	10x_cells_v2
10x_cells_v2_AAACGGGCATGGGAAC-16L8TX_171026_01_H05	2	1	1	5	-1.3104559888270002	1.61140294401069	10x_cells_v2
10x_cells_v2_ACTATCTGTTCCAACA-16L8TX_171026_01_H05	2	1	1	6	0.07441254246430844	-0.2436476193246677	10x_cells_v2
10x_cells_v2_AGATTGCCAGCGAACA-16L8TX_171026_01_H05	2	1	1	4	-4.030003807091004	1.1971243669520477	10x_cells_v2
10x_cells_v2_ATCTGCCTCCGTACAA-16L8TX_171026_01_H05	2	1	1	6	-0.7788172181314899	0.7960999216435205	10x_cells_v2
10x_cells_v2_CATATGGTCGCCATAA-16L8TX_171026_01_H05	2	1	1	6	-0.8508465166879515	-0.8431169521238328	10x_cells_v2
10x_cells_v2_CCCAATCCAGTATCTG-16L8TX_171026_01_H05	2	1	4	2	-0.6823032285824123	-2.3183282994197008	10x_cells_v2
10x_cells_v2_CCGTACTCACCTATCC-16L8TX_171026_01_H05	2	1	1	6	0.01973930921283985	0.29021117339980185	10x_cells_v2
10x_cells_v2_CCTACACAGCTCCTTC-16L8TX_171026_01_H05	2	1	4	2	-0.34990586109809985	-2.953410456606516	10x_cells_v2
10x_cells_v2_CCTATTAGTTCGAATC-16L8TX_171026_01_H05	2	1	4	2	0.7458519420372665	-3.877122669289806	10x_cells_v2
10x_cells_v2_CGAGAAGTCTACTATC-16L8TX_171026_01_H05	2	1	1	6	-1.4124181176846398	-0.21985160685774807	10x_cells_v2
10x_cells_v2_CGGAGCTGTATTAGCC-16L8TX_171026_01_H05	2	1	1	6	1.7439934257128555	-0.06383079504628517	10x_cells_v2
10x_cells_v2_CGGTTAACAAAGCGGT-16L8TX_171026_01_H05	2	1	4	2	-1.3461657611799815	-2.479383485966473	10x_cells_v2
10x_cells_v2_GAATAAGAGATGGGTC-16L8TX_171026_01_H05	2	1	1	6	-0.025822795294883485	0.803480190537502	10x_cells_v2
10x_cells_v2_GATGAAATCGCTTAGA-16L8TX_171026_01_H05	2	1	1	6	-1.7708788305937488	0.2646471791853913	10x_cells_v2
10x_cells_v2_GCTGCAGGTACAAGTA-16L8TX_171026_01_H05	2	1	1	5	-0.529910555882086	1.2934754606429952	10x_cells_v2
10x_cells_v2_GGCGTGTGTACTTAGC-16L8TX_171026_01_H05	2	1	1	4	-2.326181190868192	0.10854202452161332	10x_cells_v2
10x_cells_v2_GTTCATTTCATGGTCA-16L8TX_171026_01_H05	2	1	1	4	-4.2725494084021935	1.0289493074212288	10x_cells_v2
10x_cells_v2_TACGGGCTCGTATCAG-16L8TX_171026_01_H05	2	1	1	4	-3.133202245323449	1.5546475295401465	10x_cells_v2
10x_cells_v2_TATGCCCCACCGGAAA-16L8TX_171026_01_H05	2	1	1	5	-0.8976825120387817	2.9815816238999786	10x_cells_v2
10x_cells_v2_TGCGGGTTCATCACCC-16L8TX_171026_01_H05	2	1	1	5	-1.6785471761024149	3.0807638064129863	10x_cells_v2
10x_cells_v2_TGGCCAGGTCATCGGC-16L8TX_171026_01_H05	2	1	4	2	0.8202597023586183	-1.7975643649609274	10x_cells_v2
10x_cells_v2_TTCTCCTTCTCGCTTG-16L8TX_171026_01_H05	2	1	4	2	2.19336216968936	-1.1783694299603207	10x_cells_v2
10x_cells_v2_ACACCGGAGCTGAACG-1L8TX_171026_01_F03	1	3	3	3	4.842676515532219	1.4309173023265123	10x_cells_v2
10x_cells_v2_AGCGTATCACCCTATC-1L8TX_171026_01_F03	1	3	3	3	6.309148206577197	4.288736936374425	10x_cells_v2
10x_cells_v2_CACTCCACAAGGTGTG-1L8TX_171026_01_F03	1	3	3	3	4.743553878290464	2.873750335666081	10x_cells_v2
10x_cells_v2_CCTCAGTTCCGCGGTA-1L8TX_171026_01_F03	1	3	3	3	4.544096167324087	1.4878129814977679	10x_cells_v2
10x_cells_v2_CTTCTCTAGGCTATCT-1L8TX_171026_01_F03	1	3	3	3	4.288549879185293	1.2524406171825455	10x_cells_v2
10x_cells_v2_GACGCGTAGACGCACA-1L8TX_171026_01_F03	1	3	3	3	5.207959848365771	0.9340676850336109	10x_cells_v2
10x_cells_v2_GATCGATGTGACGGTA-1L8TX_171026_01_F03	1	3	3	3	5.506598631649212	4.263178788129332	10x_cells_v2
10x_cells_v2_GCATGATGTCGCTTCT-1L8TX_171026_01_F03	1	3	3	3	4.9146155367291975	1.5652152502471732	10x_cells_v2
10x_cells_v2_GTACTCCAGCCACGTC-1L8TX_171026_01_F03	1	3	3	3	4.863308016967924	2.170590177500996	10x_cells_v2
10x_cells_v2_TATTACCAGTTGTAGA-1L8TX_171026_01_F03	1	3	3	3	5.108263030742297	1.311451934301525	10x_cells_v2
10x_cells_v2_ACGCCGATCCAATGGT-2L8TX_171026_01_G03	1	3	3	3	4.8945041651639905	2.3898854806194096	10x_cells_v2
10x_cells_v2_ATCTACTAGCGTTGCC-2L8TX_171026_01_G03	2	1	4	2	2.313147893664157	0.010581648790887927	10x_cells_v2
10x_cells_v2_GTCTCGTAGCTCCTTC-2L8TX_171026_01_G03	1	2	4	2	1.7926265694701353	-4.2243395459653446	10x_cells_v2
10x_cells_v2_AAACGGGTCCTGCAGG-3L8TX_171026_01_B04	1	3	3	3	5.902263916615318	4.126702947239424	10x_cells_v2
10x_cells_v2_ATAACGCCAGGTCTCG-3L8TX_171026_01_B04	1	3	3	3	4.401690385860608	1.8148717359180893	10x_cells_v2
10x_cells_v2_CGTTAGAGTCTTCAAG-3L8TX_171026_01_B04	1	3	3	5	2.5427415393901462	1.295948847141071	10x_cells_v2
10x_cells_v2_CTGATCCCAAGTAGTA-3L8TX_171026_01_B04	1	3	3	3	5.041525783288999	2.616376963443073	10x_cells_v2
10x_cells_v2_GGTGCGTAGCTAAGAT-3L8TX_171026_01_B04	1	3	3	3	4.976648938408752	3.5371924268995443	10x_cells_v2
10x_cells_v2_GTCTCGTGTACCGTAT-3L8TX_171026_01_B04	1	3	3	3	4.447067034402089	1.6555402712745826	10x_cells_v2
10x_cells_v2_TAGTTGGAGCACACAG-3L8TX_171026_01_B04	1	3	3	3	5.88134010510399	3.3439893995910834	10x_cells_v2
10x_cells_v2_AACTCTTTCGCCTGAG-4L8TX_171026_01_F04	1	3	3	3	4.2982451591249164	2.723302009622455	10x_cells_v2
10x_cells_v2_CACACTCAGAGCTGCA-4L8TX_171026_01_F04	1	3	3	3	3.8978354513254976	1.6105449618800074	10x_cells_v2
10x_cells_v2_CCGGTAGTCACCCGAG-4L8TX_171026_01_F04	1	2	4	2	1.7476591329832334	-4.258718632416461	10x_cells_v2
10x_cells_v2_CGCTTCATCGTGACAT-4L8TX_171026_01_F04	1	3	3	3	4.192571286066711	3.4174427009118995	10x_cells_v2
10x_cells_v2_GGAAAGCGTGTGACGA-4L8TX_171026_01_F04	1	3	3	3	5.918739548114341	3.130193170140656	10x_cells_v2
10x_cells_v2_TCTATTGGTACTCTCC-4L8TX_171026_01_F04	1	3	3	3	4.574935133265931	3.034407992348363	10x_cells_v2
10x_cells_v2_GACCAATTCCGCATCT-5L8TX_171026_01_G04	1	3	4	2	6.490657356228913	0.7791924517802289	10x_cells_v2
10x_cells_v2_GCTCCTATCGTTGACA-5L8TX_171026_01_G04	1	3	3	3	6.780902777447858	2.1281520994021874	10x_cells_v2
10x_cells_v2_TCTATTGAGGCCATAG-5L8TX_171026_01_G04	1	3	3	3	6.618866083129622	1.9520164553294497	10x_cells_v2
10x_cells_v2_TTGCGTCAGAGTTGGC-5L8TX_171026_01_G04	1	3	3	5	3.357094147865219	2.282972055104263	10x_cells_v2
10x_cells_v2_CATCGGGTCAGCTCTC-6L8TX_171026_01_B05	1	3	3	3	5.12256288834317	2.2163556720137474	10x_cells_v2
10x_cells_v2_CTCGTACTCATGTAGC-6L8TX_171026_01_B05	1	3	3	3	3.7770742827230017	3.2490896019342665	10x_cells_v2
10x_cells_v2_GACGTTAAGAGTTGGC-6L8TX_171026_01_B05	1	3	3	5	3.4765083834862605	2.553056054663586	10x_cells_v2
10x_cells_v2_GCTCTGTAGGACAGCT-6L8TX_171026_01_B05	1	3	3	3	4.156570777452174	1.5333270150398184	10x_cells_v2
10x_cells_v2_AAGGAGCCATCCGTGG-7L8TX_171026_01_H04	1	3	3	3	6.530647575183966	1.3795929166949545	10x_cells_v2
10x_cells_v2_ACCCACTAGCGCTTAT-7L8TX_171026_01_H04	1	3	3	3	6.3767947221339085	4.138120230814266	10x_cells_v2
10x_cells_v2_ACGAGGATCATGTCCC-7L8TX_171026_01_H04	1	3	3	3	4.438581143681547	3.4493498122543826	10x_cells_v2
10x_cells_v2_ACGGGTCTCTTGCATT-7L8TX_171026_01_H04	1	2	2	5	3.042095802659947	0.9271199865597983	10x_cells_v2
10x_cells_v2_ACTATCTTCAATAAGG-7L8TX_171026_01_H04	1	3	3	5	2.7527971991516527	2.425372282254373	10x_cells_v2
10x_cells_v2_AGCGTCGTCGGCGCAT-7L8TX_171026_01_H04	1	3	3	3	4.366348146677689	2.41659646830018	10x_cells_v2
10x_cells_v2_GGAAAGCGTGCAACGA-7L8TX_171026_01_H04	1	3	3	3	4.702928547949176	3.1896114009001324	10x_cells_v2
10x_cells_v2_GGCCGATCATTCACTT-7L8TX_171026_01_H04	1	3	3	3	6.724078437932781	3.0078206987787413	10x_cells_v2
10x_cells_v2_GTGCATAAGTTAACGA-7L8TX_171026_01_H04	2	1	4	2	2.3389717549278255	0.17913430258709387	10x_cells_v2
10x_cells_v2_TTTCCTCCACCCTATC-7L8TX_171026_01_H04	1	3	3	3	6.698542148591167	1.355247153285045	10x_cells_v2
10x_cells_v2_AACGTTGGTACCGTAT-8L8TX_171026_01_A05	1	3	3	3	6.032272106593919	4.219844003251857	10x_cells_v2
10x_cells_v2_CCTTACGCAGATGAGC-8L8TX_171026_01_A05	1	3	3	3	3.9935381464772592	3.275789775261022	10x_cells_v2
10x_cells_v2_GTTACAGGTTGACGTT-8L8TX_171026_01_A05	1	3	3	3	5.729770302962855	4.289415831245193	10x_cells_v2
10x_cells_v2_TTCTACACAAGTCTAC-8L8TX_171026_01_A05	1	3	3	3	4.409245688571327	3.6094255419213352	10x_cells_v2
10x_cells_v2_CGAGCCATCAAGATCC-9L8TX_171026_01_H03	1	3	3	3	5.386827207466862	1.3845196534751305	10x_cells_v2
10x_cells_v2_GAATAAGAGCGCTCCA-9L8TX_171026_01_H03	1	3	3	3	5.834131180961985	2.092161575299585	10x_cells_v2
10x_cells_v2_GCTGGGTTCAGCTGGC-9L8TX_171026_01_H03	1	3	3	3	5.732710681739391	1.4839985505188278	10x_cells_v2
10x_cells_v2_ACACTGAGTCCGCTGA-10L8TX_171026_01_A04	1	3	3	3	4.154446673607297	3.1064335841534603	10x_cells_v2
10x_cells_v2_CCGTGGAGTCTCGTTC-10L8TX_171026_01_A04	1	3	3	3	4.824329037440369	2.2286959804584203	10x_cells_v2
10x_cells_v2_CCTATTAAGTTTCCTT-10L8TX_171026_01_A04	1	3	3	3	4.250736326168181	2.9150709358846103	10x_cells_v2
10x_cells_v2_GGAACTTCAGTCAGCC-10L8TX_171026_01_A04	1	3	3	3	4.668314923087895	1.898993641285193	10x_cells_v2
10x_cells_v2_GTTTCTAAGAGTAAGG-10L8TX_171026_01_A04	1	3	3	3	4.528572323452621	3.471548084607418	10x_cells_v2
10x_cells_v2_TGTCCCACATGTCTCC-10L8TX_171026_01_A04	1	3	3	3	4.802919984664597	2.429657466075994	10x_cells_v2
10x_cells_v2_AAACGGGTCTTCATGT-11L8TX_171026_01_C05	1	3	3	3	4.50544781397959	1.1225387986387556	10x_cells_v2
10x_cells_v2_GGCGTGTTCGTTTAGG-11L8TX_171026_01_C05	1	3	3	3	3.700194949371325	1.3423175668904392	10x_cells_v2
10x_cells_v2_GGTGAAGAGGCATGGT-11L8TX_171026_01_C05	1	2	2	1	3.2593631423180573	-2.8730263022649094	10x_cells_v2
10x_cells_v2_TGGCGCATCCTTCAAT-11L8TX_171026_01_C05	2	1	4	2	0.6731347086560537	-3.778964664657759	10x_cells_v2
10x_cells_v2_TTCCCAGCATTAACCG-11L8TX_171026_01_C05	2	1	4	2	0.9058783194488051	-3.7052177943410562	10x_cells_v2
10x_cells_v2_ATCCACCAGCTAAGAT-12L8TX_171026_01_D05	1	3	3	3	6.594036008024959	1.1111327803979445	10x_cells_v2
10x_cells_v2_CGTGTAACAAGTTAAG-12L8TX_171026_01_D05	1	3	3	3	6.29904860375456	0.88409031351049	10x_cells_v2
10x_cells_v2_CTAGAGTAGTCCATAC-12L8TX_171026_01_D05	1	3	3	3	5.728674414975686	1.9592971184141412	10x_cells_v2
10x_cells_v2_GTCGTAACATTCCTGC-12L8TX_171026_01_D05	1	3	3	5	2.8240204124185495	2.595239157285514	10x_cells_v2
10x_cells_v2_TTCTCAATCAGAAATG-12L8TX_171026_01_D05	1	3	3	3	4.319240810916315	2.982457653673626	10x_cells_v2
10x_cells_v2_AGGTCATTCAAAGACA-13L8TX_171026_01_E05	1	2	4	2	2.312732767457342	-4.1604769416339	10x_cells_v2
10x_cells_v2_AGTGTCATCTAGAGTC-13L8TX_171026_01_E05	1	3	3	3	5.622615243851609	2.292808058089263	10x_cells_v2
10x_cells_v2_ATTACTCCACTAAGTC-13L8TX_171026_01_E05	1	3	3	3	4.21303541858115	1.6111423059209546	10x_cells_v2
10x_cells_v2_CAACCAAAGGAGTCTG-13L8TX_171026_01_E05	1	3	3	3	3.859046135537661	1.3306037110546813	10x_cells_v2
10x_cells_v2_CATTATCAGTTCGCGC-13L8TX_171026_01_E05	1	3	3	3	6.788927266334476	3.9605488808312144	10x_cells_v2
10x_cells_v2_CCGTACTCATCATCCC-13L8TX_171026_01_E05	1	3	3	3	6.568877921414227	4.248956401489406	10x_cells_v2
10x_cells_v2_CGTAGGCAGACTTTCG-13L8TX_171026_01_E05	1	3	3	3	6.6149119826908445	3.443429514924118	10x_cells_v2
10x_cells_v2_CTCGGGACACCACCAG-13L8TX_171026_01_E05	1	1	1	5	2.7602948680774277	0.7204302359145732	10x_cells_v2
10x_cells_v2_CTTCTCTAGACACTAA-13L8TX_171026_01_E05	1	3	3	3	4.758343886269186	3.2279952683065294	10x_cells_v2
10x_cells_v2_GATCTAGAGCGGCTTC-13L8TX_171026_01_E05	1	3	3	3	6.8412927058789235	2.111004748735542	10x_cells_v2
10x_cells_v2_GCACTCTCAATAGCAA-13L8TX_171026_01_E05	1	3	3	3	4.077565485621139	1.2913791464259021	10x_cells_v2
10x_cells_v2_GCGCAACCACCAGCAC-13L8TX_171026_01_E05	1	2	2	1	3.294155829550711	-3.646037932219802	10x_cells_v2
10x_cells_v2_GTCACGGAGTTGAGAT-13L8TX_171026_01_E05	1	3	3	3	6.712012903906664	1.5384871392594337	10x_cells_v2
10x_cells_v2_GTCACGGTCGTTGCCT-13L8TX_171026_01_E05	1	3	3	3	6.639159057831764	3.9184905949729707	10x_cells_v2
10x_cells_v2_GTCGGGTTCACTGGGC-13L8TX_171026_01_E05	1	3	3	3	6.5836782274492185	4.099297709318938	10x_cells_v2
10x_cells_v2_TAGGCATCAGCTGCTG-13L8TX_171026_01_E05	1	1	1	5	2.8091669731272155	0.9676435093073144	10x_cells_v2
10x_cells_v2_ACCGTAATCCGAGCCA-14L8TX_171026_01_F05	1	3	3	3	4.702101436737775	3.1445884377961617	10x_cells_v2
10x_cells_v2_ACGCAGCTCTGGTTCC-14L8TX_171026_01_F05	1	3	3	3	4.5443057029563	2.4134844413562786	10x_cells_v2
10x_cells_v2_AGAGCTTCAGCTATTG-14L8TX_171026_01_F05	1	3	3	3	6.484977581118097	4.088873319268929	10x_cells_v2
10x_cells_v2_CGGCTAGCATCCCATC-14L8TX_171026_01_F05	1	3	3	3	6.669064953134855	4.095296628823537	10x_cells_v2
10x_cells_v2_CGGGTCAGTGATGTCT-14L8TX_171026_01_F05	1	3	3	3	6.740144102364292	3.959003903708358	10x_cells_v2
10x_cells_v2_CGTTGGGTCTTGTATC-14L8TX_171026_01_F05	1	3	3	3	5.264314810209097	2.649844058856532	10x_cells_v2
10x_cells_v2_GACGTTACAGGAATGC-14L8TX_171026_01_F05	1	3	3	3	6.8139041338130975	1.6529776261313047	10x_cells_v2
10x_cells_v2_GCAGCCAAGGCTATCT-14L8TX_171026_01_F05	1	3	3	3	6.840313900079951	1.2220039098445845	10x_cells_v2
10x_cells_v2_GCGACCATCGCTGATA-14L8TX_171026_01_F05	1	3	3	3	3.3628122337594326	1.3034779985606948	10x_cells_v2
10x_cells_v2_GGGAATGGTAACGCGA-14L8TX_171026_01_F05	1	3	3	3	5.280613491224418	1.9822966632050898	10x_cells_v2
10x_cells_v2_GTACTTTAGACCGGAT-14L8TX_171026_01_F05	2	3	4	5	2.1216454471240445	1.4135820965219845	10x_cells_v2
10x_cells_v2_TCCCGATTCACTTACT-14L8TX_171026_01_F05	1	3	3	3	6.7168343495889395	3.611158965291957	10x_cells_v2
10x_cells_v2_TTTCCTCGTTGAGGTG-14L8TX_171026_01_F05	1	3	3	3	5.188849688407324	1.4268858162057534	10x_cells_v2
10x_cells_v2_AATCCAGCATGCTGGC-15L8TX_171026_01_G05	2	1	4	2	-1.9278688897469656	-1.8216147095542161	10x_cells_v2
10x_cells_v2_GGCAATTGTAGCGTCC-15L8TX_171026_01_G05	1	3	3	3	6.247966407008942	3.988704013371394	10x_cells_v2
10x_cells_v2_GGGCATCCAAAGGCGT-15L8TX_171026_01_G05	1	3	3	3	5.222719423406277	2.3384052019869093	10x_cells_v2
10x_cells_v2_GGGTCTGTCATGGTCA-15L8TX_171026_01_G05	1	1	3	5	3.103364712926632	0.8169819194851073	10x_cells_v2
10x_cells_v2_CTGATAGTCGCCATAA-16L8TX_171026_01_H05	1	3	3	3	6.248617266404521	3.749527959884614	10x_cells_v2
10x_cells_v2_GCCAAATAGGACGAAA-16L8TX_171026_01_H05	1	2	2	1	4.051940737098051	-2.2004009076941466	10x_cells_v2
10x_cells_v2_TCTATTGCACCAGATT-16L8TX_171026_01_H05	1	3	3	5	3.3473353092753775	1.513978474756329	10x_cells_v2
10x_cells_v2_TTCTACACAGGCAGTA-16L8TX_171026_01_H05	1	3	3	3	5.494218644122954	2.8383657947999072	10x_cells_v2
10x_cells_v2_ACTGTCCCACGGCTAC-1L8TX_171026_01_F03	1	2	2	1	6.227314961532741	-2.8543151594172613	10x_cells_v2
10x_cells_v2_CCCAATCGTGTAATGA-1L8TX_171026_01_F03	1	2	2	1	3.04220066452664	-2.9681168193855982	10x_cells_v2
10x_cells_v2_CCCTCCTAGAACTCGG-1L8TX_171026_01_F03	1	2	2	1	5.626469733754501	-3.332459996258883	10x_cells_v2
10x_cells_v2_GATTCAGTCCTAGTGA-1L8TX_171026_01_F03	1	2	2	1	5.260925005062119	-1.5564200511770019	10x_cells_v2
10x_cells_v2_GCGGGTTAGGCCCTCA-1L8TX_171026_01_F03	1	2	2	1	4.329342715392543	-2.7040168946956005	10x_cells_v2
10x_cells_v2_GGGACCTCAGGTGCCT-1L8TX_171026_01_F03	1	2	2	1	3.647854017777349	-2.0928299769105565	10x_cells_v2
10x_cells_v2_TGGCCAGGTAGCGATG-1L8TX_171026_01_F03	1	2	2	1	5.772924485123851	-2.6681651659219408	10x_cells_v2
10x_cells_v2_TGGGCGTTCTGTTTGT-1L8TX_171026_01_F03	1	2	2	5	2.222231644825356	-0.7192823987685188	10x_cells_v2
10x_cells_v2_TTGGAACCAGACGTAG-1L8TX_171026_01_F03	1	2	2	1	5.529911473170764	-4.218450611892229	10x_cells_v2
10x_cells_v2_ACCTTTAAGTTATCGC-2L8TX_171026_01_G03	1	2	2	1	4.267741974343868	-3.5387554693449284	10x_cells_v2
10x_cells_v2_ACTATCTGTAACGCGA-2L8TX_171026_01_G03	1	2	2	1	4.722697367081305	-1.8695516798847949	10x_cells_v2
10x_cells_v2_AGTAGTCCATGCTAGT-2L8TX_171026_01_G03	1	2	2	1	5.607703530382845	-4.274138703006458	10x_cells_v2
10x_cells_v2_CACAGTAGTAAGTAGT-2L8TX_171026_01_G03	1	2	2	1	5.641529325078419	-3.861952407648308	10x_cells_v2
10x_cells_v2_CTAGTGACATGCAACT-2L8TX_171026_01_G03	1	2	2	1	3.739769326114316	-1.9590979314363972	10x_cells_v2
10x_cells_v2_GTAGGCCTCGTTACAG-2L8TX_171026_01_G03	1	2	4	2	2.2391752282571318	-4.6291415665336695	10x_cells_v2
10x_cells_v2_GTGCGGTAGACTACAA-2L8TX_171026_01_G03	1	2	2	1	4.24197980336376	-1.7905825764228351	10x_cells_v2
10x_cells_v2_TCTGAGAAGCTAAACA-2L8TX_171026_01_G03	1	2	2	1	5.339650136631444	-1.630286209636754	10x_cells_v2
10x_cells_v2_TGCGTGGGTACAGTTC-2L8TX_171026_01_G03	1	2	2	1	5.796141538146822	-2.174470279133987	10x_cells_v2
10x_cells_v2_TTTGTCAAGTTCCACA-2L8TX_171026_01_G03	1	2	2	1	6.456299393210358	-2.1889394214549833	10x_cells_v2
10x_cells_v2_ACTTGTTTCGGAGCAA-3L8TX_171026_01_B04	1	2	2	1	3.3454976174018434	-2.474405279370308	10x_cells_v2
10x_cells_v2_ATTACTCAGTCAATAG-3L8TX_171026_01_B04	1	2	2	1	5.912229245500913	-1.983389763870234	10x_cells_v2
10x_cells_v2_CAGTAACAGCTACCTA-3L8TX_171026_01_B04	1	2	2	1	3.9822703148915495	-1.346375941997189	10x_cells_v2
10x_cells_v2_CGCTATCCATATGCTG-3L8TX_171026_01_B04	1	2	2	1	4.930192998582	-2.1647440138687846	10x_cells_v2
10x_cells_v2_CTCCTAGCAAGAAAGG-3L8TX_171026_01_B04	1	2	2	1	6.39558474235767	-3.16172652500293	10x_cells_v2
10x_cells_v2_GACGCGTGTGGCCCTA-3L8TX_171026_01_B04	1	2	2	1	5.692014474410982	-1.976980371949525	10x_cells_v2
10x_cells_v2_GCATGATGTTAGAACA-3L8TX_171026_01_B04	1	2	2	1	5.558342744099247	-1.334023669305265	10x_cells_v2
10x_cells_v2_GCATGCGTCTAACTCT-3L8TX_171026_01_B04	1	2	2	1	3.319246251255795	-2.524225088291058	10x_cells_v2
10x_cells_v2_TAGACCACAGTAAGAT-3L8TX_171026_01_B04	1	2	4	2	2.320846638954523	-4.631538887357557	10x_cells_v2
10x_cells_v2_TGTTCCGCAGTCACTA-3L8TX_171026_01_B04	1	2	2	1	5.490804082356219	-2.4555054420831732	10x_cells_v2
10x_cells_v2_TTCTTAGGTGAGGCTA-3L8TX_171026_01_B04	1	2	2	1	4.740375907193069	-1.2100295462393853	10x_cells_v2
10x_cells_v2_ACATCAGTCAGAAATG-4L8TX_171026_01_F04	1	2	2	1	5.058338526690022	-4.107786789002135	10x_cells_v2
10x_cells_v2_ACGAGGAAGTTATCGC-4L8TX_171026_01_F04	1	2	2	1	4.078308784961361	-1.2563703989953254	10x_cells_v2
10x_cells_v2_ACGGGCTTCTCACATT-4L8TX_171026_01_F04	1	2	2	1	4.847588898005304	-1.5997199703550975	10x_cells_v2
10x_cells_v2_GATGAAATCTCTTGAT-4L8TX_171026_01_F04	1	2	2	1	6.079789120854608	-2.5063557725985373	10x_cells_v2
10x_cells_v2_GTCACAAAGAGGTTGC-4L8TX_171026_01_F04	1	2	2	1	5.000683952918444	-3.982586574478025	10x_cells_v2
10x_cells_v2_TACTCGCCAAGTTAAG-4L8TX_171026_01_F04	1	2	2	1	6.567732361482519	-2.5528090016555143	10x_cells_v2
10x_cells_v2_ATCATGGGTCAATACC-5L8TX_171026_01_G04	1	2	2	1	6.26555980044986	-2.846771703675139	10x_cells_v2
10x_cells_v2_CACACAAGTGGCTCCA-5L8TX_171026_01_G04	1	2	2	5	3.398503004004064	0.24897604055899825	10x_cells_v2
10x_cells_v2_GGGCACTCAGATCTGT-5L8TX_171026_01_G04	1	2	2	5	5.433217805194488	-0.4354942469673792	10x_cells_v2
10x_cells_v2_AAAGTAGAGATATGGT-6L8TX_171026_01_B05	1	2	2	1	6.271678670665722	-2.0236865480758324	10x_cells_v2
10x_cells_v2_CAGCATACACAAGACG-6L8TX_171026_01_B05	1	2	2	1	6.563987494963061	-2.7934728337370722	10x_cells_v2
10x_cells_v2_CATATGGTCGGATGGA-6L8TX_171026_01_B05	1	2	2	1	6.17136640532968	-2.7837255841012176	10x_cells_v2
10x_cells_v2_TCAGCAATCGGTTAAC-6L8TX_171026_01_B05	1	2	2	1	5.782330863248284	-1.78932973653706	10x_cells_v2
10x_cells_v2_ACATGGTTCCATGCTC-7L8TX_171026_01_H04	1	2	2	1	6.105687635014522	-3.801758450642792	10x_cells_v2
10x_cells_v2_CATTATCTCCACGACG-7L8TX_171026_01_H04	1	2	2	1	6.203133757268187	-1.6218485421910558	10x_cells_v2
10x_cells_v2_CCTACACAGGGATGGG-7L8TX_171026_01_H04	1	2	2	1	5.0321392161970175	-0.8704551821228484	10x_cells_v2
10x_cells_v2_CTTGGCTTCTCACATT-7L8TX_171026_01_H04	1	2	2	1	6.338834748575674	-2.529753420345385	10x_cells_v2
10x_cells_v2_GCATGCGAGGCTAGCA-7L8TX_171026_01_H04	1	2	2	1	3.803873196219244	-1.283047999835301	10x_cells_v2
10x_cells_v2_GGTGAAGCAAGAGGCT-7L8TX_171026_01_H04	1	2	2	1	5.725340634970085	-1.4009183220867951	10x_cells_v2
10x_cells_v2_GTGCAGCTCTGCAGTA-7L8TX_171026_01_H04	1	2	2	1	6.56636183925876	-1.7554900537845755	10x_cells_v2
10x_cells_v2_TACTCATAGTGTGAAT-7L8TX_171026_01_H04	1	2	4	2	2.278346043305595	-3.8651940378756096	10x_cells_v2
10x_cells_v2_TACTCGCGTCTCACCT-7L8TX_171026_01_H04	1	2	2	1	5.8901991393987405	-3.436129925935027	10x_cells_v2
10x_cells_v2_TCTTCGGCAGACTCGC-7L8TX_171026_01_H04	1	2	2	1	4.380710975897552	-0.4355594209572903	10x_cells_v2
10x_cells_v2_TGCTGCTGTCGCGAAA-7L8TX_171026_01_H04	1	2	2	1	5.822258398582426	-4.052619644299489	10x_cells_v2
10x_cells_v2_AAATGCCAGTACGACG-8L8TX_171026_01_A05	1	2	2	1	6.137248079363368	-2.861676122012925	10x_cells_v2
10x_cells_v2_ACGGGCTTCATCATTC-8L8TX_171026_01_A05	1	2	2	1	5.627162639431071	-0.7673951726795478	10x_cells_v2
10x_cells_v2_ATTGGACAGACTGGGT-8L8TX_171026_01_A05	1	2	2	1	4.2486321188475005	-0.9751664616806853	10x_cells_v2
10x_cells_v2_GACAGAGCAACCGCCA-8L8TX_171026_01_A05	1	2	2	1	6.0402759696604065	-1.2428429082754169	10x_cells_v2
10x_cells_v2_GCATACAAGCCAGTTT-8L8TX_171026_01_A05	1	2	2	1	6.236134012433355	-2.9899976817036054	10x_cells_v2
10x_cells_v2_GGTATTGAGGTCGGAT-8L8TX_171026_01_A05	1	2	2	1	3.915412618141891	-1.1576579996745302	10x_cells_v2
10x_cells_v2_GTCTTCGGTACCGCTG-8L8TX_171026_01_A05	1	2	2	1	5.728995649522264	-3.9566083866079667	10x_cells_v2
10x_cells_v2_TCAGATGTCCCAACGG-8L8TX_171026_01_A05	1	2	2	1	5.901476517125338	-1.36882932068079	10x_cells_v2
10x_cells_v2_AGACGTTAGCCGGTAA-9L8TX_171026_01_H03	1	2	2	1	2.6898334518628157	-1.5050968380217977	10x_cells_v2
10x_cells_v2_AGTTGGTCACGCATCG-9L8TX_171026_01_H03	1	2	2	1	3.8328083703639524	-1.8003065026052438	10x_cells_v2
10x_cells_v2_CACATAGTCACTGGGC-9L8TX_171026_01_H03	1	2	2	1	3.6402173528141346	-3.092224311023258	10x_cells_v2
10x_cells_v2_CAGCCGACACAAGTAA-9L8TX_171026_01_H03	1	2	2	1	3.1978762237388456	-2.8074650968301973	10x_cells_v2
10x_cells_v2_CAGCTGGCATACGCCG-9L8TX_171026_01_H03	1	2	2	1	4.457514009129493	-3.8044322773670896	10x_cells_v2
10x_cells_v2_GAAACTCGTGCCTGTG-9L8TX_171026_01_H03	1	2	2	1	5.721855147997453	-3.021586685441641	10x_cells_v2
10x_cells_v2_GGATTACCAGCGTAAG-9L8TX_171026_01_H03	1	2	2	1	3.8715566641686108	-1.9554203674747264	10x_cells_v2
10x_cells_v2_GGGACCTTCGACAGCC-9L8TX_171026_01_H03	1	2	2	1	5.217559202523732	-4.116361516229593	10x_cells_v2
10x_cells_v2_GTCCTCACAGGGCATA-9L8TX_171026_01_H03	1	2	2	1	3.3123618846048832	-3.1175901711932266	10x_cells_v2
10x_cells_v2_TTCGGTCAGACGACGT-9L8TX_171026_01_H03	1	2	2	1	3.5840489533508366	-3.6043287116402603	10x_cells_v2
10x_cells_v2_AAAGATGAGGTTACCT-10L8TX_171026_01_A04	1	2	2	1	3.90894131282912	-0.77617600523767	10x_cells_v2
10x_cells_v2_AACTTTCAGTTTGCGT-10L8TX_171026_01_A04	1	2	2	1	3.696650814036203	-0.9527794570079999	10x_cells_v2
10x_cells_v2_AACTTTCCATCATCCC-10L8TX_171026_01_A04	1	2	2	1	5.9976117714681925	-1.8378516807769627	10x_cells_v2
10x_cells_v2_AATCCAGGTCCATCCT-10L8TX_171026_01_A04	1	2	2	1	5.592527653018481	-3.2890442319280027	10x_cells_v2
10x_cells_v2_GCATGTATCTGCCCTA-10L8TX_171026_01_A04	1	2	2	1	5.384409223540483	-1.1254870177211478	10x_cells_v2
10x_cells_v2_GGGTCTGAGCACGCCT-10L8TX_171026_01_A04	1	2	2	1	6.071632484345664	-1.7170955820510092	10x_cells_v2
10x_cells_v2_ACTGTCCCAGACGCCT-11L8TX_171026_01_C05	1	2	2	1	4.311567432869665	-2.010784293494841	10x_cells_v2
10x_cells_v2_ACTTACTGTTGAACTC-11L8TX_171026_01_C05	1	2	2	1	3.202512500634369	-2.978540861840491	10x_cells_v2
10x_cells_v2_CAAGGCCCAAGTTAAG-11L8TX_171026_01_C05	1	2	4	2	2.6959175811085108	-4.59203662934472	10x_cells_v2
10x_cells_v2_CGCTATCCAGGTTTCA-11L8TX_171026_01_C05	1	2	4	2	2.743735623374966	-4.773562873887869	10x_cells_v2
10x_cells_v2_CGTCTACTCTAGAGTC-11L8TX_171026_01_C05	1	2	2	1	4.095627336438501	-3.3041946410006076	10x_cells_v2
10x_cells_v2_GCAGCCAAGGGTTCCC-11L8TX_171026_01_C05	1	2	2	1	3.138720139609758	-3.8471972591784036	10x_cells_v2
10x_cells_v2_GGACAGACATCGTCGG-11L8TX_171026_01_C05	1	2	2	1	3.0024178522994864	-4.258555579946278	10x_cells_v2
10x_cells_v2_GTACTCCTCCTCTAGC-11L8TX_171026_01_C05	1	2	2	1	5.367721690244567	-2.3644510899771176	10x_cells_v2
10x_cells_v2_GTAGGCCAGGCTACGA-11L8TX_171026_01_C05	1	2	2	1	3.4358495083293694	-3.032524738774159	10x_cells_v2
10x_cells_v2_TACCTATTCAACACGT-11L8TX_171026_01_C05	1	2	2	1	3.9988966663186973	-3.5724112902507925	10x_cells_v2
10x_cells_v2_CCTACCACATGGATGG-12L8TX_171026_01_D05	1	2	2	1	4.154456215419199	-2.7062699793166023	10x_cells_v2
10x_cells_v2_CGCGGTAGTTCCAACA-12L8TX_171026_01_D05	1	2	2	1	3.4626213847486826	-2.293027255136864	10x_cells_v2
10x_cells_v2_GCCTCTATCGCATGGC-12L8TX_171026_01_D05	1	2	4	2	2.594337886743798	-4.75548270481909	10x_cells_v2
10x_cells_v2_GCTCCTAAGAGTGACC-12L8TX_171026_01_D05	1	2	2	1	3.9062452533129735	-3.24705158535398	10x_cells_v2
10x_cells_v2_TGGACGCCACAACGCC-12L8TX_171026_01_D05	1	2	2	1	2.9066446783139352	-0.7350098085506246	10x_cells_v2
10x_cells_v2_AAAGCAAAGAGACGAA-13L8TX_171026_01_E05	1	2	2	1	4.111968223320046	-1.6333340358756008	10x_cells_v2
10x_cells_v2_AGAATAGCACTGTGTA-13L8TX_171026_01_E05	1	2	2	1	3.9878026566371476	-2.4507139507142672	10x_cells_v2
10x_cells_v2_AGCATACGTCTGCAAT-13L8TX_171026_01_E05	1	2	2	1	4.144940316974595	-2.4108945837446822	10x_cells_v2
10x_cells_v2_CATATTCCAGCTCCGA-13L8TX_171026_01_E05	1	2	4	2	1.6484498969499368	-4.215078475316618	10x_cells_v2
10x_cells_v2_CATCCACAGCAACGGT-13L8TX_171026_01_E05	1	2	2	1	4.0700116459041285	-1.341266493920241	10x_cells_v2
10x_cells_v2_CCCTCCTAGTGAATTG-13L8TX_171026_01_E05	1	2	2	1	4.66426157535881	-2.0380569057990323	10x_cells_v2
10x_cells_v2_CCTTCCCGTCATATCG-13L8TX_171026_01_E05	1	2	2	1	4.466962975720149	-2.9459759324810846	10x_cells_v2
10x_cells_v2_CGAACATCAGTCGTGC-13L8TX_171026_01_E05	1	2	2	1	4.317600648996086	-3.4565498511529156	10x_cells_v2
10x_cells_v2_CGACCTTGTTCCACGG-13L8TX_171026_01_E05	1	2	2	1	4.219936859815549	-2.7979750663100487	10x_cells_v2
10x_cells_v2_CGGAGCTAGCCACGCT-13L8TX_171026_01_E05	1	2	4	2	2.132427016425071	-4.439101104737209	10x_cells_v2
10x_cells_v2_CGTGTCTGTTAAAGAC-13L8TX_171026_01_E05	1	2	4	2	2.357274384848099	-4.716318937410189	10x_cells_v2
10x_cells_v2_CTCGTCAAGCCTCGTG-13L8TX_171026_01_E05	1	2	2	1	3.0689246724141546	-1.7212177023729107	10x_cells_v2
10x_cells_v2_GAAGCAGTCTATCCCG-13L8TX_171026_01_E05	1	2	2	1	4.409629307145715	-2.4849261544035843	10x_cells_v2
10x_cells_v2_GACGGCTCATGACGGA-13L8TX_171026_01_E05	1	2	2	1	4.0611324671195	-3.5884396406804555	10x_cells_v2
10x_cells_v2_GACTGCGGTCGCGAAA-13L8TX_171026_01_E05	1	2	2	1	4.7272877983568655	-3.0144140765146976	10x_cells_v2
10x_cells_v2_GAGTCCGAGGTGTTAA-13L8TX_171026_01_E05	1	2	2	1	4.961993777803515	-1.4048230804914141	10x_cells_v2
10x_cells_v2_GATCGTATCCGTCAAA-13L8TX_171026_01_E05	1	2	4	2	2.022843233452993	-4.583583353406649	10x_cells_v2
10x_cells_v2_GATGCTATCCTCTAGC-13L8TX_171026_01_E05	1	2	2	1	4.741746318521596	-1.0347860165585612	10x_cells_v2
10x_cells_v2_GCGCAACTCAGTTAGC-13L8TX_171026_01_E05	1	2	2	1	4.586497047873833	-2.6117416580230723	10x_cells_v2
10x_cells_v2_GGTGTTACATGCCTTC-13L8TX_171026_01_E05	1	2	2	1	4.105954534841497	-1.22851998027302	10x_cells_v2
10x_cells_v2_TGAGGGAAGGCCATAG-13L8TX_171026_01_E05	1	2	4	2	2.615751096233306	-4.826710878524792	10x_cells_v2
10x_cells_v2_TGGCTGGTCACGCATA-13L8TX_171026_01_E05	2	1	4	2	2.1554064835817313	-1.4337905821910981	10x_cells_v2
10x_cells_v2_TGTGGTATCCTCATTA-13L8TX_171026_01_E05	1	2	2	1	3.429376480403894	-0.41077308109569227	10x_cells_v2
10x_cells_v2_TTAGGCATCCAGGGCT-13L8TX_171026_01_E05	1	2	2	1	4.014064892377532	-3.473799737084866	10x_cells_v2
10x_cells_v2_ACACCGGAGAGTGAGA-14L8TX_171026_01_F05	1	2	2	1	3.913523522958529	-3.6948467196928627	10x_cells_v2
10x_cells_v2_ACGAGGATCCCAGGTG-14L8TX_171026_01_F05	1	2	2	1	4.920948304058389	-2.0729688053657176	10x_cells_v2
10x_cells_v2_CAGCTGGGTTTGACTG-14L8TX_171026_01_F05	1	2	2	1	3.266743225448996	-2.2607245582513458	10x_cells_v2
10x_cells_v2_CATATTCGTGGAAAGA-14L8TX_171026_01_F05	1	2	2	1	5.47550541775599	-2.5258540178315587	10x_cells_v2
