FangmingXie/SingleCellFusion_dev/example_l5pt/results/intg_summary_test_scf_mouse_mop.tsv
sample	cluster_joint_r0.1	cluster_joint_r0.2	cluster_joint_r0.4	cluster_joint_r0.8	tsne_x	tsne_y	modality
snmcseq_gene_2C_M_1054	1	3	4	3	8.638421187545243	2.0145328492789263	snmcseq_gene
snmcseq_gene_2C_M_106	1	3	4	3	10.020722605011652	1.4036934527111118	snmcseq_gene
snmcseq_gene_2C_M_1076	1	3	4	3	9.478216308883704	2.520366152036716	snmcseq_gene
snmcseq_gene_2C_M_1078	1	2	1	1	7.99782404636263	-2.6977928913083624	snmcseq_gene
snmcseq_gene_2C_M_1110	1	2	1	1	9.317916144642131	-4.620714137266231	snmcseq_gene
snmcseq_gene_2C_M_1152	1	3	4	3	10.29745715174664	1.4809733166577106	snmcseq_gene
snmcseq_gene_2C_M_1238	1	2	1	1	7.129535686640287	-3.27776365781522	snmcseq_gene
snmcseq_gene_2C_M_1279	1	3	4	3	9.486440692451723	0.893436126429596	snmcseq_gene
snmcseq_gene_2C_M_1359	1	2	1	1	7.30361105084713	-5.5611172121062715	snmcseq_gene
snmcseq_gene_2C_M_1392	2	1	2	2	1.0705332594071815	1.2160737213377948	snmcseq_gene
snmcseq_gene_2C_M_1398	1	3	4	3	7.943069331665802	1.6194006147986153	snmcseq_gene
snmcseq_gene_2C_M_1446	1	2	1	1	9.430498311654176	-2.572040921107341	snmcseq_gene
snmcseq_gene_2C_M_1540	2	1	2	2	0.30615617304859216	1.2585771478235592	snmcseq_gene
snmcseq_gene_2C_M_1559	1	3	4	3	7.9950655788643115	1.114450499786999	snmcseq_gene
snmcseq_gene_2C_M_1563	1	3	4	3	9.203219935019803	1.087395606565211	snmcseq_gene
snmcseq_gene_2C_M_1599	1	2	1	1	7.828755988117719	-4.5756174218032655	snmcseq_gene
snmcseq_gene_2C_M_1610	1	3	4	3	8.52036278587322	0.14632174281061303	snmcseq_gene
snmcseq_gene_2C_M_1644	2	1	2	2	1.5852054877896489	1.5419288586888122	snmcseq_gene
snmcseq_gene_2C_M_1678	1	3	4	3	8.161618017202604	-0.060543818382105465	snmcseq_gene
snmcseq_gene_2C_M_1697	1	3	3	5	6.069366225681738	0.315615826616483	snmcseq_gene
snmcseq_gene_2C_M_1758	1	3	3	5	6.149033988246772	0.611981141157136	snmcseq_gene
snmcseq_gene_2C_M_1793	1	3	4	3	10.00018766776594	1.2836752783055163	snmcseq_gene
snmcseq_gene_2C_M_1808	1	2	1	1	7.444054468414022	-5.143347267090529	snmcseq_gene
snmcseq_gene_2C_M_1844	2	1	3	5	4.634386513367094	-0.00025478915832041917	snmcseq_gene
snmcseq_gene_2C_M_1913	1	2	1	1	8.04621425662215	-2.3824206490348665	snmcseq_gene
snmcseq_gene_2C_M_1989	1	2	1	1	6.389426440303751	-5.546078194094048	snmcseq_gene
snmcseq_gene_2C_M_1990	2	3	3	5	5.769695062469968	1.0473675849170203	snmcseq_gene
snmcseq_gene_2C_M_2014	1	3	4	3	9.202032908897563	1.0424690005420996	snmcseq_gene
snmcseq_gene_2C_M_2025	1	2	1	1	8.436535040675771	-3.4967694496506	snmcseq_gene
snmcseq_gene_2C_M_2039	1	3	4	3	7.000029705840473	1.493278780418739	snmcseq_gene
snmcseq_gene_2C_M_2062	1	3	3	5	7.155246228569516	1.1625629667434954	snmcseq_gene
snmcseq_gene_2C_M_2064	2	1	2	2	1.5848863241392694	3.1719623015742227	snmcseq_gene
snmcseq_gene_2C_M_2192	1	2	1	1	8.138141746180212	-4.574808774905	snmcseq_gene
snmcseq_gene_2C_M_2205	2	1	3	5	3.4944684667683976	1.0155828024213693	snmcseq_gene
snmcseq_gene_2C_M_244	1	2	1	1	6.92105887218401	-2.3131510994499425	snmcseq_gene
snmcseq_gene_2C_M_248	1	3	3	5	7.6482308417137554	0.14772745935780582	snmcseq_gene
snmcseq_gene_2C_M_260	1	3	4	3	10.054132778016085	2.4247169308647227	snmcseq_gene
snmcseq_gene_2C_M_272	1	3	4	3	8.138743654919654	0.3343175028009252	snmcseq_gene
snmcseq_gene_2C_M_296	1	2	1	1	8.63367210732327	-4.331655595323102	snmcseq_gene
snmcseq_gene_2C_M_396	1	3	4	3	8.003180171814895	0.9455622839892289	snmcseq_gene
snmcseq_gene_2C_M_411	1	2	1	1	8.733776535266996	-2.1465759213923015	snmcseq_gene
snmcseq_gene_2C_M_412	1	3	4	3	9.619018809731703	-0.7642944453386353	snmcseq_gene
snmcseq_gene_2C_M_454	1	3	4	3	9.767791788577387	2.2302394321242494	snmcseq_gene
snmcseq_gene_2C_M_464	2	1	2	2	0.8377966204877346	0.4795625922686413	snmcseq_gene
snmcseq_gene_2C_M_525	1	3	4	3	9.911307070441154	1.8891178129831703	snmcseq_gene
snmcseq_gene_2C_M_574	1	3	4	5	6.866340710218764	1.3404660691141324	snmcseq_gene
snmcseq_gene_2C_M_608	1	3	3	5	7.23280401640829	0.46355042928984025	snmcseq_gene
snmcseq_gene_2C_M_676	2	1	3	4	2.9306819137459095	-0.613517483317275	snmcseq_gene
snmcseq_gene_2C_M_726	1	3	4	3	8.600041660211787	1.8117153561232775	snmcseq_gene
snmcseq_gene_2C_M_760	1	2	1	1	7.537794520676927	-3.976880056284805	snmcseq_gene
snmcseq_gene_2C_M_806	1	3	4	3	9.014361402334911	0.6801437962799243	snmcseq_gene
snmcseq_gene_2C_M_82	1	3	4	3	8.386120688425997	-0.587269580968097	snmcseq_gene
snmcseq_gene_2C_M_921	1	3	3	5	6.334078997540587	0.9812740510957787	snmcseq_gene
snmcseq_gene_2C_M_942	1	2	1	1	9.502884045872335	-3.025839162323354	snmcseq_gene
snmcseq_gene_2C_M_972	1	3	4	3	9.821758501610653	0.9042681317959412	snmcseq_gene
snmcseq_gene_2C_M_976	2	1	3	5	4.028764061606746	1.2860540493425592	snmcseq_gene
snmcseq_gene_3C_M_1026	2	1	2	2	1.4098797686734157	0.8608661435671193	snmcseq_gene
snmcseq_gene_3C_M_1060	2	1	2	2	1.2193617580888327	1.8014042764824532	snmcseq_gene
snmcseq_gene_3C_M_1065	1	2	1	1	8.506590555044362	-4.8314811475011865	snmcseq_gene
snmcseq_gene_3C_M_1087	1	2	1	1	7.9795811992050485	-5.441250509609353	snmcseq_gene
snmcseq_gene_3C_M_111	1	3	3	5	6.5460916612853435	0.6600705909771961	snmcseq_gene
snmcseq_gene_3C_M_1123	1	2	1	1	8.044973399242345	-3.584218328148263	snmcseq_gene
snmcseq_gene_3C_M_1137	1	2	1	1	6.453353859755515	-2.3332346504562134	snmcseq_gene
snmcseq_gene_3C_M_116	1	2	1	1	8.695297084636579	-4.012745819126607	snmcseq_gene
snmcseq_gene_3C_M_1178	2	1	3	4	3.5045689455941993	-1.4895677122459814	snmcseq_gene
snmcseq_gene_3C_M_1186	2	1	3	4	2.6178926688838957	-1.1982692683188405	snmcseq_gene
snmcseq_gene_3C_M_1189	1	3	4	3	9.328636083457704	-0.9739536022182845	snmcseq_gene
snmcseq_gene_3C_M_1211	1	2	1	1	8.98573768085464	-4.14033744967183	snmcseq_gene
snmcseq_gene_3C_M_1301	2	1	2	2	0.338212734917822	1.2978053043861761	snmcseq_gene
snmcseq_gene_3C_M_1330	1	3	4	3	9.275195093035634	1.4908232933695278	snmcseq_gene
snmcseq_gene_3C_M_1342	1	2	1	1	7.87239056054428	-5.57895372190107	snmcseq_gene
snmcseq_gene_3C_M_1355	1	3	4	3	8.89761683798436	2.6961786603013618	snmcseq_gene
snmcseq_gene_3C_M_1405	1	3	4	3	10.274193961872149	1.5472485868366876	snmcseq_gene
snmcseq_gene_3C_M_1416	1	3	4	3	10.521570967350387	1.2996655011953575	snmcseq_gene
snmcseq_gene_3C_M_1476	1	3	4	3	8.867954125410863	0.31625561253304296	snmcseq_gene
snmcseq_gene_3C_M_1487	2	1	3	5	4.410428241572737	0.6756942066254081	snmcseq_gene
snmcseq_gene_3C_M_1493	2	1	3	5	3.4727176001762663	1.4788720981498278	snmcseq_gene
snmcseq_gene_3C_M_1548	2	1	3	4	3.1023496171023606	-1.6190957907849255	snmcseq_gene
snmcseq_gene_3C_M_1571	1	3	4	3	7.568279219368515	1.3868670929505054	snmcseq_gene
snmcseq_gene_3C_M_1579	1	2	4	3	9.676562847647675	-1.0491565382857035	snmcseq_gene
snmcseq_gene_3C_M_1596	1	2	1	1	9.795326725948039	-2.1887410329877417	snmcseq_gene
snmcseq_gene_3C_M_1631	1	3	3	5	5.128653658313108	0.05445037415073008	snmcseq_gene
snmcseq_gene_3C_M_1638	1	3	4	3	7.416151553594871	1.6150062720560279	snmcseq_gene
snmcseq_gene_3C_M_1639	1	3	4	3	8.80651826797838	-0.13538115983956708	snmcseq_gene
snmcseq_gene_3C_M_1648	2	1	3	4	2.7431012418188185	-1.0658151888452128	snmcseq_gene
snmcseq_gene_3C_M_1736	1	2	1	1	7.376111809779055	-4.086416410421112	snmcseq_gene
snmcseq_gene_3C_M_1787	1	2	1	1	9.651526621709841	-3.407682996668172	snmcseq_gene
snmcseq_gene_3C_M_1846	1	2	1	1	8.618693567156875	-3.7465742704406333	snmcseq_gene
snmcseq_gene_3C_M_187	2	1	3	5	4.558189014164307	0.13203361350370454	snmcseq_gene
snmcseq_gene_3C_M_193	1	3	4	3	8.203451024709533	2.0969177188432178	snmcseq_gene
snmcseq_gene_3C_M_1961	1	2	1	1	7.1215568886692076	-5.417362382537343	snmcseq_gene
snmcseq_gene_3C_M_1964	2	1	2	2	1.5542529211798053	1.4245699319495675	snmcseq_gene
snmcseq_gene_3C_M_1973	1	2	1	1	9.024351013669557	-3.7628306340545543	snmcseq_gene
snmcseq_gene_3C_M_2006	2	1	3	5	4.54109581791198	0.18949569193103444	snmcseq_gene
snmcseq_gene_3C_M_201	2	1	3	4	3.9160600084135897	-1.1705284691568152	snmcseq_gene
snmcseq_gene_3C_M_2067	2	1	3	4	2.8262620362668103	-1.7062406697491335	snmcseq_gene
snmcseq_gene_3C_M_2082	2	1	3	4	3.085393187996028	-0.6471854606470729	snmcseq_gene
snmcseq_gene_3C_M_2126	2	1	3	5	4.79040699835217	0.6433372983752825	snmcseq_gene
snmcseq_gene_3C_M_2130	2	1	3	5	4.073677008450249	0.9717873794470245	snmcseq_gene
snmcseq_gene_3C_M_2149	1	2	1	1	9.209212265308029	-4.0108576453567695	snmcseq_gene
snmcseq_gene_3C_M_217	2	1	2	2	1.280095277263089	2.3780089870606247	snmcseq_gene
snmcseq_gene_3C_M_2229	2	1	3	5	4.356359865779409	0.3443987108377782	snmcseq_gene
snmcseq_gene_3C_M_2249	2	1	2	2	0.8443234463454682	1.5936641219025471	snmcseq_gene
snmcseq_gene_3C_M_2266	1	3	4	3	9.251343571250182	0.44419683530984305	snmcseq_gene
snmcseq_gene_3C_M_2290	2	1	2	2	2.0044294075297047	0.26179381554387077	snmcseq_gene
snmcseq_gene_3C_M_2308	1	2	1	1	8.732413521747768	-4.4582642759681725	snmcseq_gene
snmcseq_gene_3C_M_2318	1	2	1	1	8.252901620914754	-4.55739033730118	snmcseq_gene
snmcseq_gene_3C_M_2353	1	3	4	3	9.187051023611664	1.2522738532739408	snmcseq_gene
snmcseq_gene_3C_M_2394	1	2	1	1	8.367760765114097	-4.929074466492415	snmcseq_gene
snmcseq_gene_3C_M_2446	2	1	3	4	3.604110064772185	-1.859260305688778	snmcseq_gene
snmcseq_gene_3C_M_2459	1	2	1	1	8.918870210960764	-3.791932231805847	snmcseq_gene
snmcseq_gene_3C_M_266	2	1	3	5	3.9638095397837514	-0.08376512282764809	snmcseq_gene
snmcseq_gene_3C_M_268	2	1	3	4	3.4949732660446577	-1.694048983694888	snmcseq_gene
snmcseq_gene_3C_M_275	1	3	4	3	9.146619016777569	2.004633869135079	snmcseq_gene
snmcseq_gene_3C_M_278	2	1	2	2	0.9793785650209367	2.6837929531350726	snmcseq_gene
snmcseq_gene_3C_M_299	2	1	3	4	3.3867437894310264	-1.7138152508343523	snmcseq_gene
snmcseq_gene_3C_M_386	2	1	2	2	0.9457649090004823	2.334231967898873	snmcseq_gene
snmcseq_gene_3C_M_465	1	3	4	3	9.758170159347635	-0.7096928621433938	snmcseq_gene
snmcseq_gene_3C_M_467	2	1	2	2	1.507675671612121	1.9319320041629862	snmcseq_gene
snmcseq_gene_3C_M_488	1	2	1	1	8.077769508973242	-3.8103397367510072	snmcseq_gene
snmcseq_gene_3C_M_544	1	2	1	1	7.069401653032541	-5.322365829646	snmcseq_gene
snmcseq_gene_3C_M_546	1	3	4	3	9.873784503051919	0.5337478462242085	snmcseq_gene
snmcseq_gene_3C_M_62	1	3	4	3	10.404179520880646	0.9531168740045056	snmcseq_gene
snmcseq_gene_3C_M_621	1	2	1	1	7.626727424651379	-4.136878385699043	snmcseq_gene
snmcseq_gene_3C_M_625	2	1	3	4	2.6012683676395363	-0.4746314874217803	snmcseq_gene
snmcseq_gene_3C_M_63	2	1	2	2	0.4081709414129425	1.0632453822728067	snmcseq_gene
snmcseq_gene_3C_M_655	1	2	1	1	7.476727403443614	-4.582062530056593	snmcseq_gene
snmcseq_gene_3C_M_656	2	1	3	4	2.617510735476225	-0.5440238813126299	snmcseq_gene
snmcseq_gene_3C_M_664	1	2	1	1	7.991054748013688	-4.320542399984351	snmcseq_gene
snmcseq_gene_3C_M_665	1	2	1	1	8.111770984046837	-5.348825528546608	snmcseq_gene
snmcseq_gene_3C_M_686	2	1	2	2	1.095249255519937	2.566447549141838	snmcseq_gene
snmcseq_gene_3C_M_693	1	2	1	1	9.334138201621524	-4.3097022151921704	snmcseq_gene
snmcseq_gene_3C_M_793	1	3	4	3	8.430393921368427	0.07665683330601059	snmcseq_gene
snmcseq_gene_3C_M_82	1	3	4	3	9.194951290780919	2.652623138570405	snmcseq_gene
snmcseq_gene_3C_M_878	2	1	2	2	2.13352195799195	0.3425374895070494	snmcseq_gene
snmcseq_gene_3C_M_895	1	3	4	3	9.39613767447384	0.05895215980334815	snmcseq_gene
snmcseq_gene_3C_M_926	1	3	4	3	9.75013972125378	0.4157083598737079	snmcseq_gene
snmcseq_gene_3C_M_944	1	3	4	3	9.70505699917306	-0.04141023908601728	snmcseq_gene
snmcseq_gene_3C_M_946	1	2	1	1	8.23453212411707	-5.1966314623365015	snmcseq_gene
snmcseq_gene_3C_M_953	1	2	1	1	8.391060896428693	-5.361945193817155	snmcseq_gene
snmcseq_gene_3C_M_978	2	1	3	4	4.137573215425249	-1.0083293483798927	snmcseq_gene
snmcseq_gene_4B_M_1017	2	1	3	4	2.572342586236918	-1.4883429701856132	snmcseq_gene
snmcseq_gene_4B_M_106	1	2	1	1	6.892079335196564	-5.497239540163048	snmcseq_gene
snmcseq_gene_4B_M_1087	2	1	3	5	4.197567154034494	1.0964612491009997	snmcseq_gene
snmcseq_gene_4B_M_1185	2	1	2	2	2.7466566164280937	1.586444808302858	snmcseq_gene
snmcseq_gene_4B_M_1215	1	3	4	3	9.613269467236353	2.7850686291923994	snmcseq_gene
snmcseq_gene_4B_M_125	1	2	1	1	8.832602875523756	-4.790515818928237	snmcseq_gene
snmcseq_gene_4B_M_1262	2	1	2	2	1.4202821305352653	2.103668957261067	snmcseq_gene
snmcseq_gene_4B_M_1269	1	3	4	3	9.552763818432	1.3985912720418034	snmcseq_gene
snmcseq_gene_4B_M_1330	1	2	1	1	8.496964141815845	-3.695413838788591	snmcseq_gene
snmcseq_gene_4B_M_1334	1	2	1	1	7.918712562091311	-5.480637747374552	snmcseq_gene
snmcseq_gene_4B_M_1340	2	3	3	5	5.628849252874501	0.12147761559916609	snmcseq_gene
snmcseq_gene_4B_M_1350	1	2	1	1	7.569707109029725	-5.110419278253179	snmcseq_gene
snmcseq_gene_4B_M_1416	1	3	4	3	8.527399917319961	0.8813769402781331	snmcseq_gene
snmcseq_gene_4B_M_1448	1	3	4	3	9.992796998430665	1.4154094920380962	snmcseq_gene
snmcseq_gene_4B_M_1483	2	1	2	2	0.979820702071111	2.867027904741265	snmcseq_gene
snmcseq_gene_4B_M_1485	1	3	4	3	8.261978150335693	2.2301914328236188	snmcseq_gene
snmcseq_gene_4B_M_1486	1	2	1	1	8.495898744695173	-2.4302289792191503	snmcseq_gene
snmcseq_gene_4B_M_1490	2	1	3	4	2.904613595425581	-0.14015952312189994	snmcseq_gene
snmcseq_gene_4B_M_1519	1	2	1	1	8.650966449854534	-3.6014764677548983	snmcseq_gene
snmcseq_gene_4B_M_1537	1	3	4	3	9.152810347665167	-0.41570823939752627	snmcseq_gene
snmcseq_gene_4B_M_1543	2	1	2	2	1.7231433505033753	-0.3235624352069183	snmcseq_gene
snmcseq_gene_4B_M_1557	1	3	4	3	8.344230976171742	2.1666183638315064	snmcseq_gene
snmcseq_gene_4B_M_1580	1	2	1	1	7.07468381136478	-3.70736769824771	snmcseq_gene
snmcseq_gene_4B_M_1581	2	1	2	2	1.3166804650248352	1.9932234540087965	snmcseq_gene
snmcseq_gene_4B_M_1583	2	1	2	2	1.6892059484581534	1.929737661625437	snmcseq_gene
snmcseq_gene_4B_M_1584	2	1	3	5	3.915019678555573	-0.2012263303615328	snmcseq_gene
snmcseq_gene_4B_M_1608	2	1	2	2	0.5503871904899262	0.2173818525771912	snmcseq_gene
snmcseq_gene_4B_M_1610	2	1	2	2	1.0381022168444438	1.9909240346742156	snmcseq_gene
snmcseq_gene_4B_M_1613	2	1	2	2	1.2753199114969698	1.10505488238025	snmcseq_gene
snmcseq_gene_4B_M_1614	1	2	1	1	7.628387345907827	-4.728518110876959	snmcseq_gene
snmcseq_gene_4B_M_1624	1	2	1	1	7.635498341606752	-4.280274307176955	snmcseq_gene
snmcseq_gene_4B_M_1655	2	1	3	7	4.239783140808776	-0.6116695622318592	snmcseq_gene
snmcseq_gene_4B_M_173	1	3	4	3	9.321158884312364	1.8290326853143666	snmcseq_gene
snmcseq_gene_4B_M_1896	1	2	1	1	8.326175977928738	-4.0928733572941844	snmcseq_gene
snmcseq_gene_4B_M_1909	2	1	2	2	1.5038717833127115	0.3068622421393969	snmcseq_gene
snmcseq_gene_4B_M_1915	1	2	1	1	7.6916677809952745	-3.3254685355768157	snmcseq_gene
snmcseq_gene_4B_M_1928	1	2	1	1	6.918567115655916	-5.475126016653626	snmcseq_gene
snmcseq_gene_4B_M_198	2	1	2	2	0.7521286597244711	0.6991977889021921	snmcseq_gene
snmcseq_gene_4B_M_1989	1	3	4	3	9.374802912746807	2.032414377831076	snmcseq_gene
snmcseq_gene_4B_M_2005	2	1	3	4	3.1194635915522233	-1.7070994376156272	snmcseq_gene
snmcseq_gene_4B_M_2023	2	1	2	2	1.8789497659823915	1.7227712463838623	snmcseq_gene
snmcseq_gene_4B_M_2080	1	2	1	1	9.271679385240297	-4.781865840654772	snmcseq_gene
snmcseq_gene_4B_M_2133	1	3	4	3	10.090742558083821	1.9150566828972222	snmcseq_gene
snmcseq_gene_4B_M_215	1	2	1	1	7.228736821891901	-4.552802619045557	snmcseq_gene
snmcseq_gene_4B_M_22	1	2	1	1	7.361467711529338	-5.631495236309543	snmcseq_gene
snmcseq_gene_4B_M_221	1	2	1	1	8.900162956080154	-4.0410958261431595	snmcseq_gene
snmcseq_gene_4B_M_2218	1	2	1	1	8.782738598720265	-1.3409333950387639	snmcseq_gene
snmcseq_gene_4B_M_2240	1	2	1	1	7.850718389693224	-4.277620276395064	snmcseq_gene
snmcseq_gene_4B_M_2264	1	3	4	3	9.330966801421948	1.0091435230416896	snmcseq_gene
snmcseq_gene_4B_M_2325	2	1	2	2	1.1449482747613902	2.885225809757852	snmcseq_gene
snmcseq_gene_4B_M_2329	2	1	3	4	3.7351342115519133	-0.8229809258403711	snmcseq_gene
snmcseq_gene_4B_M_2343	2	1	3	7	4.89096783696975	-1.118554223862432	snmcseq_gene
snmcseq_gene_4B_M_2350	1	3	3	5	5.909579423632398	-0.49842071651048075	snmcseq_gene
snmcseq_gene_4B_M_2369	2	1	3	4	2.893347681148506	-1.8713204019383551	snmcseq_gene
snmcseq_gene_4B_M_2429	2	1	3	4	4.354408367879073	-0.48004699796337197	snmcseq_gene
snmcseq_gene_4B_M_251	1	3	4	3	9.37657951446523	2.428428577087639	snmcseq_gene
snmcseq_gene_4B_M_2536	2	1	2	2	1.716485967966698	0.9007138904578353	snmcseq_gene
snmcseq_gene_4B_M_2539	2	1	2	2	0.8581928338075612	1.6495277830570292	snmcseq_gene
snmcseq_gene_4B_M_2555	2	1	2	2	2.199323184586338	2.19335197649162	snmcseq_gene
snmcseq_gene_4B_M_2562	1	3	4	3	7.4998089025562695	1.5559249397149726	snmcseq_gene
snmcseq_gene_4B_M_2566	1	2	1	1	8.794963975190921	-3.5039363518560056	snmcseq_gene
snmcseq_gene_4B_M_2571	1	3	4	3	9.831738957699898	1.9280888046495244	snmcseq_gene
snmcseq_gene_4B_M_2634	2	1	3	5	3.4585899151950685	-0.09586870809603566	snmcseq_gene
snmcseq_gene_4B_M_2651	1	2	1	1	7.4579251275293785	-3.139124956022602	snmcseq_gene
snmcseq_gene_4B_M_267	1	3	4	3	8.620517548770424	2.367082698817756	snmcseq_gene
snmcseq_gene_4B_M_2771	2	1	2	2	1.731870245574414	0.7633684893418479	snmcseq_gene
snmcseq_gene_4B_M_2774	1	2	1	1	6.325821120715658	-2.2890715776903896	snmcseq_gene
snmcseq_gene_4B_M_2815	1	2	1	1	8.653723038476894	-3.3221870515700043	snmcseq_gene
snmcseq_gene_4B_M_283	2	1	3	4	3.5671446928562722	-2.055436823507531	snmcseq_gene
snmcseq_gene_4B_M_373	1	3	4	3	10.104226513703699	0.963682937355642	snmcseq_gene
snmcseq_gene_4B_M_386	2	1	2	2	1.448197603366173	1.1461924285527703	snmcseq_gene
snmcseq_gene_4B_M_418	1	3	4	3	9.050696334010812	0.889835534983654	snmcseq_gene
snmcseq_gene_4B_M_448	2	1	3	4	3.1133539101150642	-0.9321736247681279	snmcseq_gene
snmcseq_gene_4B_M_529	2	1	3	4	2.9566252982136225	-1.7795415145894702	snmcseq_gene
snmcseq_gene_4B_M_532	1	2	1	1	6.837613824303302	-5.523378974428293	snmcseq_gene
snmcseq_gene_4B_M_545	1	3	4	3	9.546416642873218	1.8531909120771193	snmcseq_gene
snmcseq_gene_4B_M_630	1	2	1	1	7.885430458884016	-5.581760181604008	snmcseq_gene
snmcseq_gene_4B_M_640	2	1	2	2	2.385748688626181	-0.04867776223198377	snmcseq_gene
snmcseq_gene_4B_M_671	1	2	1	1	7.559589802055179	-5.427260022015458	snmcseq_gene
snmcseq_gene_4B_M_700	1	3	3	5	6.683038069489533	1.0516123630066354	snmcseq_gene
snmcseq_gene_4B_M_724	1	3	4	3	9.799432207917471	2.2326861338817934	snmcseq_gene
snmcseq_gene_4B_M_76	1	3	4	3	10.25275998384965	1.2385234230778428	snmcseq_gene
snmcseq_gene_4B_M_791	1	3	4	3	7.61370535262721	1.7981418666195748	snmcseq_gene
snmcseq_gene_4B_M_831	1	2	1	1	9.392094011561603	-4.504372149277165	snmcseq_gene
snmcseq_gene_4B_M_891	2	1	2	2	1.6143432553651673	0.17898564335146447	snmcseq_gene
snmcseq_gene_4B_M_9	2	1	3	4	3.1064464443885713	-1.3535459320792427	snmcseq_gene
snmcseq_gene_4B_M_949	2	1	3	5	3.5575117419973736	1.660235171742112	snmcseq_gene
snmcseq_gene_5D_M_1007	2	1	3	4	2.8577698563668292	-1.1203845998777846	snmcseq_gene
snmcseq_gene_5D_M_1068	2	1	3	4	3.241577964190128	-1.258516140676747	snmcseq_gene
snmcseq_gene_5D_M_1086	1	3	4	3	9.631062893931912	1.6550453340708886	snmcseq_gene
snmcseq_gene_5D_M_1143	1	2	1	1	8.239808904533199	-5.329197017881207	snmcseq_gene
snmcseq_gene_5D_M_1202	2	1	2	2	1.5470757754700493	0.7053464089571744	snmcseq_gene
snmcseq_gene_5D_M_1231	1	2	1	1	9.515794558650189	-3.4574727261392533	snmcseq_gene
snmcseq_gene_5D_M_1246	1	3	4	3	8.913476478947235	0.773482298540871	snmcseq_gene
snmcseq_gene_5D_M_1261	2	1	3	4	3.243374647200789	-1.7541574422671706	snmcseq_gene
snmcseq_gene_5D_M_1275	1	2	1	1	7.646558791052201	-5.372496784926518	snmcseq_gene
snmcseq_gene_5D_M_1311	1	3	4	3	9.12950614264251	1.4636398000449322	snmcseq_gene
snmcseq_gene_5D_M_1348	1	3	4	3	8.5441423964997	1.21571905193131	snmcseq_gene
snmcseq_gene_5D_M_1385	2	3	3	5	5.177499257262005	0.07421763134254487	snmcseq_gene
snmcseq_gene_5D_M_1431	2	1	3	4	3.370080393077217	-0.495364609751903	snmcseq_gene
snmcseq_gene_5D_M_1436	2	1	2	2	1.1405779677166452	0.48598728450532724	snmcseq_gene
snmcseq_gene_5D_M_1470	2	1	3	7	5.721713706430464	-2.0994650108959503	snmcseq_gene
snmcseq_gene_5D_M_1505	2	1	3	4	2.52005510714841	-0.9768611760844597	snmcseq_gene
snmcseq_gene_5D_M_1519	1	2	1	1	6.876461022543833	-3.683587010221454	snmcseq_gene
snmcseq_gene_5D_M_1538	1	3	1	3	9.210689881831437	-1.0277812064729601	snmcseq_gene
snmcseq_gene_5D_M_1557	2	1	3	7	5.306474574019618	-0.8000435491066685	snmcseq_gene
snmcseq_gene_5D_M_1564	1	3	4	3	7.723256078862282	0.9800411809127864	snmcseq_gene
snmcseq_gene_5D_M_1569	2	1	2	4	1.73546847597622	-0.7659388483363099	snmcseq_gene
snmcseq_gene_5D_M_16	1	2	1	1	9.566008124317225	-4.119942104728976	snmcseq_gene
snmcseq_gene_5D_M_1604	2	1	2	2	1.5518229177662617	-0.5952934138674941	snmcseq_gene
snmcseq_gene_5D_M_162	1	3	4	3	10.556124240773608	0.8572104974922834	snmcseq_gene
snmcseq_gene_5D_M_1700	1	3	3	5	6.204386269528261	0.9442411706632313	snmcseq_gene
snmcseq_gene_5D_M_1725	1	3	4	3	9.821821120881848	2.208438852345667	snmcseq_gene
snmcseq_gene_5D_M_1757	2	1	2	6	1.2027409613955016	-0.9062927896345375	snmcseq_gene
snmcseq_gene_5D_M_178	1	2	1	1	7.285715787094501	-5.346631168375616	snmcseq_gene
snmcseq_gene_5D_M_1786	1	2	1	1	6.537225860893366	-2.8111664882547194	snmcseq_gene
snmcseq_gene_5D_M_1791	1	2	1	1	6.962864853043733	-5.4823744244586825	snmcseq_gene
snmcseq_gene_5D_M_1837	2	1	2	4	1.9419562853189498	-0.5100359813100522	snmcseq_gene
snmcseq_gene_5D_M_1847	2	1	2	2	2.442323533031134	-0.19697293679487518	snmcseq_gene
snmcseq_gene_5D_M_1868	1	1	3	7	5.826609582859208	-2.6430786504914088	snmcseq_gene
snmcseq_gene_5D_M_1889	2	1	2	2	1.7395179397702636	0.3486569795580628	snmcseq_gene
snmcseq_gene_5D_M_1891	1	3	4	3	9.445423794984189	1.5413770514931993	snmcseq_gene
snmcseq_gene_5D_M_1894	1	3	3	3	6.616951468611977	0.18892801606451107	snmcseq_gene
snmcseq_gene_5D_M_1900	1	3	3	5	6.089790631519876	0.2499297991790218	snmcseq_gene
snmcseq_gene_5D_M_1947	2	1	3	7	5.427537189315781	-2.013170629481618	snmcseq_gene
snmcseq_gene_5D_M_1965	2	1	2	2	1.6909345654605639	0.009485856719293256	snmcseq_gene
snmcseq_gene_5D_M_1995	2	1	3	4	2.319988358591221	-0.45492250060376405	snmcseq_gene
snmcseq_gene_5D_M_2062	2	1	3	4	2.9041434083585487	-0.90552575615158	snmcseq_gene
snmcseq_gene_5D_M_2078	2	1	3	5	6.092897301524062	-1.9142536384612925	snmcseq_gene
snmcseq_gene_5D_M_208	2	1	2	2	1.9307466479567084	1.8976027533551527	snmcseq_gene
snmcseq_gene_5D_M_2099	1	3	4	3	10.32283383892217	1.9196803951242671	snmcseq_gene
snmcseq_gene_5D_M_210	2	1	2	2	2.9307948845036496	1.291623318366192	snmcseq_gene
snmcseq_gene_5D_M_2132	2	1	3	7	4.690205987413485	-1.327970648771766	snmcseq_gene
snmcseq_gene_5D_M_2170	2	1	2	2	2.1273578224747767	0.4424863319672495	snmcseq_gene
snmcseq_gene_5D_M_2209	2	1	2	2	1.8445995749933282	0.3691520300985065	snmcseq_gene
snmcseq_gene_5D_M_2229	1	2	1	1	8.181995028740848	-4.88305314141285	snmcseq_gene
snmcseq_gene_5D_M_2255	2	1	3	5	3.610138734335422	1.1968853339305288	snmcseq_gene
snmcseq_gene_5D_M_2291	1	2	1	1	7.6308750319155	-2.183852751357412	snmcseq_gene
snmcseq_gene_5D_M_2302	2	1	2	2	2.093523100041186	1.4593469978634594	snmcseq_gene
snmcseq_gene_5D_M_236	1	3	4	3	9.554721082315424	1.0489910010649244	snmcseq_gene
snmcseq_gene_5D_M_2370	2	1	3	5	3.5124965499140326	0.18660564180887734	snmcseq_gene
snmcseq_gene_5D_M_347	1	2	1	1	6.905908419864735	-2.4775454785899984	snmcseq_gene
snmcseq_gene_5D_M_417	2	1	3	5	4.499791919124597	0.08448920997104283	snmcseq_gene
snmcseq_gene_5D_M_420	2	1	3	4	3.3158219094493786	-1.1294844140152285	snmcseq_gene
snmcseq_gene_5D_M_461	2	1	3	4	3.8037444539569676	-0.8664921590770684	snmcseq_gene
snmcseq_gene_5D_M_591	1	2	1	1	9.13857330560742	-4.248691613529138	snmcseq_gene
snmcseq_gene_5D_M_632	1	3	4	3	8.285055982020191	2.061736217797783	snmcseq_gene
snmcseq_gene_5D_M_634	1	2	1	1	7.3224097861813915	-3.3560198078586425	snmcseq_gene
snmcseq_gene_5D_M_673	1	2	1	1	9.007538724993216	-4.725265240728423	snmcseq_gene
snmcseq_gene_5D_M_738	2	1	2	2	1.220201883236005	-0.018764580010450158	snmcseq_gene
snmcseq_gene_5D_M_753	1	2	1	1	6.566327580734273	-5.357325647691799	snmcseq_gene
snmcseq_gene_5D_M_761	1	3	4	3	10.00837423681709	1.5922411013390545	snmcseq_gene
snmcseq_gene_5D_M_898	1	2	1	1	7.892176077201082	-3.135924324748562	snmcseq_gene
snmcseq_gene_5D_M_922	1	2	1	1	8.056370944975017	-2.4984120286852995	snmcseq_gene
snmcseq_gene_5D_M_931	1	2	1	1	6.814514294308043	-4.657918125160619	snmcseq_gene
snmcseq_gene_5D_M_981	2	1	3	5	4.6599016141454275	-0.2683733844553181	snmcseq_gene
snmcseq_gene_5D_M_995	1	2	1	1	8.814182095969707	-4.821100883067783	snmcseq_gene
smarter_cells_SM-D9E4M_S34_E1-50	2	1	3	7	3.375867136480109	0.21184123202097982	smarter_cells
smarter_cells_LS-15521_S05_E1-50	1	3	4	3	8.877084970995833	2.614000372792702	smarter_cells
smarter_cells_LS-15524_S51_E1-50	1	3	4	3	8.516993404674931	2.623514843558022	smarter_cells
smarter_cells_SM-D9D8K_S26_E1-50	2	1	2	2	2.5211525788989495	0.5921591816131038	smarter_cells
smarter_cells_SM-D9D8K_S29_E1-50	2	1	2	2	2.6088956957951193	3.2100014975106776	smarter_cells
smarter_cells_SM-D9D8S_S22_E1-50	2	1	2	2	0.013393586663819582	1.688789960034276	smarter_cells
smarter_cells_SM-D9E5T_S91_E1-50	2	1	2	2	1.5327814991023085	-0.21751712945886664	smarter_cells
smarter_cells_SM-DAIFC_S61_E1-50	2	1	2	2	3.2973524586783447	2.7256798761549934	smarter_cells
smarter_cells_SM-DAIGV_S26_E1-50	2	1	2	2	2.0373244037132534	0.03512591954613478	smarter_cells
smarter_cells_SM-DAIHG_S79_E1-50	1	3	4	3	7.822509973520127	0.4151068553559523	smarter_cells
smarter_cells_SM-DD43N_S23_E1-50	2	1	2	2	3.4768154392058896	1.8573436982515295	smarter_cells
smarter_cells_SM-DD43Q_S43_E1-50	1	2	1	1	9.688592290856135	-4.444386041103446	smarter_cells
smarter_cells_SM-GE67S_S060_E1-50	2	1	3	5	4.4347468398305425	0.9893398883137005	smarter_cells
smarter_nuclei_SM-GE66E_S183_E1-50	1	3	3	5	6.227316887379864	1.2751118913132609	smarter_nuclei
smarter_nuclei_SM-GE64S_S058_E1-50	2	1	2	2	3.0819614426704045	2.2404377751475124	smarter_nuclei
smarter_nuclei_SM-GE64S_S076_E1-50	2	1	3	4	2.733569489947033	-1.4895932842904422	smarter_nuclei
smarter_nuclei_SM-GE64V_S027_E1-50	2	1	2	2	2.7888377712957095	1.0543095778377374	smarter_nuclei
smarter_nuclei_SM-GE64G_S171_E1-50	2	1	2	2	2.410931561328596	2.4441191049354822	smarter_nuclei
smarter_nuclei_SM-GE64H_S005_E1-50	2	1	2	2	1.3015738061187332	-0.29128747886132483	smarter_nuclei
smarter_nuclei_SM-GE64H_S097_E1-50	2	1	3	5	5.27555944198501	1.4310009309277087	smarter_nuclei
smarter_nuclei_SM-GE64H_S111_E1-50	2	1	2	2	0.3156538403627357	0.4735154315056105	smarter_nuclei
smarter_nuclei_SM-GE64I_S074_E1-50	2	1	3	5	2.6543711254607274	0.5783320825929427	smarter_nuclei
smarter_nuclei_SM-GE64J_S005_E1-50	2	1	3	4	3.306741934556243	-1.1017559223730375	smarter_nuclei
smarter_nuclei_SM-GE64J_S009_E1-50	2	1	3	5	4.792569943055449	1.2908428102903073	smarter_nuclei
smarter_nuclei_SM-GE64J_S018_E1-50	2	1	2	2	1.434041347368812	1.6096808725746348	smarter_nuclei
smarter_nuclei_SM-GE64K_S165_E1-50	2	1	3	4	2.7669825487517903	-1.8757500147011066	smarter_nuclei
smarter_nuclei_SM-GE64K_S184_E1-50	2	1	2	2	1.6624567929956335	0.5237833815768405	smarter_nuclei
smarter_nuclei_SM-GE64K_S186_E1-50	2	1	2	2	0.8592602672124966	0.3866082863896202	smarter_nuclei
smarter_nuclei_SM-GE64M_S141_E1-50	1	3	3	5	5.775790787110324	1.1595506864192728	smarter_nuclei
smarter_nuclei_SM-GE64N_S091_E1-50	2	1	2	2	1.8034819303204337	2.68587007314869	smarter_nuclei
smarter_nuclei_SM-GE649_S021_E1-50	2	1	2	2	1.6311826946363526	0.29451731718635293	smarter_nuclei
smarter_nuclei_SM-GE649_S111_E1-50	2	1	2	2	1.0714072751912422	-0.3881706774059518	smarter_nuclei
smarter_nuclei_SM-GE649_S118_E1-50	2	1	2	2	1.6053544147799192	0.8111274604115781	smarter_nuclei
smarter_nuclei_SM-GE64A_S008_E1-50	2	1	2	2	1.6272328786921824	2.2703712433735252	smarter_nuclei
smarter_nuclei_SM-GE64A_S102_E1-50	2	1	2	2	1.8954275047495686	0.6864597642892947	smarter_nuclei
smarter_nuclei_SM-GE64A_S110_E1-50	2	1	2	2	2.3659210384427647	2.7909551542661295	smarter_nuclei
smarter_nuclei_SM-GE64A_S122_E1-50	2	1	3	5	4.475618187891697	0.9126465017864768	smarter_nuclei
smarter_nuclei_SM-GE64A_S126_E1-50	2	1	2	2	1.5660877964992084	-0.19091476017940795	smarter_nuclei
smarter_nuclei_SM-GE64A_S132_E1-50	2	1	3	5	3.460666644411283	0.09611399506611973	smarter_nuclei
smarter_nuclei_SM-GE64B_S014_E1-50	2	1	2	2	0.6244651024142449	1.4071313080878742	smarter_nuclei
smarter_nuclei_SM-GE64B_S031_E1-50	2	1	2	2	2.3412170520368023	2.5002339921316517	smarter_nuclei
smarter_nuclei_SM-GE64B_S140_E1-50	2	1	2	2	2.341241446465377	2.986016512333937	smarter_nuclei
smarter_nuclei_SM-GE64B_S156_E1-50	2	1	2	2	0.831072925569944	0.4026568987250948	smarter_nuclei
smarter_nuclei_SM-GE64E_S042_E1-50	2	1	2	2	3.027045607908711	2.8378347855427872	smarter_nuclei
smarter_nuclei_SM-GE64E_S149_E1-50	2	1	3	5	4.014138309238305	1.6033313534151152	smarter_nuclei
smarter_nuclei_SM-GE64F_S060_E1-50	2	1	2	2	0.4571780906323514	1.4744742532287718	smarter_nuclei
smarter_nuclei_SM-GE64F_S064_E1-50	2	1	2	2	0.9601158824775028	0.010106912645256408	smarter_nuclei
smarter_nuclei_SM-GE64F_S071_E1-50	2	1	2	2	0.5904529613734725	1.2666536993990383	smarter_nuclei
smarter_nuclei_SM-GE64F_S094_E1-50	2	1	2	2	1.1621811219702067	1.5191016572174851	smarter_nuclei
smarter_nuclei_SM-GE63Z_S027_E1-50	2	1	2	2	1.8764280812532597	2.842269084356175	smarter_nuclei
smarter_nuclei_SM-GE63Z_S035_E1-50	2	1	2	2	2.513394112924002	3.1527361057130197	smarter_nuclei
smarter_nuclei_SM-GE63Z_S082_E1-50	2	3	3	5	5.830107481339803	-1.1345421477237219	smarter_nuclei
smarter_nuclei_SM-GE63Z_S088_E1-50	2	1	2	2	3.221408396575538	1.8688957149937533	smarter_nuclei
smarter_nuclei_SM-GE63Z_S089_E1-50	2	1	2	2	2.9283327434295194	1.3732230407106076	smarter_nuclei
smarter_nuclei_SM-GE63Z_S119_E1-50	2	1	2	2	3.1277870734719246	2.489477053947207	smarter_nuclei
smarter_nuclei_SM-GE641_S006_E1-50	2	1	2	2	0.6863211571180844	1.0578614763976404	smarter_nuclei
smarter_nuclei_SM-GE641_S026_E1-50	2	1	2	2	1.3833617494728028	3.2053357244499856	smarter_nuclei
smarter_nuclei_SM-GE641_S119_E1-50	2	1	2	2	3.622144069994065	2.3652817022058743	smarter_nuclei
smarter_nuclei_SM-GE642_S035_E1-50	2	1	2	2	1.172515571839722	1.3291191689581148	smarter_nuclei
smarter_nuclei_SM-GE642_S132_E1-50	1	3	3	5	6.050570742627637	0.8116373317451474	smarter_nuclei
smarter_nuclei_SM-GE643_S008_E1-50	2	1	2	2	1.2820258708617727	2.966313892535725	smarter_nuclei
smarter_nuclei_SM-GE643_S063_E1-50	2	1	2	2	0.7149726302806946	0.600254249915268	smarter_nuclei
smarter_nuclei_SM-GE643_S074_E1-50	2	1	2	2	1.8813980319704495	3.1257052143975477	smarter_nuclei
smarter_nuclei_SM-GE644_S076_E1-50	2	1	2	2	1.2939193728746934	1.0327651513070553	smarter_nuclei
smarter_nuclei_SM-GE644_S079_E1-50	2	1	3	5	3.299007384560015	0.5911301106399216	smarter_nuclei
smarter_nuclei_SM-GE645_S051_E1-50	2	1	2	2	1.0058578059069307	0.25293354032959287	smarter_nuclei
smarter_nuclei_SM-GE645_S124_E1-50	2	1	2	2	1.1254606046414488	0.994216979494563	smarter_nuclei
smarter_nuclei_SM-GE646_S131_E1-50	2	1	2	2	0.06151581102398502	1.0702194275561632	smarter_nuclei
smarter_nuclei_SM-GE646_S132_E1-50	2	1	2	2	2.611501150398549	2.706730619181787	smarter_nuclei
smarter_nuclei_SM-GE646_S135_E1-50	2	1	3	5	4.786310923275184	-0.07140729171067596	smarter_nuclei
smarter_nuclei_SM-GE646_S136_E1-50	2	1	3	4	2.4389830877229364	-1.0682841259849503	smarter_nuclei
smarter_nuclei_SM-GE646_S143_E1-50	2	1	2	2	-0.03881093242487592	1.055103760176596	smarter_nuclei
smarter_nuclei_SM-GE647_S028_E1-50	2	1	2	2	2.5522914083785904	3.094283577192044	smarter_nuclei
smarter_nuclei_SM-GE647_S031_E1-50	2	1	2	2	1.9885340087817707	1.129847385186578	smarter_nuclei
smarter_nuclei_SM-GE66I_S047_E1-50	2	1	2	2	1.9855235860344662	2.468015067549372	smarter_nuclei
smarter_nuclei_SM-GE66I_S059_E1-50	2	1	2	2	1.7837962390540596	0.639510605631264	smarter_nuclei
smarter_nuclei_SM-GE66J_S049_E1-50	2	1	2	2	3.3373688967152884	2.50695432451859	smarter_nuclei
smarter_nuclei_SM-GE66J_S050_E1-50	2	1	2	2	2.081395911665092	2.723258018474181	smarter_nuclei
smarter_nuclei_SM-GE66J_S097_E1-50	2	1	2	2	1.1345118172266546	0.4851715546362323	smarter_nuclei
smarter_nuclei_SM-GE66J_S112_E1-50	2	1	2	2	3.122106770549913	2.2809029945943844	smarter_nuclei
smarter_nuclei_SM-GE66J_S136_E1-50	2	1	3	5	3.187897824809184	-0.3334965905211641	smarter_nuclei
smarter_nuclei_SM-GE66K_S084_E1-50	2	1	2	2	0.9885391689671038	1.2944013933336458	smarter_nuclei
smarter_nuclei_SM-GE66K_S119_E1-50	2	1	2	2	1.94188130897838	3.218099219661603	smarter_nuclei
smarter_nuclei_SM-GE66K_S153_E1-50	2	1	3	5	3.8092441800563215	0.09194820236536912	smarter_nuclei
smarter_nuclei_SM-GE66K_S161_E1-50	2	1	2	2	2.283122635371556	3.1517852015815535	smarter_nuclei
smarter_nuclei_SM-GE66K_S172_E1-50	2	1	2	2	3.243932708597711	1.9604412530969555	smarter_nuclei
smarter_nuclei_SM-GE66L_S162_E1-50	2	1	2	2	2.9128036082564033	1.761514356700026	smarter_nuclei
smarter_nuclei_SM-GE66M_S114_E1-50	2	1	2	2	1.534740639777686	2.768447949116504	smarter_nuclei
smarter_nuclei_SM-GE66M_S185_E1-50	2	1	2	2	0.4266401621586063	0.28401819013288254	smarter_nuclei
smarter_nuclei_SM-GE66M_S188_E1-50	2	1	2	2	1.0792349186361219	0.9409698850261036	smarter_nuclei
smarter_nuclei_SM-GE66N_S016_E1-50	2	1	2	2	0.5349812761198416	1.0909992520799705	smarter_nuclei
smarter_nuclei_SM-GE66N_S172_E1-50	2	1	2	2	3.4089341722837228	1.6873304550997705	smarter_nuclei
smarter_nuclei_SM-GE66A_S120_E1-50	2	1	3	5	5.143831746625321	1.3763702908503042	smarter_nuclei
smarter_nuclei_SM-GE66C_S007_E1-50	2	1	3	5	4.53865669167752	1.4322590256240255	smarter_nuclei
smarter_nuclei_SM-GE66D_S024_E1-50	1	3	3	5	6.015030383069628	1.091086400809891	smarter_nuclei
smarter_nuclei_SM-GE66F_S022_E1-50	2	1	2	2	2.612050137613444	2.9908384713802545	smarter_nuclei
smarter_nuclei_SM-GE66F_S030_E1-50	2	1	2	2	2.6322576652643033	2.112417318143101	smarter_nuclei
smarter_nuclei_SM-GE66F_S070_E1-50	2	1	2	2	1.1913679270723938	0.17855050625339833	smarter_nuclei
smarter_nuclei_SM-GE66G_S129_E1-50	2	1	2	2	0.7293074197351145	0.9305464637607563	smarter_nuclei
smarter_nuclei_SM-GE64U_S130_E1-50	1	3	4	3	9.348023786552059	0.8969081761609315	smarter_nuclei
smarter_nuclei_SM-GE64U_S137_E1-50	1	3	4	3	9.141923120807457	2.7521784684971355	smarter_nuclei
smarter_nuclei_SM-GE64G_S025_E1-50	1	2	1	1	9.288345233375129	-1.3915229296741314	smarter_nuclei
smarter_nuclei_SM-GE64G_S028_E1-50	1	3	4	3	8.694021971787798	1.2108612759140438	smarter_nuclei
smarter_nuclei_SM-GE64G_S103_E1-50	1	2	1	1	9.560087680012543	-2.3145540485501543	smarter_nuclei
smarter_nuclei_SM-GE64G_S123_E1-50	1	3	4	3	10.232649788809445	0.6663777926934423	smarter_nuclei
smarter_nuclei_SM-GE64H_S002_E1-50	2	1	3	5	4.066450841876434	1.9783364352461537	smarter_nuclei
smarter_nuclei_SM-GE64H_S032_E1-50	1	3	4	3	10.311171370719778	1.8405384937272187	smarter_nuclei
smarter_nuclei_SM-GE64H_S116_E1-50	1	3	4	3	10.503207410702073	1.9425024131804796	smarter_nuclei
smarter_nuclei_SM-GE64H_S139_E1-50	1	2	1	1	8.808975381892353	-2.743257233267197	smarter_nuclei
smarter_nuclei_SM-GE64I_S024_E1-50	1	3	3	5	6.646111912078176	0.6898706434609986	smarter_nuclei
smarter_nuclei_SM-GE64J_S171_E1-50	1	3	3	5	6.589552383979575	0.14114496570684526	smarter_nuclei
smarter_nuclei_SM-GE64L_S084_E1-50	1	3	3	5	6.774076062982438	-0.5869250051620523	smarter_nuclei
smarter_nuclei_SM-GE64L_S133_E1-50	1	2	1	1	8.807996482364452	-2.6773828499296344	smarter_nuclei
smarter_nuclei_SM-GE64M_S038_E1-50	1	3	3	5	6.303074591015087	0.9837651403319225	smarter_nuclei
smarter_nuclei_SM-GE64M_S143_E1-50	1	2	1	1	8.7751667763252	-2.2491544931583998	smarter_nuclei
smarter_nuclei_SM-GE64N_S120_E1-50	1	2	1	1	7.2910358464940375	-2.981596874662241	smarter_nuclei
smarter_nuclei_SM-GE648_S005_E1-50	1	2	1	1	8.342173529895305	-2.2702610207803406	smarter_nuclei
smarter_nuclei_SM-GE648_S016_E1-50	1	3	4	3	8.708665082875212	1.666461209706261	smarter_nuclei
smarter_nuclei_SM-GE64B_S016_E1-50	2	1	3	5	4.603336537092147	1.0433434581763261	smarter_nuclei
smarter_nuclei_SM-GE64B_S029_E1-50	1	2	1	1	8.525168872901606	-2.9089348600307803	smarter_nuclei
smarter_nuclei_SM-GE64B_S033_E1-50	1	2	1	1	9.352052456167122	-2.8814433317165333	smarter_nuclei
smarter_nuclei_SM-GE64B_S110_E1-50	1	2	1	1	8.652213883644343	-2.4744309660658477	smarter_nuclei
smarter_nuclei_SM-GE64E_S010_E1-50	1	2	1	1	7.129697563728602	-2.958953225491884	smarter_nuclei
smarter_nuclei_SM-GE64E_S011_E1-50	1	2	1	1	8.45240503266783	-2.9351139586393153	smarter_nuclei
smarter_nuclei_SM-GE64E_S026_E1-50	1	3	4	3	10.774637540856286	1.3362424303715397	smarter_nuclei
smarter_nuclei_SM-GE64E_S032_E1-50	1	3	4	3	9.723570929333972	2.4607459183054914	smarter_nuclei
smarter_nuclei_SM-GE64E_S152_E1-50	1	3	3	5	6.704149138325324	0.3747457657234791	smarter_nuclei
smarter_nuclei_SM-GE64F_S043_E1-50	1	3	4	3	8.345140515084358	1.6375975793427813	smarter_nuclei
smarter_nuclei_SM-GE64F_S049_E1-50	2	1	3	5	5.213620252846936	-0.258756349510299	smarter_nuclei
smarter_nuclei_SM-GE64F_S053_E1-50	1	2	1	1	8.230911691748759	-2.355533353783804	smarter_nuclei
smarter_nuclei_SM-GE63Z_S100_E1-50	1	2	1	1	6.718941959253393	-2.0879813014801916	smarter_nuclei
smarter_nuclei_SM-GE63Z_S153_E1-50	1	3	3	5	5.928196198790969	-1.212934822612319	smarter_nuclei
smarter_nuclei_SM-GE641_S022_E1-50	1	2	1	1	8.575680332639902	-1.7371328665635373	smarter_nuclei
smarter_nuclei_SM-GE641_S139_E1-50	1	3	4	3	9.458097528085073	1.9153875990200422	smarter_nuclei
smarter_nuclei_SM-GE642_S016_E1-50	1	2	1	1	9.267613855836112	-2.2937017536049495	smarter_nuclei
smarter_nuclei_SM-GE642_S059_E1-50	1	3	3	5	6.816933910755776	1.16736990678246	smarter_nuclei
smarter_nuclei_SM-GE642_S074_E1-50	1	2	1	1	9.26355145243407	-1.8986819520353144	smarter_nuclei
smarter_nuclei_SM-GE642_S119_E1-50	1	2	1	1	9.382427212441671	-2.3084758230162867	smarter_nuclei
smarter_nuclei_SM-GE642_S131_E1-50	1	2	1	1	8.910603593304236	-2.85090420111211	smarter_nuclei
smarter_nuclei_SM-GE643_S044_E1-50	1	2	1	1	9.015542455685486	-2.1612379706449225	smarter_nuclei
smarter_nuclei_SM-GE644_S059_E1-50	1	2	1	1	8.212324334879078	-1.9601487565379194	smarter_nuclei
smarter_nuclei_SM-GE644_S065_E1-50	1	3	4	3	8.82272304515366	0.5210650631762593	smarter_nuclei
smarter_nuclei_SM-GE644_S072_E1-50	1	3	4	3	10.417971255744382	0.4899423318610045	smarter_nuclei
smarter_nuclei_SM-GE644_S078_E1-50	2	1	3	5	5.232675349565868	0.8542239934982545	smarter_nuclei
smarter_nuclei_SM-GE644_S153_E1-50	1	3	4	3	8.318978653223857	0.41806251772993336	smarter_nuclei
smarter_nuclei_SM-GE644_S159_E1-50	1	3	4	3	9.941861252195862	2.6337458902720443	smarter_nuclei
smarter_nuclei_SM-GE645_S053_E1-50	1	3	4	3	8.060357259297179	2.3880633527375283	smarter_nuclei
smarter_nuclei_SM-GE645_S056_E1-50	1	3	4	3	9.914475553666207	1.7748633883428933	smarter_nuclei
smarter_nuclei_SM-GE645_S123_E1-50	1	3	4	3	8.924388177431686	1.6036892294632197	smarter_nuclei
smarter_nuclei_SM-GE645_S125_E1-50	1	1	1	1	6.215600021949929	-1.5910443632717592	smarter_nuclei
smarter_nuclei_SM-GE645_S138_E1-50	1	3	3	5	6.629314112296141	0.23877919402111975	smarter_nuclei
smarter_nuclei_SM-GE645_S140_E1-50	1	2	1	1	8.852873987164083	-2.100609540921947	smarter_nuclei
smarter_nuclei_SM-GE646_S144_E1-50	1	2	1	1	8.241444375563136	-2.658246933499199	smarter_nuclei
smarter_nuclei_SM-GE647_S132_E1-50	1	2	1	1	9.162676434158843	-1.7903728628610296	smarter_nuclei
smarter_nuclei_SM-GE647_S141_E1-50	1	2	1	1	8.994960988854737	-1.769481651634843	smarter_nuclei
smarter_nuclei_SM-GE66I_S029_E1-50	1	2	1	1	8.0112329736981	-2.1569683535346584	smarter_nuclei
smarter_nuclei_SM-GE66I_S031_E1-50	1	3	4	3	9.08389059622316	-0.9501927110477475	smarter_nuclei
smarter_nuclei_SM-GE66I_S036_E1-50	1	3	4	3	9.223201648910798	0.8381881372808291	smarter_nuclei
smarter_nuclei_SM-GE66I_S038_E1-50	1	3	4	3	9.574721045311259	1.3432006798111429	smarter_nuclei
smarter_nuclei_SM-GE66J_S053_E1-50	2	1	3	5	2.3095382490084644	-0.8127023138671665	smarter_nuclei
smarter_nuclei_SM-GE66L_S068_E1-50	1	3	4	3	10.131881971318448	1.9806080100470342	smarter_nuclei
smarter_nuclei_SM-GE66M_S033_E1-50	2	1	3	5	5.0164510550353745	-0.6385088446218252	smarter_nuclei
smarter_nuclei_SM-GE66M_S148_E1-50	1	3	4	3	9.340283271116252	0.10063441529531122	smarter_nuclei
smarter_nuclei_SM-GE66M_S158_E1-50	1	3	3	5	6.433045019163155	0.8990960712847116	smarter_nuclei
smarter_nuclei_SM-GE66N_S049_E1-50	1	2	1	1	9.210805210727612	-1.84382992454359	smarter_nuclei
smarter_nuclei_SM-GE66N_S060_E1-50	1	2	1	1	9.481053487775204	-2.0654333763392696	smarter_nuclei
smarter_nuclei_SM-GE66N_S090_E1-50	1	3	4	3	8.87688711166944	1.2699788064916895	smarter_nuclei
smarter_nuclei_SM-GE66N_S165_E1-50	1	3	4	3	10.026846440497062	-0.15155693873874665	smarter_nuclei
smarter_nuclei_SM-GE66O_S057_E1-50	1	3	4	3	10.535409989850118	1.213769135699306	smarter_nuclei
smarter_nuclei_SM-GE66O_S068_E1-50	1	3	4	3	7.20461622978315	0.9929082939880707	smarter_nuclei
smarter_nuclei_SM-GE66O_S071_E1-50	1	3	4	3	9.241810677674893	1.557859914341886	smarter_nuclei
smarter_nuclei_SM-GE66O_S078_E1-50	1	3	4	3	8.015996404645245	2.4807347655145064	smarter_nuclei
smarter_nuclei_SM-GE66O_S192_E1-50	1	3	3	5	7.081346446593522	0.3361716556674089	smarter_nuclei
smarter_nuclei_SM-GE66P_S044_E1-50	1	2	1	1	8.239172586226921	-2.772742500717275	smarter_nuclei
smarter_nuclei_SM-GE66P_S045_E1-50	1	2	1	1	7.045203836088571	-2.0811328822973536	smarter_nuclei
smarter_nuclei_SM-GE66P_S057_E1-50	1	2	1	1	6.665761544938211	-2.509223038741274	smarter_nuclei
smarter_nuclei_SM-GE66P_S060_E1-50	1	3	4	3	10.339229228243898	2.1320858466886565	smarter_nuclei
smarter_nuclei_SM-GE66P_S063_E1-50	1	3	4	3	9.57311397544567	1.2285338256838778	smarter_nuclei
smarter_nuclei_SM-GE66P_S172_E1-50	1	3	4	3	8.852715167411763	-0.6283808071726742	smarter_nuclei
smarter_nuclei_SM-GE66A_S033_E1-50	1	2	1	1	8.195562187050427	-2.896764333367141	smarter_nuclei
smarter_nuclei_SM-GE66A_S036_E1-50	1	3	4	3	7.5034625637295544	1.984616596208428	smarter_nuclei
smarter_nuclei_SM-GE66A_S055_E1-50	1	3	4	3	9.959930416561377	2.4477727367342825	smarter_nuclei
smarter_nuclei_SM-GE66A_S059_E1-50	1	3	4	3	9.075205134694745	-0.6122109531257723	smarter_nuclei
smarter_nuclei_SM-GE66A_S062_E1-50	1	3	4	3	9.53306540388402	0.8851540605410935	smarter_nuclei
smarter_nuclei_SM-GE66A_S072_E1-50	1	2	1	1	9.17230453006703	-1.8325134715608724	smarter_nuclei
smarter_nuclei_SM-GE66A_S107_E1-50	1	3	4	3	8.079896058720006	1.1141327542632138	smarter_nuclei
smarter_nuclei_SM-GE66A_S117_E1-50	1	2	1	1	7.380564321460432	-2.2509697586022153	smarter_nuclei
smarter_nuclei_SM-GE66A_S142_E1-50	1	3	4	3	7.623779838665058	2.176449834752153	smarter_nuclei
smarter_nuclei_SM-GE66C_S026_E1-50	1	2	1	1	8.017293685401471	-3.0459495059012562	smarter_nuclei
smarter_nuclei_SM-GE66D_S001_E1-50	1	2	1	1	8.47702902492043	-2.1003603114550757	smarter_nuclei
smarter_nuclei_SM-GE66D_S009_E1-50	1	2	1	1	7.609443560800783	-1.4446538889612532	smarter_nuclei
smarter_nuclei_SM-GE66D_S016_E1-50	1	3	4	3	7.2265223729354275	1.7174670892294674	smarter_nuclei
smarter_nuclei_SM-GE66D_S022_E1-50	1	3	4	3	7.514385842924707	1.322701313153621	smarter_nuclei
smarter_nuclei_SM-GE66D_S100_E1-50	1	3	4	3	10.541963772307746	1.43450910110793	smarter_nuclei
smarter_nuclei_SM-GE64E_S022_E1-50	2	1	2	2	0.9061257822813885	-0.28756230033271746	smarter_nuclei
smarter_nuclei_SM-GE64E_S144_E1-50	2	1	3	5	3.1874951292479836	0.17062208114967423	smarter_nuclei
smarter_nuclei_SM-GE64E_S164_E1-50	2	1	2	2	0.49380835632647657	1.3161637663752528	smarter_nuclei
smarter_nuclei_SM-GE644_S157_E1-50	2	1	2	2	0.25367181310229986	1.5623093636557264	smarter_nuclei
smarter_nuclei_SM-GE645_S127_E1-50	2	1	3	5	3.9866376666419607	0.08437052147170555	smarter_nuclei
smarter_nuclei_SM-GE645_S139_E1-50	2	1	2	2	0.23327795166778323	0.6233095821280171	smarter_nuclei
smarter_nuclei_SM-GE645_S144_E1-50	2	3	3	5	5.7640103972326715	-0.7325339691771986	smarter_nuclei
smarter_nuclei_SM-GE646_S028_E1-50	2	1	2	2	1.4882405493677284	2.7732428436535073	smarter_nuclei
smarter_nuclei_SM-GE646_S173_E1-50	2	1	2	2	1.170500485577225	2.564018160981504	smarter_nuclei
smarter_nuclei_SM-GE66I_S041_E1-50	2	1	2	2	-0.13520998368478337	1.276335244673064	smarter_nuclei
smarter_nuclei_SM-GE66L_S094_E1-50	2	1	2	2	0.48812920725049025	0.8569507199020775	smarter_nuclei
smarter_nuclei_SM-GE66N_S089_E1-50	2	1	2	2	-0.08884111195991715	1.17397653666159	smarter_nuclei
smarter_nuclei_SM-GE66N_S114_E1-50	2	1	2	2	1.013889797623448	2.302958671949708	smarter_nuclei
smarter_nuclei_SM-GE66B_S042_E1-50	1	2	1	1	8.22137418765901	-3.0891514638285957	smarter_nuclei
10x_cells_v2_CACAAACGTCGATTGT-4L8TX_171026_01_F04	2	1	3	4	4.002277387325454	-3.4397498420817114	10x_cells_v2
10x_cells_v2_CCCATACGTTTAAGCC-9L8TX_171026_01_H03	1	1	1	4	5.037674940671572	-4.490649663350427	10x_cells_v2
10x_cells_v2_CCAATCCAGTTGTAGA-13L8TX_171026_01_E05	2	1	3	4	4.239221831890194	-3.424976438540718	10x_cells_v2
10x_cells_v2_TGCGCAGAGCCAGTTT-13L8TX_171026_01_E05	2	1	3	5	5.798504804437273	-0.6892309595524808	10x_cells_v2
10x_cells_v2_CTTTGCGAGGTTACCT-15L8TX_171026_01_G05	1	1	1	4	4.967688982136302	-4.60391713870213	10x_cells_v2
10x_cells_v2_CCCTCCTAGTTAGCGG-16L8TX_171026_01_H05	2	1	3	4	3.684796851304085	-3.6062157284592575	10x_cells_v2
10x_cells_v2_GGACAAGGTAGCGCTC-16L8TX_171026_01_H05	2	1	3	4	3.7471359347376536	-3.779506945388465	10x_cells_v2
10x_cells_v2_CCTATTAGTTGAGTTC-13L8TX_171026_01_E05	2	1	3	4	3.8053390202302246	-4.020299159227	10x_cells_v2
10x_cells_v2_CGCTGGAGTGAAGGCT-9L8TX_171026_01_H03	1	2	1	1	7.167430294333246	-1.1514571842254	10x_cells_v2
10x_cells_v2_GCGCGATGTACGAAAT-8L8TX_171026_01_A05	2	1	3	4	3.5759292027734553	-3.871636771215122	10x_cells_v2
10x_cells_v2_TAAGAGACATCCGCGA-10L8TX_171026_01_A04	2	1	3	4	4.061634617731092	-4.081750425898432	10x_cells_v2
10x_cells_v2_AATCGGTCATCCGTGG-1L8TX_171026_01_F03	2	1	3	4	2.3410851502488454	-2.2817804681731055	10x_cells_v2
10x_cells_v2_ACGGCCAAGGCAAAGA-1L8TX_171026_01_F03	2	1	2	6	1.062066924624624	-1.9162757319940436	10x_cells_v2
10x_cells_v2_AGAGTGGGTGTGACGA-1L8TX_171026_01_F03	2	1	3	4	2.602208956537932	-3.090814789836085	10x_cells_v2
10x_cells_v2_AGGCCACGTCAAACTC-1L8TX_171026_01_F03	2	1	3	5	4.516017214034708	1.2857632837025563	10x_cells_v2
10x_cells_v2_CGACTTCTCATCACCC-1L8TX_171026_01_F03	2	1	2	2	0.1593772870913578	0.7091450213650229	10x_cells_v2
10x_cells_v2_CTGTGCTTCGGAAATA-1L8TX_171026_01_F03	2	1	2	2	0.2314221995584981	0.8916888840186205	10x_cells_v2
10x_cells_v2_GAACATCAGGTGACCA-1L8TX_171026_01_F03	2	1	2	2	0.8051060168958264	0.028045806329186573	10x_cells_v2
10x_cells_v2_GCACTCTAGCAAATCA-1L8TX_171026_01_F03	2	1	3	5	5.447290396147766	-1.4178235447158163	10x_cells_v2
10x_cells_v2_GTACGTACATCGACGC-1L8TX_171026_01_F03	2	1	3	4	2.622543038181488	-2.655959659440485	10x_cells_v2
10x_cells_v2_TACTCATTCGGAAATA-1L8TX_171026_01_F03	2	1	3	4	1.9406463167630223	-2.629567120182418	10x_cells_v2
10x_cells_v2_TGCGGGTAGGCCCTTG-1L8TX_171026_01_F03	2	1	2	2	0.5898833555053729	2.263410334287827	10x_cells_v2
10x_cells_v2_TGTTCCGAGTGCCAGA-1L8TX_171026_01_F03	2	1	3	7	3.669729156359446	-0.7854507331988798	10x_cells_v2
10x_cells_v2_TTCCCAGAGGGCTCTC-1L8TX_171026_01_F03	2	1	2	4	1.423128387857673	-1.2310306280536258	10x_cells_v2
10x_cells_v2_TTGAACGCACGGCCAT-1L8TX_171026_01_F03	2	1	2	2	2.208523739471452	0.7099037047164188	10x_cells_v2
10x_cells_v2_AAAGCAATCGATCCCT-2L8TX_171026_01_G03	2	1	3	6	2.1820156575854677	-2.662524558721522	10x_cells_v2
10x_cells_v2_ACCCACTCATCCGTGG-2L8TX_171026_01_G03	2	1	3	7	4.010942406928058	-1.1499992940304664	10x_cells_v2
10x_cells_v2_ACGCCAGAGTATTGGA-2L8TX_171026_01_G03	2	1	3	4	2.5529235215185597	-2.7319351351952363	10x_cells_v2
10x_cells_v2_AGGTCCGAGTTAGCGG-2L8TX_171026_01_G03	2	1	3	7	5.502812413289207	-0.23940301279743786	10x_cells_v2
10x_cells_v2_CAGCTAAGTGCGCTTG-2L8TX_171026_01_G03	2	1	2	2	2.688482317355214	3.03696184299502	10x_cells_v2
10x_cells_v2_CATATTCAGCACAGGT-2L8TX_171026_01_G03	2	1	3	7	4.701568192147257	-1.0995901701774744	10x_cells_v2
10x_cells_v2_CCTTACGTCATCGGAT-2L8TX_171026_01_G03	2	1	3	4	3.906589996926431	-1.873272017194669	10x_cells_v2
10x_cells_v2_CTCTACGGTGCACGAA-2L8TX_171026_01_G03	2	1	2	6	0.8213853854512017	-1.8844409372504345	10x_cells_v2
10x_cells_v2_GACACGCGTGTAACGG-2L8TX_171026_01_G03	2	1	3	7	4.219547678793932	-1.1439822216216575	10x_cells_v2
10x_cells_v2_GGACGTCAGTGGGTTG-2L8TX_171026_01_G03	2	1	3	7	4.948771402246885	-1.1641289961060202	10x_cells_v2
10x_cells_v2_GGCAATTTCGGAAACG-2L8TX_171026_01_G03	2	1	3	5	5.26699260688713	0.8859746438348223	10x_cells_v2
10x_cells_v2_GTACTTTCAACGATGG-2L8TX_171026_01_G03	2	1	3	4	3.610298213239804	-1.3308010944297906	10x_cells_v2
10x_cells_v2_TCAGCTCAGGGTGTGT-2L8TX_171026_01_G03	2	1	3	5	4.869897942407413	-0.6289167727034684	10x_cells_v2
10x_cells_v2_TGGCTGGGTATGAATG-2L8TX_171026_01_G03	2	1	3	7	4.1821934491270865	-1.156921540967799	10x_cells_v2
10x_cells_v2_AAAGTAGGTCTCACCT-3L8TX_171026_01_B04	2	1	2	2	0.30353658494792285	1.2857590093871802	10x_cells_v2
10x_cells_v2_ACCGTAACACGACGAA-3L8TX_171026_01_B04	2	1	3	4	4.114449372796396	-2.686934949266805	10x_cells_v2
10x_cells_v2_ACGCCAGGTGCTCTTC-3L8TX_171026_01_B04	2	1	3	7	4.821837185604274	-1.1557664759659336	10x_cells_v2
10x_cells_v2_AGCTCTCCATACTACG-3L8TX_171026_01_B04	2	1	2	2	-0.5938764655836278	1.9786255939597248	10x_cells_v2
10x_cells_v2_AGTTGGTAGTGCAAGC-3L8TX_171026_01_B04	2	1	3	4	3.238653903959802	-3.603873585162196	10x_cells_v2
10x_cells_v2_CAAGATCCAGAGCCAA-3L8TX_171026_01_B04	2	1	3	4	2.593786982185351	-2.70819115601715	10x_cells_v2
10x_cells_v2_CACTCCAGTTCTCATT-3L8TX_171026_01_B04	2	1	2	6	1.0866451856670143	-2.1063536838537336	10x_cells_v2
10x_cells_v2_CAGCCGAGTGTTTGGT-3L8TX_171026_01_B04	2	1	3	7	5.457077949144423	-1.1626964271432552	10x_cells_v2
10x_cells_v2_CCCAGTTCAAGTCTGT-3L8TX_171026_01_B04	2	1	3	7	3.300870502319924	-0.3130862981017558	10x_cells_v2
10x_cells_v2_CGATTGAGTCGCCATG-3L8TX_171026_01_B04	2	1	3	7	5.5869698483552295	-1.512018535281447	10x_cells_v2
10x_cells_v2_CGGGTCAGTAACGTTC-3L8TX_171026_01_B04	2	1	2	2	2.4254718556221126	2.2970028638676254	10x_cells_v2
10x_cells_v2_CTAATGGAGTACGACG-3L8TX_171026_01_B04	2	1	3	5	3.837663579688536	-0.2893077401418162	10x_cells_v2
10x_cells_v2_CTGATCCAGTATGACA-3L8TX_171026_01_B04	2	1	2	2	2.0929794858122706	-0.3242756838475553	10x_cells_v2
10x_cells_v2_GATTCAGAGTAGATGT-3L8TX_171026_01_B04	2	1	2	2	0.344018300601217	-0.1154166069053997	10x_cells_v2
10x_cells_v2_GCAGTTATCCGCTGTT-3L8TX_171026_01_B04	2	1	2	6	0.8145874594386793	-2.31295708795304	10x_cells_v2
10x_cells_v2_GCTGCGATCCACGCAG-3L8TX_171026_01_B04	2	1	2	2	0.600167723434864	-0.018441883631313844	10x_cells_v2
10x_cells_v2_GGCTGGTCACTTAACG-3L8TX_171026_01_B04	2	1	3	7	4.499283432337028	-1.2165653620140875	10x_cells_v2
10x_cells_v2_GTGCATAGTCTGCCAG-3L8TX_171026_01_B04	2	1	2	6	1.9697532816626637	-0.9640218495842036	10x_cells_v2
10x_cells_v2_TAAGAGATCTTACCTA-3L8TX_171026_01_B04	2	1	3	5	6.079038446794287	-0.7619990812985364	10x_cells_v2
10x_cells_v2_TGACAACCAGTAAGCG-3L8TX_171026_01_B04	2	1	2	2	-0.5430653832180287	1.911755993738132	10x_cells_v2
10x_cells_v2_AAAGCAACACGTCAGC-4L8TX_171026_01_F04	2	1	3	5	6.003474477175316	-0.46712940988755924	10x_cells_v2
10x_cells_v2_ACGCCGACAAACTGCT-4L8TX_171026_01_F04	2	1	3	4	3.668753373541915	-3.3207277109188587	10x_cells_v2
10x_cells_v2_CATCCACAGCTAGTTC-4L8TX_171026_01_F04	2	1	3	5	4.893543979619034	1.4606477080393605	10x_cells_v2
10x_cells_v2_CCCAATCCACCACGTG-4L8TX_171026_01_F04	2	1	3	7	4.995521462094442	0.05730120346295802	10x_cells_v2
10x_cells_v2_GCATGATAGTGATCGG-4L8TX_171026_01_F04	2	1	3	7	4.176330161168412	-1.0845011548868249	10x_cells_v2
10x_cells_v2_GCGGGTTCACATCTTT-4L8TX_171026_01_F04	2	1	2	2	-0.35893087312142224	1.7105294347547506	10x_cells_v2
10x_cells_v2_GGGAGATCACCAGCAC-4L8TX_171026_01_F04	2	1	2	2	3.0443027027570118	2.795016858089132	10x_cells_v2
10x_cells_v2_GTCACAACATCGGAAG-4L8TX_171026_01_F04	2	1	3	5	5.623483582801173	1.3971769251142727	10x_cells_v2
10x_cells_v2_TAAACCGCAATCGGTT-4L8TX_171026_01_F04	2	1	2	2	2.777315281125216	-0.3033968524447982	10x_cells_v2
10x_cells_v2_TACCTATAGCTGATAA-4L8TX_171026_01_F04	2	1	2	6	0.8988267332446793	-2.859147629726876	10x_cells_v2
10x_cells_v2_TCTCTAAAGAAACGAG-4L8TX_171026_01_F04	2	1	3	7	5.2226934638725	-1.261890821239964	10x_cells_v2
10x_cells_v2_TGGCTGGTCAGTCCCT-4L8TX_171026_01_F04	2	1	3	4	4.005540687995367	-3.1698541153750712	10x_cells_v2
10x_cells_v2_ACCCACTAGCTCAACT-5L8TX_171026_01_G04	2	1	2	6	0.3171025456416858	-0.3242864635433705	10x_cells_v2
10x_cells_v2_ACGGCCACACAAGTAA-5L8TX_171026_01_G04	2	1	2	2	3.2508107890068665	0.7404810210702467	10x_cells_v2
10x_cells_v2_AGAGCTTCAGTTCATG-5L8TX_171026_01_G04	2	1	2	2	1.6887349979993826	0.7157851213470761	10x_cells_v2
10x_cells_v2_CAGATCAAGAGCTGGT-5L8TX_171026_01_G04	2	1	2	2	1.2097729169374498	2.9840354451584283	10x_cells_v2
10x_cells_v2_GGCTGGTTCAAAGACA-5L8TX_171026_01_G04	2	1	3	5	5.198974662674818	1.5055113553780894	10x_cells_v2
10x_cells_v2_GTCAAGTAGACCTTTG-5L8TX_171026_01_G04	2	1	3	4	3.8334269720539056	-3.040603528535586	10x_cells_v2
10x_cells_v2_AAGTCTGCATCCTTGC-6L8TX_171026_01_B05	2	1	2	2	3.321697316031822	2.7798535557862136	10x_cells_v2
10x_cells_v2_ATGAGGGAGCGTTGCC-6L8TX_171026_01_B05	2	1	2	2	3.043278198171979	1.1447909060504113	10x_cells_v2
10x_cells_v2_CAAGAAATCTCCAGGG-6L8TX_171026_01_B05	2	1	3	5	4.837673988986823	1.655550148315118	10x_cells_v2
10x_cells_v2_CCTTACGAGCACAGGT-6L8TX_171026_01_B05	2	1	2	6	0.5695111130326752	-0.6285550314813585	10x_cells_v2
10x_cells_v2_CGAATGTCAAGCGAGT-6L8TX_171026_01_B05	2	1	2	2	2.7278651840708976	2.859251989368997	10x_cells_v2
10x_cells_v2_CGAGAAGGTAGAAGGA-6L8TX_171026_01_B05	2	1	3	5	5.565717039491884	1.2262296812395457	10x_cells_v2
10x_cells_v2_CTCGTCATCACAGTAC-6L8TX_171026_01_B05	2	1	2	2	3.1564747928711934	2.560040464195355	10x_cells_v2
10x_cells_v2_GACGTGCAGGCTACGA-6L8TX_171026_01_B05	2	1	2	2	2.6460423111068363	2.651302941851738	10x_cells_v2
10x_cells_v2_ACTATCTCAAAGCAAT-7L8TX_171026_01_H04	2	1	2	2	3.418624461372338	2.3580102308254833	10x_cells_v2
10x_cells_v2_ACTGTCCGTAGGGACT-7L8TX_171026_01_H04	2	1	2	2	1.6943613361948624	3.297586333684367	10x_cells_v2
10x_cells_v2_ATAACGCGTAGATTAG-7L8TX_171026_01_H04	2	1	3	7	4.8021085341401735	-1.4935256908764545	10x_cells_v2
10x_cells_v2_CTGCTGTGTTACCGAT-7L8TX_171026_01_H04	2	1	3	4	3.2458652373705994	-2.595299135105602	10x_cells_v2
10x_cells_v2_GATCGCGAGTTCGCAT-7L8TX_171026_01_H04	2	1	3	4	2.9328794822568085	-2.1324172445219944	10x_cells_v2
10x_cells_v2_GTTAAGCCACCAGCAC-7L8TX_171026_01_H04	2	1	3	5	5.356552826239276	1.1803077159272943	10x_cells_v2
10x_cells_v2_TTAGTTCCATCAGTAC-7L8TX_171026_01_H04	2	1	2	2	0.7470232692057419	1.8860573453127643	10x_cells_v2
10x_cells_v2_TTGCCGTGTGGTGTAG-7L8TX_171026_01_H04	2	1	3	4	3.69777555736679	-2.3353215612809293	10x_cells_v2
10x_cells_v2_AATCGGTTCTACCTGC-8L8TX_171026_01_A05	2	1	3	4	1.9574425644268472	-1.5404567710925525	10x_cells_v2
10x_cells_v2_CAAGATCCAAGTCATC-8L8TX_171026_01_A05	2	1	2	2	2.4070193229418573	0.7410025910313972	10x_cells_v2
10x_cells_v2_CACCACTCATATACCG-8L8TX_171026_01_A05	2	1	3	4	3.6009868043711135	-2.056225681467965	10x_cells_v2
10x_cells_v2_CCTTACGAGTGACTCT-8L8TX_171026_01_A05	2	1	3	5	3.71913504984103	-0.080763019608141	10x_cells_v2
10x_cells_v2_CGAGCCATCCCTAACC-8L8TX_171026_01_A05	2	1	2	6	1.4341488990986588	-2.873011617400073	10x_cells_v2
10x_cells_v2_CTCGGAGTCAAGAAGT-8L8TX_171026_01_A05	2	1	2	2	2.583718703887728	0.12900889800694018	10x_cells_v2
10x_cells_v2_CTCTACGCAGACACTT-8L8TX_171026_01_A05	2	1	2	6	1.1274064119390241	-1.080916806777659	10x_cells_v2
10x_cells_v2_CTGATAGCAGATGGCA-8L8TX_171026_01_A05	2	1	2	2	2.2881080770285442	2.6025896193869618	10x_cells_v2
10x_cells_v2_CTGATAGGTAATAGCA-8L8TX_171026_01_A05	2	1	2	6	0.87256193870217	-0.577635420144442	10x_cells_v2
10x_cells_v2_CTGTTTAAGGAATGGA-8L8TX_171026_01_A05	2	1	2	2	0.022577061520685785	2.1745742013077374	10x_cells_v2
10x_cells_v2_GGAACTTCAACTGCGC-8L8TX_171026_01_A05	2	1	2	2	1.8933959682929524	0.5454588463587403	10x_cells_v2
10x_cells_v2_GGCGACTTCGCTAGCG-8L8TX_171026_01_A05	2	1	3	5	4.893008576124716	1.702327030378544	10x_cells_v2
10x_cells_v2_GGGCATCTCACGAAGG-8L8TX_171026_01_A05	2	1	2	2	1.1852533374033247	3.051426789951241	10x_cells_v2
10x_cells_v2_TACGGGCGTGAGTATA-8L8TX_171026_01_A05	2	1	2	2	2.7079002245537094	2.0432971160327713	10x_cells_v2
10x_cells_v2_TACTTACTCACGACTA-8L8TX_171026_01_A05	2	1	3	5	3.9758930242212167	1.9105046110855757	10x_cells_v2
10x_cells_v2_TAGTGGTGTATCACCA-8L8TX_171026_01_A05	2	1	2	2	1.328273890410341	2.167671640450798	10x_cells_v2
10x_cells_v2_TCACGAAAGGGTCGAT-8L8TX_171026_01_A05	2	1	2	2	3.7290496123947	2.434654738832366	10x_cells_v2
10x_cells_v2_TGGCCAGGTTCCATGA-8L8TX_171026_01_A05	2	1	3	5	5.025762347194146	1.7080297555348163	10x_cells_v2
10x_cells_v2_AGACGTTCACCTATCC-9L8TX_171026_01_H03	2	1	3	4	3.48749331051493	-2.7076244725418777	10x_cells_v2
10x_cells_v2_CTGAAGTTCTGCGGCA-9L8TX_171026_01_H03	2	1	2	2	1.7803562703933125	-0.3434436025026925	10x_cells_v2
10x_cells_v2_GCATGATAGCAGGTCA-9L8TX_171026_01_H03	2	1	2	5	2.8160685575272586	0.5073497632384285	10x_cells_v2
10x_cells_v2_TACTCATGTCAGAAGC-9L8TX_171026_01_H03	2	1	3	7	3.794999919929682	-1.2310470801503195	10x_cells_v2
10x_cells_v2_TAGGCATCATAAGACA-9L8TX_171026_01_H03	2	1	3	7	6.970185895142913	-0.7426532411259138	10x_cells_v2
10x_cells_v2_TATCAGGTCGTCGTTC-9L8TX_171026_01_H03	2	1	3	4	3.292263968744929	-3.786877736836918	10x_cells_v2
10x_cells_v2_AGACGTTAGGTCGGAT-10L8TX_171026_01_A04	2	1	2	2	1.9136302682892337	-0.3853688919309368	10x_cells_v2
10x_cells_v2_AGGCCGTGTCCATCCT-10L8TX_171026_01_A04	2	1	2	6	0.9023208234334054	-1.2713463000546865	10x_cells_v2
10x_cells_v2_CACATAGGTAAAGTCA-10L8TX_171026_01_A04	2	1	2	6	0.4267370889440306	-1.5891123109401155	10x_cells_v2
10x_cells_v2_CATCCACGTCTTCTCG-10L8TX_171026_01_A04	2	1	2	6	0.7348320601454821	-2.418646881099448	10x_cells_v2
10x_cells_v2_CGAATGTAGCGTTCCG-10L8TX_171026_01_A04	2	1	2	2	1.2108702816604167	-0.0035705881024554196	10x_cells_v2
10x_cells_v2_CGAGAAGTCTATGTGG-10L8TX_171026_01_A04	2	1	3	7	4.919029181255721	-1.0465893323734896	10x_cells_v2
10x_cells_v2_CGTGTCTCAAACGCGA-10L8TX_171026_01_A04	2	1	2	2	1.543200433086826	1.8479902863815945	10x_cells_v2
10x_cells_v2_CGTGTCTGTGAGCGAT-10L8TX_171026_01_A04	2	1	2	2	1.0104897443501741	0.9769383295509461	10x_cells_v2
10x_cells_v2_GCATGATAGACTAAGT-10L8TX_171026_01_A04	2	1	2	2	2.0900474503403776	3.198213874738812	10x_cells_v2
10x_cells_v2_GCTGCGAAGTGGAGTC-10L8TX_171026_01_A04	1	1	3	5	6.024593502969007	-0.40313202880893967	10x_cells_v2
10x_cells_v2_GGATGTTAGCGATAGC-10L8TX_171026_01_A04	2	1	2	6	0.3823837069208072	-0.3699145235155798	10x_cells_v2
10x_cells_v2_GTTAAGCCAAGAAAGG-10L8TX_171026_01_A04	2	1	3	7	3.8093103958561683	0.2912497447079083	10x_cells_v2
10x_cells_v2_TGCTGCTCAGACTCGC-10L8TX_171026_01_A04	2	1	3	5	4.727473931861354	0.5504984345184376	10x_cells_v2
10x_cells_v2_TGGTTAGTCAGCGATT-10L8TX_171026_01_A04	2	1	3	7	5.461489457673028	0.13219299580528363	10x_cells_v2
10x_cells_v2_AACGTTGAGAGGTAGA-11L8TX_171026_01_C05	1	1	3	5	6.63631477256802	-1.6567153633050515	10x_cells_v2
10x_cells_v2_AAGGTTCCAAGCTGTT-11L8TX_171026_01_C05	2	1	3	7	4.796339982113836	-1.7610547737250941	10x_cells_v2
10x_cells_v2_AGCGTATCAGTAACGG-11L8TX_171026_01_C05	2	1	2	6	1.0250777083222593	-2.615014619204061	10x_cells_v2
10x_cells_v2_AGCTCCTGTGCGAAAC-11L8TX_171026_01_C05	2	1	2	6	1.3686563486335381	-1.4069382918485531	10x_cells_v2
10x_cells_v2_CACCAGGAGTGTGGCA-11L8TX_171026_01_C05	2	1	2	2	1.7060112214660996	-1.1365236506922152	10x_cells_v2
10x_cells_v2_CCAGCGATCTCAAACG-11L8TX_171026_01_C05	2	1	3	7	4.793712984300409	-1.9629918018105559	10x_cells_v2
10x_cells_v2_CGCTGGAGTTCCACAA-11L8TX_171026_01_C05	2	1	3	4	3.620491894169053	-3.7237644875778986	10x_cells_v2
10x_cells_v2_GAACGGACATCGTCGG-11L8TX_171026_01_C05	2	1	3	5	4.2612557228229235	0.3087834924786091	10x_cells_v2
10x_cells_v2_GACGTTATCCGTAGGC-11L8TX_171026_01_C05	2	1	3	4	1.7443007169389204	-1.423959479123813	10x_cells_v2
10x_cells_v2_GATCAGTAGGTTACCT-11L8TX_171026_01_C05	2	1	3	4	3.821834960532143	-2.8676948907581803	10x_cells_v2
10x_cells_v2_GATGAAAAGTGCCAGA-11L8TX_171026_01_C05	2	1	3	4	2.286427918390461	-2.0087216485311092	10x_cells_v2
10x_cells_v2_GCGCAGTAGCAGGTCA-11L8TX_171026_01_C05	2	1	2	6	1.1274584083466814	-2.237690344333441	10x_cells_v2
10x_cells_v2_GGCCGATCATATGCTG-11L8TX_171026_01_C05	2	1	3	4	3.105083248780096	-3.4800756180190264	10x_cells_v2
10x_cells_v2_GGCCGATGTTGGTGGA-11L8TX_171026_01_C05	2	1	3	4	3.4697896474744256	-2.2037149850397437	10x_cells_v2
10x_cells_v2_GTCATTTAGTGTGGCA-11L8TX_171026_01_C05	2	1	3	4	2.8591641909145395	-1.837466191708681	10x_cells_v2
10x_cells_v2_GTCCTCAAGGGCACTA-11L8TX_171026_01_C05	2	1	2	6	0.1111506786156969	-0.762758997359364	10x_cells_v2
10x_cells_v2_TGAGAGGGTGTTTGTG-11L8TX_171026_01_C05	2	1	2	6	0.003122454700952763	-0.8319896227092143	10x_cells_v2
10x_cells_v2_TTAGGACCACCATGTA-11L8TX_171026_01_C05	2	1	2	6	0.8083019158097955	-2.5666277990812407	10x_cells_v2
10x_cells_v2_TTGGCAAAGCTCCTTC-11L8TX_171026_01_C05	2	1	3	4	3.139898259182622	-3.471087912293721	10x_cells_v2
10x_cells_v2_TTTCCTCCATGCTGGC-11L8TX_171026_01_C05	2	1	3	7	4.524338505969565	-1.5903151807108458	10x_cells_v2
10x_cells_v2_AACTCAGAGCGGATCA-12L8TX_171026_01_D05	2	1	2	2	3.730094371640116	2.3176802995997807	10x_cells_v2
10x_cells_v2_AACTGGTGTACAGACG-12L8TX_171026_01_D05	2	1	2	6	0.7641516616462555	-1.3120833458934786	10x_cells_v2
10x_cells_v2_ACTGATGAGACTCGGA-12L8TX_171026_01_D05	2	1	3	4	3.626365547836704	-3.557768109864256	10x_cells_v2
10x_cells_v2_AGGCCGTGTACGACCC-12L8TX_171026_01_D05	2	1	2	6	1.000471363591506	-2.703990750565852	10x_cells_v2
10x_cells_v2_CCTCTGATCTCTGCTG-12L8TX_171026_01_D05	2	1	3	4	3.0146748723365366	-2.934675369366143	10x_cells_v2
10x_cells_v2_CGCGGTATCATCTGCC-12L8TX_171026_01_D05	2	1	2	6	1.6993182013349444	-0.9337648250080003	10x_cells_v2
10x_cells_v2_CGGACTGGTTGTCTTT-12L8TX_171026_01_D05	2	1	3	4	2.4581017897550477	-2.7652591356710565	10x_cells_v2
10x_cells_v2_CGTCCATAGCATGGCA-12L8TX_171026_01_D05	2	1	2	2	-0.593869312255094	1.4643475973138254	10x_cells_v2
10x_cells_v2_CGTGTAATCTTACCTA-12L8TX_171026_01_D05	2	1	3	4	2.7036736697606405	-3.225621904897612	10x_cells_v2
10x_cells_v2_CTACATTTCCCAGGTG-12L8TX_171026_01_D05	2	1	3	4	2.3221945628188925	-2.798058536095763	10x_cells_v2
10x_cells_v2_CTCAGAAAGACGCAAC-12L8TX_171026_01_D05	2	1	3	4	3.7513307227207773	-0.8996946494852408	10x_cells_v2
10x_cells_v2_CTGGTCTCATGGTCTA-12L8TX_171026_01_D05	2	1	3	7	4.908159058709347	-1.8160023074013887	10x_cells_v2
10x_cells_v2_CTTTGCGTCTTGCATT-12L8TX_171026_01_D05	2	1	2	6	1.6213177513937214	-1.1973511296004131	10x_cells_v2
10x_cells_v2_GCTTCCACAAGAAAGG-12L8TX_171026_01_D05	2	1	2	6	1.3899809240819905	-1.9089830227351638	10x_cells_v2
10x_cells_v2_GGTGAAGCATAGGATA-12L8TX_171026_01_D05	2	1	3	4	3.6837075224392595	-2.8573004788606853	10x_cells_v2
10x_cells_v2_GTATTCTCAAGAGGCT-12L8TX_171026_01_D05	2	1	3	4	3.8781729780207432	-2.9971104215204836	10x_cells_v2
10x_cells_v2_TGAGGGAAGACACGAC-12L8TX_171026_01_D05	2	1	2	2	0.04549334251083109	0.45488635298053676	10x_cells_v2
10x_cells_v2_TGGACGCAGGCCGAAT-12L8TX_171026_01_D05	2	1	2	2	-0.6727642156143407	1.7799517080632024	10x_cells_v2
10x_cells_v2_TTAGGCACAACACCCG-12L8TX_171026_01_D05	2	1	3	4	3.9841615129446497	-4.019900572097357	10x_cells_v2
10x_cells_v2_AAGTCTGGTTTACTCT-13L8TX_171026_01_E05	2	1	2	2	3.1645735268890673	1.7984100659349322	10x_cells_v2
10x_cells_v2_ACACCAAAGGCGACAT-13L8TX_171026_01_E05	2	1	2	6	1.105330297311809	-1.9689620104566907	10x_cells_v2
10x_cells_v2_ACACCAAGTCGCCATG-13L8TX_171026_01_E05	2	1	2	6	0.7199742310466025	-2.5761074739987206	10x_cells_v2
10x_cells_v2_ACACCAAGTGTTTGGT-13L8TX_171026_01_E05	2	1	2	6	0.8970002394715488	-0.4583559498380169	10x_cells_v2
10x_cells_v2_ACCGTAAGTTAAGACA-13L8TX_171026_01_E05	2	1	2	2	-0.1373347418720025	0.6866017484063696	10x_cells_v2
10x_cells_v2_ACCTTTAGTCTCAACA-13L8TX_171026_01_E05	2	1	2	2	-0.2700080007435987	2.0449669696739403	10x_cells_v2
10x_cells_v2_ACGCCAGTCCAAGCCG-13L8TX_171026_01_E05	2	1	2	6	0.9339120326377369	-2.177355134018578	10x_cells_v2
10x_cells_v2_AGAGCTTAGGTACTCT-13L8TX_171026_01_E05	2	1	2	6	0.5166049406062255	-0.9291233300500706	10x_cells_v2
10x_cells_v2_AGAGCTTTCTTAGCCC-13L8TX_171026_01_E05	2	1	2	2	2.3072022159321564	2.3816908395289373	10x_cells_v2
10x_cells_v2_AGCAGCCGTACAGACG-13L8TX_171026_01_E05	2	1	3	6	6.269623394744649	-1.560252284018445	10x_cells_v2
10x_cells_v2_AGGCCGTGTGGCCCTA-13L8TX_171026_01_E05	2	1	2	6	-0.03647585066342777	-0.1551699974087468	10x_cells_v2
10x_cells_v2_AGTGTCACACGTGAGA-13L8TX_171026_01_E05	2	1	2	2	1.3675146987132054	0.5804779678810406	10x_cells_v2
10x_cells_v2_ATGAGGGTCCACTGGG-13L8TX_171026_01_E05	2	1	3	6	6.156418059195106	-1.1896025062334135	10x_cells_v2
10x_cells_v2_CACCACTAGCGATCCC-13L8TX_171026_01_E05	2	1	2	6	0.47370592388052585	-2.194292612282924	10x_cells_v2
10x_cells_v2_CAGAGAGCAGCGTAAG-13L8TX_171026_01_E05	2	1	2	6	1.2401663349533136	-2.3526252917913504	10x_cells_v2
10x_cells_v2_CAGGTGCTCCGTACAA-13L8TX_171026_01_E05	2	1	3	4	3.059587905274374	-1.8413237484821594	10x_cells_v2
10x_cells_v2_CATATTCCACCGAAAG-13L8TX_171026_01_E05	2	1	2	6	0.3952713452392269	-1.5623492012733344	10x_cells_v2
10x_cells_v2_CATCAGAGTACCGAGA-13L8TX_171026_01_E05	2	1	3	5	5.788168606328347	-1.071274724140489	10x_cells_v2
10x_cells_v2_CATCGAACATGCCTAA-13L8TX_171026_01_E05	2	1	2	6	1.0883658500754223	-2.506898895263257	10x_cells_v2
10x_cells_v2_CCACCTATCACTTACT-13L8TX_171026_01_E05	2	1	3	4	3.610051343731712	-1.9974986303800262	10x_cells_v2
10x_cells_v2_CGGTTAAAGCTAGGCA-13L8TX_171026_01_E05	2	1	3	4	4.077689354214214	-2.7678043505834093	10x_cells_v2
10x_cells_v2_CGTGTCTCAATGTAAG-13L8TX_171026_01_E05	2	1	3	4	4.316118881132211	-2.2762456066504906	10x_cells_v2
10x_cells_v2_CTAACTTCAGACAGGT-13L8TX_171026_01_E05	2	1	2	2	-0.49602293733863273	1.5954739180690911	10x_cells_v2
10x_cells_v2_CTCGGAGGTATGGTTC-13L8TX_171026_01_E05	2	1	2	6	0.705597466098182	-0.6929499523607926	10x_cells_v2
10x_cells_v2_CTCGGGATCAAGAAGT-13L8TX_171026_01_E05	2	1	3	4	2.2825146144294317	-2.5760651510591868	10x_cells_v2
10x_cells_v2_CTCTACGCAATCAGAA-13L8TX_171026_01_E05	2	1	3	6	1.5049255243857973	-2.1938559078571727	10x_cells_v2
10x_cells_v2_CTGATCCGTGGCAAAC-13L8TX_171026_01_E05	2	1	3	4	3.770776556460277	-3.198771333272488	10x_cells_v2
10x_cells_v2_CTTAGGAAGAACAACT-13L8TX_171026_01_E05	2	1	3	4	3.909378793975092	-3.692824847761626	10x_cells_v2
10x_cells_v2_GAACATCGTTCATGGT-13L8TX_171026_01_E05	2	1	3	4	2.2064108917567715	-2.1193509898347753	10x_cells_v2
10x_cells_v2_GAAGCAGTCCACGACG-13L8TX_171026_01_E05	2	1	3	5	6.029660078639097	-0.21779858653026105	10x_cells_v2
10x_cells_v2_GCACTCTGTCCAAGTT-13L8TX_171026_01_E05	2	1	3	4	1.8227670211346854	-1.7423448312585719	10x_cells_v2
10x_cells_v2_GCATGTAAGCATGGCA-13L8TX_171026_01_E05	2	1	3	4	3.8189829523173815	-2.5596873249559597	10x_cells_v2
10x_cells_v2_GCATGTATCTATCGCC-13L8TX_171026_01_E05	2	1	2	2	-0.520002508886892	1.9124835354507332	10x_cells_v2
10x_cells_v2_GCTTGAATCAGCGACC-13L8TX_171026_01_E05	2	1	3	4	3.795769982967495	-1.788281211144145	10x_cells_v2
10x_cells_v2_GTCATTTCAAGCGCTC-13L8TX_171026_01_E05	2	1	2	2	-0.22118041989861656	1.7486645703779693	10x_cells_v2
10x_cells_v2_GTCGGGTTCATGTGGT-13L8TX_171026_01_E05	2	1	2	6	0.22545234485983598	-0.712015960780414	10x_cells_v2
10x_cells_v2_GTTCGGGGTTCAGTAC-13L8TX_171026_01_E05	2	1	2	2	-0.4392533856495419	1.6060190789846158	10x_cells_v2
10x_cells_v2_TAAACCGCATCCTAGA-13L8TX_171026_01_E05	2	1	2	6	0.02483820110357291	-0.5606629670950911	10x_cells_v2
10x_cells_v2_TACACGAGTACGCTGC-13L8TX_171026_01_E05	2	1	3	7	4.650327534540205	-1.577708326584446	10x_cells_v2
10x_cells_v2_TACTCGCCAGACAAGC-13L8TX_171026_01_E05	2	1	3	7	5.129244818654885	-1.6209375670840784	10x_cells_v2
10x_cells_v2_TGCCAAATCAGCTCGG-13L8TX_171026_01_E05	2	1	2	6	0.43826108557928606	-2.4582198177449244	10x_cells_v2
10x_cells_v2_TGCTACCGTCGGCATC-13L8TX_171026_01_E05	2	1	3	4	2.0511187119496235	-1.549223683231346	10x_cells_v2
10x_cells_v2_TGGACGCTCCATGAAC-13L8TX_171026_01_E05	2	1	2	2	0.6489030446470514	2.597607366365226	10x_cells_v2
10x_cells_v2_TGGGAAGAGTATTGGA-13L8TX_171026_01_E05	2	1	2	2	0.4782975368424232	2.4676149522947166	10x_cells_v2
10x_cells_v2_TGTGGTATCTCAAACG-13L8TX_171026_01_E05	2	1	2	6	0.6958738584496261	-2.6803470757376866	10x_cells_v2
10x_cells_v2_TTAACTCAGTTATCGC-13L8TX_171026_01_E05	2	1	2	6	0.41523589169437053	-1.1376773670828684	10x_cells_v2
10x_cells_v2_TTCCCAGAGACGCAAC-13L8TX_171026_01_E05	2	1	2	2	-0.08787987509066177	1.740815292290086	10x_cells_v2
10x_cells_v2_AACCGCGTCACTTATC-14L8TX_171026_01_F05	2	1	3	4	4.002959549069716	-2.575532357988221	10x_cells_v2
10x_cells_v2_ACCGTAACACACGCTG-14L8TX_171026_01_F05	2	1	3	5	4.343555396307927	1.7017203804897747	10x_cells_v2
10x_cells_v2_ATTGGTGGTGCGATAG-14L8TX_171026_01_F05	2	1	2	2	0.7255866463654227	-0.570325989501264	10x_cells_v2
10x_cells_v2_CAACCAATCGAGGTAG-14L8TX_171026_01_F05	2	1	2	2	-0.2205711391442949	1.2518131359975861	10x_cells_v2
10x_cells_v2_CATGCCTGTTGCGCAC-14L8TX_171026_01_F05	2	1	2	2	2.864538922943038	0.9531925447793523	10x_cells_v2
10x_cells_v2_CGACCTTTCTGCTGCT-14L8TX_171026_01_F05	2	1	3	4	3.912427737533748	-3.0436810037881656	10x_cells_v2
10x_cells_v2_CGGAGCTTCCCTAACC-14L8TX_171026_01_F05	2	1	2	6	1.1364410181999882	-1.7029879299836501	10x_cells_v2
10x_cells_v2_CGTCACTCATTAGGCT-14L8TX_171026_01_F05	2	1	3	7	4.943108393722505	-1.233891918013634	10x_cells_v2
10x_cells_v2_CGTTGGGAGATATACG-14L8TX_171026_01_F05	2	1	2	4	1.5368213016569534	-1.6974465446009546	10x_cells_v2
10x_cells_v2_CTAGTGATCCATGAAC-14L8TX_171026_01_F05	2	1	2	2	0.25180129051849115	0.5574242456902648	10x_cells_v2
10x_cells_v2_CTGAAGTAGACTAGAT-14L8TX_171026_01_F05	2	1	2	2	2.9262987584441706	0.6604891480645975	10x_cells_v2
10x_cells_v2_GAAACTCTCGACCAGC-14L8TX_171026_01_F05	2	1	3	5	4.968585661847249	1.6910192920509732	10x_cells_v2
10x_cells_v2_GACGGCTGTGTCGCTG-14L8TX_171026_01_F05	2	1	2	6	0.15290624736821487	-0.6590742534313743	10x_cells_v2
10x_cells_v2_GAGTCCGGTGATAAAC-14L8TX_171026_01_F05	2	1	2	6	0.6563788624748708	-2.0312293489358866	10x_cells_v2
10x_cells_v2_GATCAGTAGCGCTTAT-14L8TX_171026_01_F05	2	1	2	6	1.5835254521002704	-1.39400696525417	10x_cells_v2
10x_cells_v2_GCATGTATCCCTAATT-14L8TX_171026_01_F05	2	1	2	6	0.7959654072969413	-2.3018569289595106	10x_cells_v2
10x_cells_v2_GCCAAATAGATGCCAG-14L8TX_171026_01_F05	2	1	2	6	0.37735232716877587	-0.9711893021323741	10x_cells_v2
10x_cells_v2_GGGTCTGGTCCATGAT-14L8TX_171026_01_F05	2	1	3	5	4.199917030036281	-0.5054653204695659	10x_cells_v2
10x_cells_v2_GGGTCTGTCCCTCAGT-14L8TX_171026_01_F05	2	1	2	2	1.3140230546848122	1.9340034097866372	10x_cells_v2
10x_cells_v2_GGTATTGGTACATCCA-14L8TX_171026_01_F05	2	1	2	2	0.05348093891051672	0.20710254017278298	10x_cells_v2
10x_cells_v2_GTGAAGGAGTCGCCGT-14L8TX_171026_01_F05	2	1	2	6	0.6323516417507847	-2.4205967648413624	10x_cells_v2
10x_cells_v2_GTGGGTCTCCAGTATG-14L8TX_171026_01_F05	2	1	3	6	4.329978424836261	-0.9467918403278471	10x_cells_v2
10x_cells_v2_TAGAGCTCACTAGTAC-14L8TX_171026_01_F05	2	1	2	6	0.2020898499848049	-0.9617413813515328	10x_cells_v2
10x_cells_v2_TCAATCTTCGACCAGC-14L8TX_171026_01_F05	2	1	3	5	5.83865785834467	-0.45568550143938846	10x_cells_v2
10x_cells_v2_TCACAAGAGCCTATGT-14L8TX_171026_01_F05	2	1	2	2	0.9602242455078147	-0.1500717738681574	10x_cells_v2
10x_cells_v2_TCAGCAACAATGCCAT-14L8TX_171026_01_F05	2	1	2	6	0.4870394036689734	-2.4817971198884057	10x_cells_v2
10x_cells_v2_TGGCCAGTCTTACCTA-14L8TX_171026_01_F05	2	1	2	2	0.29884753211234294	1.0424198756851841	10x_cells_v2
10x_cells_v2_TGGTTCCGTGAACCTT-14L8TX_171026_01_F05	2	1	2	6	0.5851944527396366	-0.8267057107444411	10x_cells_v2
10x_cells_v2_TGTGTTTTCGAGAGCA-14L8TX_171026_01_F05	2	1	3	4	3.5574779987817644	-2.526072926133912	10x_cells_v2
10x_cells_v2_AAACGGGCACAGCGTC-15L8TX_171026_01_G05	2	1	2	6	0.47874009759426034	-1.3412539332281803	10x_cells_v2
10x_cells_v2_ACTGAACAGATAGCAT-15L8TX_171026_01_G05	2	1	3	4	2.8619725870015835	-2.2506151117802133	10x_cells_v2
10x_cells_v2_AGCAGCCCATTACGAC-15L8TX_171026_01_G05	2	1	2	6	0.6408170911239598	-2.289637044630382	10x_cells_v2
10x_cells_v2_CAGCTGGGTGAGGGTT-15L8TX_171026_01_G05	2	1	2	2	-0.026776244189398238	0.6253878852134406	10x_cells_v2
10x_cells_v2_CCTACCACAGACACTT-15L8TX_171026_01_G05	2	1	2	2	1.2435466611197927	1.906210001553291	10x_cells_v2
10x_cells_v2_CGGTTAACACAGCCCA-15L8TX_171026_01_G05	2	1	2	6	-0.015233264413318572	-0.8973353128314321	10x_cells_v2
10x_cells_v2_CGTGTAATCGCCTGTT-15L8TX_171026_01_G05	2	1	3	4	3.714315958658997	-0.8719799117447923	10x_cells_v2
10x_cells_v2_CTCGGGAAGCCACCTG-15L8TX_171026_01_G05	2	1	2	2	-0.05923063814862515	1.788962426944318	10x_cells_v2
10x_cells_v2_GGTGAAGAGTATGACA-15L8TX_171026_01_G05	2	1	3	7	4.734261723967617	-1.487036126075092	10x_cells_v2
10x_cells_v2_GTGTTAGAGCACGCCT-15L8TX_171026_01_G05	2	1	2	6	1.2125506360970448	-1.2607305514821021	10x_cells_v2
10x_cells_v2_TCAGGATAGACTAGGC-15L8TX_171026_01_G05	1	2	1	1	6.536795372743134	-2.449059764296034	10x_cells_v2
10x_cells_v2_TTATGCTTCGGAGCAA-15L8TX_171026_01_G05	2	1	3	4	4.5406920641346	-3.62651805352362	10x_cells_v2
10x_cells_v2_AAACCTGAGAGTCTGG-16L8TX_171026_01_H05	2	1	2	6	1.3583860393083433	-2.7220563593537186	10x_cells_v2
10x_cells_v2_AAACGGGCATGGGAAC-16L8TX_171026_01_H05	2	1	2	2	2.1473301149152397	1.4647730782477515	10x_cells_v2
10x_cells_v2_ACTATCTGTTCCAACA-16L8TX_171026_01_H05	2	1	2	6	1.692846634859775	-1.8560700304522735	10x_cells_v2
10x_cells_v2_AGATTGCCAGCGAACA-16L8TX_171026_01_H05	2	1	2	2	0.2564572106331406	1.5953639142166667	10x_cells_v2
10x_cells_v2_ATCTGCCTCCGTACAA-16L8TX_171026_01_H05	2	1	2	2	2.173563506288272	0.06693346153971898	10x_cells_v2
10x_cells_v2_CATATGGTCGCCATAA-16L8TX_171026_01_H05	2	1	3	4	2.0775423680792033	-1.162513305875062	10x_cells_v2
10x_cells_v2_CCCAATCCAGTATCTG-16L8TX_171026_01_H05	2	1	3	4	3.814149864623478	-1.4881456344861013	10x_cells_v2
10x_cells_v2_CCGTACTCACCTATCC-16L8TX_171026_01_H05	2	1	2	6	0.587089388542686	-1.7147568911594693	10x_cells_v2
10x_cells_v2_CCTACACAGCTCCTTC-16L8TX_171026_01_H05	2	1	3	4	3.320624848803456	-2.5271006503681854	10x_cells_v2
10x_cells_v2_CCTATTAGTTCGAATC-16L8TX_171026_01_H05	2	1	3	4	3.9529846927107464	-3.9242211685498956	10x_cells_v2
10x_cells_v2_CGAGAAGTCTACTATC-16L8TX_171026_01_H05	2	1	2	6	0.3473592683736378	-0.985861816841089	10x_cells_v2
10x_cells_v2_CGGAGCTGTATTAGCC-16L8TX_171026_01_H05	2	1	1	6	6.00982227942322	-2.0292225091347595	10x_cells_v2
10x_cells_v2_CGGTTAACAAAGCGGT-16L8TX_171026_01_H05	2	1	3	4	2.4941019916398806	-2.5255175650396025	10x_cells_v2
10x_cells_v2_GAATAAGAGATGGGTC-16L8TX_171026_01_H05	2	1	2	6	0.5329293194174541	-1.798158731195006	10x_cells_v2
10x_cells_v2_GATGAAATCGCTTAGA-16L8TX_171026_01_H05	2	1	2	6	0.26478249806761933	-0.4653882395876021	10x_cells_v2
10x_cells_v2_GCTGCAGGTACAAGTA-16L8TX_171026_01_H05	2	1	2	2	2.8408680714807404	0.6355399241787807	10x_cells_v2
10x_cells_v2_GGCGTGTGTACTTAGC-16L8TX_171026_01_H05	2	1	2	2	1.8650689672842495	0.0017417006305898296	10x_cells_v2
10x_cells_v2_GTTCATTTCATGGTCA-16L8TX_171026_01_H05	2	1	2	2	0.3313358158337863	1.9835647147826352	10x_cells_v2
10x_cells_v2_TACGGGCTCGTATCAG-16L8TX_171026_01_H05	2	1	2	2	1.526831226273955	2.215199765886275	10x_cells_v2
10x_cells_v2_TATGCCCCACCGGAAA-16L8TX_171026_01_H05	2	1	2	2	3.4451539154847333	2.8389147773687338	10x_cells_v2
10x_cells_v2_TGCGGGTTCATCACCC-16L8TX_171026_01_H05	2	1	2	2	2.9557423325519028	3.093865376790204	10x_cells_v2
10x_cells_v2_TGGCCAGGTCATCGGC-16L8TX_171026_01_H05	2	1	3	7	4.577951678542797	-1.566884590803154	10x_cells_v2
10x_cells_v2_TTCTCCTTCTCGCTTG-16L8TX_171026_01_H05	2	1	3	7	5.971987685984146	-1.708500875796287	10x_cells_v2
10x_cells_v2_ACACCGGAGCTGAACG-1L8TX_171026_01_F03	1	3	4	3	8.480723100204342	0.6826280105220307	10x_cells_v2
10x_cells_v2_AGCGTATCACCCTATC-1L8TX_171026_01_F03	1	3	4	3	10.537435793276027	1.4460993788324794	10x_cells_v2
10x_cells_v2_CACTCCACAAGGTGTG-1L8TX_171026_01_F03	1	3	4	3	8.215992141753757	1.6706862967059943	10x_cells_v2
10x_cells_v2_CCTCAGTTCCGCGGTA-1L8TX_171026_01_F03	1	3	4	3	7.804931422316455	-0.1050810135231808	10x_cells_v2
10x_cells_v2_CTTCTCTAGGCTATCT-1L8TX_171026_01_F03	1	3	4	3	7.631185029352179	-0.39740470896583624	10x_cells_v2
10x_cells_v2_GACGCGTAGACGCACA-1L8TX_171026_01_F03	1	3	4	3	8.913746927633419	0.4940380504580038	10x_cells_v2
10x_cells_v2_GATCGATGTGACGGTA-1L8TX_171026_01_F03	1	3	4	3	10.475657910783745	2.2885205204070047	10x_cells_v2
10x_cells_v2_GCATGATGTCGCTTCT-1L8TX_171026_01_F03	1	3	4	3	8.08767206697558	0.36063523630461364	10x_cells_v2
10x_cells_v2_GTACTCCAGCCACGTC-1L8TX_171026_01_F03	1	3	4	3	8.379212336094565	0.7679627386409785	10x_cells_v2
10x_cells_v2_TATTACCAGTTGTAGA-1L8TX_171026_01_F03	1	3	4	3	9.042390064189927	0.8593348470392423	10x_cells_v2
10x_cells_v2_ACGCCGATCCAATGGT-2L8TX_171026_01_G03	1	3	4	3	8.677938477618655	1.3033621054109168	10x_cells_v2
10x_cells_v2_ATCTACTAGCGTTGCC-2L8TX_171026_01_G03	1	1	3	5	5.830910080216363	-0.6373833168028727	10x_cells_v2
10x_cells_v2_GTCTCGTAGCTCCTTC-2L8TX_171026_01_G03	1	1	1	4	4.875225656463388	-4.139590424947034	10x_cells_v2
10x_cells_v2_AAACGGGTCCTGCAGG-3L8TX_171026_01_B04	1	3	4	3	10.811749984188157	1.8919926006825443	10x_cells_v2
10x_cells_v2_ATAACGCCAGGTCTCG-3L8TX_171026_01_B04	1	3	4	3	7.909548178081257	0.2876555379691323	10x_cells_v2
10x_cells_v2_CGTTAGAGTCTTCAAG-3L8TX_171026_01_B04	1	3	3	5	6.20636724612841	0.19757355117928735	10x_cells_v2
10x_cells_v2_CTGATCCCAAGTAGTA-3L8TX_171026_01_B04	1	3	4	3	8.797501698057976	1.9830960661897596	10x_cells_v2
10x_cells_v2_GGTGCGTAGCTAAGAT-3L8TX_171026_01_B04	1	3	4	3	9.261086554422967	2.7302980406598025	10x_cells_v2
10x_cells_v2_GTCTCGTGTACCGTAT-3L8TX_171026_01_B04	1	3	4	3	7.798653865109424	0.1395460946349354	10x_cells_v2
10x_cells_v2_TAGTTGGAGCACACAG-3L8TX_171026_01_B04	1	3	4	3	9.821848415229262	1.4341978799743345	10x_cells_v2
10x_cells_v2_AACTCTTTCGCCTGAG-4L8TX_171026_01_F04	1	3	4	3	8.287097154062419	1.3003194427465556	10x_cells_v2
10x_cells_v2_CACACTCAGAGCTGCA-4L8TX_171026_01_F04	1	3	4	3	7.4135153320077585	0.24054017298833635	10x_cells_v2
10x_cells_v2_CCGGTAGTCACCCGAG-4L8TX_171026_01_F04	1	1	1	4	4.795064219443806	-4.022677144060979	10x_cells_v2
10x_cells_v2_CGCTTCATCGTGACAT-4L8TX_171026_01_F04	1	3	4	3	8.580389177973172	2.7397610542208044	10x_cells_v2
10x_cells_v2_GGAAAGCGTGTGACGA-4L8TX_171026_01_F04	1	3	4	3	10.08163993158848	1.6522725093028718	10x_cells_v2
10x_cells_v2_TCTATTGGTACTCTCC-4L8TX_171026_01_F04	1	3	4	3	8.850531174925763	2.536290820258924	10x_cells_v2
10x_cells_v2_GACCAATTCCGCATCT-5L8TX_171026_01_G04	1	1	1	4	5.280277911694731	-3.6392164248606704	10x_cells_v2
10x_cells_v2_GCTCCTATCGTTGACA-5L8TX_171026_01_G04	1	3	4	3	9.443997317487929	0.5510400798084452	10x_cells_v2
10x_cells_v2_TCTATTGAGGCCATAG-5L8TX_171026_01_G04	1	3	4	3	9.10128042643429	0.4548195096282258	10x_cells_v2
10x_cells_v2_TTGCGTCAGAGTTGGC-5L8TX_171026_01_G04	1	3	4	3	7.234171397615086	1.0457338889856296	10x_cells_v2
10x_cells_v2_CATCGGGTCAGCTCTC-6L8TX_171026_01_B05	1	3	4	3	8.380245408308514	1.1382571681449938	10x_cells_v2
10x_cells_v2_CTCGTACTCATGTAGC-6L8TX_171026_01_B05	1	3	4	3	8.23835345111995	2.5669236544605467	10x_cells_v2
10x_cells_v2_GACGTTAAGAGTTGGC-6L8TX_171026_01_B05	1	3	3	5	6.712020084865612	1.44323552815957	10x_cells_v2
10x_cells_v2_GCTCTGTAGGACAGCT-6L8TX_171026_01_B05	1	3	4	3	7.756898396690749	0.24402501874633262	10x_cells_v2
10x_cells_v2_AAGGAGCCATCCGTGG-7L8TX_171026_01_H04	1	3	4	3	9.303276664364828	-0.0527586929269597	10x_cells_v2
10x_cells_v2_ACCCACTAGCGCTTAT-7L8TX_171026_01_H04	1	3	4	3	10.866410995719086	1.3493650328292872	10x_cells_v2
10x_cells_v2_ACGAGGATCATGTCCC-7L8TX_171026_01_H04	1	3	4	3	8.880876527260272	2.1473001113188634	10x_cells_v2
10x_cells_v2_ACGGGTCTCTTGCATT-7L8TX_171026_01_H04	1	3	3	5	6.8947023324569665	0.5595320206910361	10x_cells_v2
10x_cells_v2_ACTATCTTCAATAAGG-7L8TX_171026_01_H04	1	3	3	5	6.370842022127525	1.417529752966888	10x_cells_v2
10x_cells_v2_AGCGTCGTCGGCGCAT-7L8TX_171026_01_H04	1	3	4	3	8.316868597047995	0.9502292547520327	10x_cells_v2
10x_cells_v2_GGAAAGCGTGCAACGA-7L8TX_171026_01_H04	1	3	4	3	8.779863037343977	2.6925823558197557	10x_cells_v2
10x_cells_v2_GGCCGATCATTCACTT-7L8TX_171026_01_H04	1	3	4	3	9.926426332425168	1.0235394334525763	10x_cells_v2
10x_cells_v2_GTGCATAAGTTAACGA-7L8TX_171026_01_H04	1	1	3	5	5.998285543219671	-0.19072317099788572	10x_cells_v2
10x_cells_v2_TTTCCTCCACCCTATC-7L8TX_171026_01_H04	1	3	4	3	8.930681729376415	0.06023753272971371	10x_cells_v2
10x_cells_v2_AACGTTGGTACCGTAT-8L8TX_171026_01_A05	1	3	4	3	10.65090495522756	2.171857875398064	10x_cells_v2
10x_cells_v2_CCTTACGCAGATGAGC-8L8TX_171026_01_A05	1	3	4	3	8.203980834054795	2.1643863797964906	10x_cells_v2
10x_cells_v2_GTTACAGGTTGACGTT-8L8TX_171026_01_A05	1	3	4	3	10.667476983428124	2.1918137320653686	10x_cells_v2
10x_cells_v2_TTCTACACAAGTCTAC-8L8TX_171026_01_A05	1	3	4	3	9.010156672369055	2.8059553663203034	10x_cells_v2
10x_cells_v2_CGAGCCATCAAGATCC-9L8TX_171026_01_H03	1	3	4	3	8.785645251382606	0.034108439561653825	10x_cells_v2
10x_cells_v2_GAATAAGAGCGCTCCA-9L8TX_171026_01_H03	1	3	4	3	8.685814722372365	-0.08467450613089333	10x_cells_v2
10x_cells_v2_GCTGGGTTCAGCTGGC-9L8TX_171026_01_H03	1	3	4	3	8.732313522171522	0.1231648059158139	10x_cells_v2
10x_cells_v2_ACACTGAGTCCGCTGA-10L8TX_171026_01_A04	1	3	4	3	8.201604585622407	2.2386102816221554	10x_cells_v2
10x_cells_v2_CCGTGGAGTCTCGTTC-10L8TX_171026_01_A04	1	3	4	3	8.512350615635306	1.8901867242678791	10x_cells_v2
10x_cells_v2_CCTATTAAGTTTCCTT-10L8TX_171026_01_A04	1	3	4	3	8.484690353965	2.1678343087412246	10x_cells_v2
10x_cells_v2_GGAACTTCAGTCAGCC-10L8TX_171026_01_A04	1	3	4	3	8.073898876442655	0.7699453113597228	10x_cells_v2
10x_cells_v2_GTTTCTAAGAGTAAGG-10L8TX_171026_01_A04	1	3	4	3	8.673480320436987	2.716837243002435	10x_cells_v2
10x_cells_v2_TGTCCCACATGTCTCC-10L8TX_171026_01_A04	1	3	4	3	8.448739976664717	1.5272274576809277	10x_cells_v2
10x_cells_v2_AAACGGGTCTTCATGT-11L8TX_171026_01_C05	1	3	4	3	7.592887238897268	-0.36269912854779746	10x_cells_v2
10x_cells_v2_GGCGTGTTCGTTTAGG-11L8TX_171026_01_C05	1	3	4	3	7.491904263968244	-0.07177480100011495	10x_cells_v2
10x_cells_v2_GGTGAAGAGGCATGGT-11L8TX_171026_01_C05	1	2	1	1	6.220452399131661	-3.2344953348620193	10x_cells_v2
10x_cells_v2_TGGCGCATCCTTCAAT-11L8TX_171026_01_C05	2	1	3	4	3.929207702041299	-4.059997710033325	10x_cells_v2
10x_cells_v2_TTCCCAGCATTAACCG-11L8TX_171026_01_C05	2	1	3	4	4.078596519603635	-3.948457091632093	10x_cells_v2
10x_cells_v2_ATCCACCAGCTAAGAT-12L8TX_171026_01_D05	1	3	4	3	8.998331078639417	-0.22139014153156653	10x_cells_v2
10x_cells_v2_CGTGTAACAAGTTAAG-12L8TX_171026_01_D05	1	3	4	3	9.59217027042089	-0.2112785713478084	10x_cells_v2
10x_cells_v2_CTAGAGTAGTCCATAC-12L8TX_171026_01_D05	1	3	4	3	9.323142611491244	1.1720821878009664	10x_cells_v2
10x_cells_v2_GTCGTAACATTCCTGC-12L8TX_171026_01_D05	1	3	3	5	6.922112898641445	1.4827686959884718	10x_cells_v2
10x_cells_v2_TTCTCAATCAGAAATG-12L8TX_171026_01_D05	1	3	4	3	8.61247872316006	2.2208700095070943	10x_cells_v2
10x_cells_v2_AGGTCATTCAAAGACA-13L8TX_171026_01_E05	1	1	1	4	5.563991042626179	-5.0410803771748105	10x_cells_v2
10x_cells_v2_AGTGTCATCTAGAGTC-13L8TX_171026_01_E05	1	3	4	3	8.599313565564339	0.42549617884217217	10x_cells_v2
10x_cells_v2_ATTACTCCACTAAGTC-13L8TX_171026_01_E05	1	3	4	3	8.282691431183576	0.7578648716647607	10x_cells_v2
10x_cells_v2_CAACCAAAGGAGTCTG-13L8TX_171026_01_E05	1	3	4	3	7.323341722872277	-0.15017317469974628	10x_cells_v2
10x_cells_v2_CATTATCAGTTCGCGC-13L8TX_171026_01_E05	1	3	4	3	11.027308679973908	1.3072002897085528	10x_cells_v2
10x_cells_v2_CCGTACTCATCATCCC-13L8TX_171026_01_E05	1	3	4	3	10.942390859880158	1.8451921580208117	10x_cells_v2
10x_cells_v2_CGTAGGCAGACTTTCG-13L8TX_171026_01_E05	1	3	4	3	10.646255677710109	1.0710049565295567	10x_cells_v2
10x_cells_v2_CTCGGGACACCACCAG-13L8TX_171026_01_E05	1	1	3	5	6.536197508843638	-0.6420450863082924	10x_cells_v2
10x_cells_v2_CTTCTCTAGACACTAA-13L8TX_171026_01_E05	1	3	4	3	8.809317902554959	2.365548868710804	10x_cells_v2
10x_cells_v2_GATCTAGAGCGGCTTC-13L8TX_171026_01_E05	1	3	4	3	9.68920974181554	0.6487602519332917	10x_cells_v2
10x_cells_v2_GCACTCTCAATAGCAA-13L8TX_171026_01_E05	1	3	4	3	7.765325262811558	-0.13232438958401552	10x_cells_v2
10x_cells_v2_GCGCAACCACCAGCAC-13L8TX_171026_01_E05	1	2	1	1	6.634642582225908	-4.7829529153131665	10x_cells_v2
10x_cells_v2_GTCACGGAGTTGAGAT-13L8TX_171026_01_E05	1	3	4	3	9.418377616791515	0.05856774770898251	10x_cells_v2
10x_cells_v2_GTCACGGTCGTTGCCT-13L8TX_171026_01_E05	1	3	4	3	11.096117159720736	1.5116226811213525	10x_cells_v2
10x_cells_v2_GTCGGGTTCACTGGGC-13L8TX_171026_01_E05	1	3	4	3	10.752476182148747	1.817040970077117	10x_cells_v2
10x_cells_v2_TAGGCATCAGCTGCTG-13L8TX_171026_01_E05	1	1	3	5	6.456641336937635	-0.3830590662225607	10x_cells_v2
10x_cells_v2_ACCGTAATCCGAGCCA-14L8TX_171026_01_F05	1	3	4	3	8.698402996254393	2.2934982872801157	10x_cells_v2
10x_cells_v2_ACGCAGCTCTGGTTCC-14L8TX_171026_01_F05	1	3	4	3	8.132831069956044	0.8205470994214223	10x_cells_v2
10x_cells_v2_AGAGCTTCAGCTATTG-14L8TX_171026_01_F05	1	3	4	3	10.983340652026126	1.5490773633707944	10x_cells_v2
10x_cells_v2_CGGCTAGCATCCCATC-14L8TX_171026_01_F05	1	3	4	3	11.1504677119947	1.692989773603412	10x_cells_v2
10x_cells_v2_CGGGTCAGTGATGTCT-14L8TX_171026_01_F05	1	3	4	3	10.950154310571646	1.6222441976934205	10x_cells_v2
10x_cells_v2_CGTTGGGTCTTGTATC-14L8TX_171026_01_F05	1	3	4	3	8.83722769376872	1.909966875354265	10x_cells_v2
10x_cells_v2_GACGTTACAGGAATGC-14L8TX_171026_01_F05	1	3	4	3	9.359542913429879	0.23240312419536588	10x_cells_v2
10x_cells_v2_GCAGCCAAGGCTATCT-14L8TX_171026_01_F05	1	3	4	4	9.015633886554324	-0.5467224905547249	10x_cells_v2
10x_cells_v2_GCGACCATCGCTGATA-14L8TX_171026_01_F05	1	3	3	3	6.526191484256018	0.006191371541579891	10x_cells_v2
10x_cells_v2_GGGAATGGTAACGCGA-14L8TX_171026_01_F05	1	3	4	3	8.903562979042912	1.2555271601028988	10x_cells_v2
10x_cells_v2_GTACTTTAGACCGGAT-14L8TX_171026_01_F05	2	1	3	5	5.090260351633109	0.37227713045270217	10x_cells_v2
10x_cells_v2_TCCCGATTCACTTACT-14L8TX_171026_01_F05	1	3	4	3	10.76505643144951	1.368925483728132	10x_cells_v2
10x_cells_v2_TTTCCTCGTTGAGGTG-14L8TX_171026_01_F05	1	3	4	3	8.767492762828377	-0.6795050046581393	10x_cells_v2
10x_cells_v2_AATCCAGCATGCTGGC-15L8TX_171026_01_G05	2	1	3	4	3.902649594373978	-0.3406526863402888	10x_cells_v2
10x_cells_v2_GGCAATTGTAGCGTCC-15L8TX_171026_01_G05	1	3	4	3	10.614021949144457	1.9323950184596785	10x_cells_v2
10x_cells_v2_GGGCATCCAAAGGCGT-15L8TX_171026_01_G05	1	3	4	3	8.702240921818477	1.8183940560390275	10x_cells_v2
10x_cells_v2_GGGTCTGTCATGGTCA-15L8TX_171026_01_G05	1	1	3	5	6.594894658331325	-0.7110635057355195	10x_cells_v2
10x_cells_v2_CTGATAGTCGCCATAA-16L8TX_171026_01_H05	1	3	4	3	10.449847427740474	1.6817714285280883	10x_cells_v2
10x_cells_v2_GCCAAATAGGACGAAA-16L8TX_171026_01_H05	1	2	1	1	7.106559729167888	-3.1475946561500168	10x_cells_v2
10x_cells_v2_TCTATTGCACCAGATT-16L8TX_171026_01_H05	1	3	3	5	6.928231426585456	0.024623330793813854	10x_cells_v2
10x_cells_v2_TTCTACACAGGCAGTA-16L8TX_171026_01_H05	1	3	4	3	9.418523833968962	1.9136019834535682	10x_cells_v2
10x_cells_v2_ACTGTCCCACGGCTAC-1L8TX_171026_01_F03	1	2	1	1	9.10874842203013	-4.30610704034611	10x_cells_v2
10x_cells_v2_CCCAATCGTGTAATGA-1L8TX_171026_01_F03	1	2	1	1	6.262133831418946	-3.8697691451101184	10x_cells_v2
10x_cells_v2_CCCTCCTAGAACTCGG-1L8TX_171026_01_F03	1	2	1	1	9.015145276725152	-4.795729358848751	10x_cells_v2
10x_cells_v2_GATTCAGTCCTAGTGA-1L8TX_171026_01_F03	1	2	1	1	8.806845237555006	-3.38725802272702	10x_cells_v2
10x_cells_v2_GCGGGTTAGGCCCTCA-1L8TX_171026_01_F03	1	2	1	1	8.579733921088192	-3.564591888732673	10x_cells_v2
10x_cells_v2_GGGACCTCAGGTGCCT-1L8TX_171026_01_F03	1	2	1	1	7.131186653734411	-3.3619992340714715	10x_cells_v2
10x_cells_v2_TGGCCAGGTAGCGATG-1L8TX_171026_01_F03	1	2	1	1	9.737488919316469	-4.035915445661134	10x_cells_v2
10x_cells_v2_TGGGCGTTCTGTTTGT-1L8TX_171026_01_F03	1	2	1	7	6.5460205291903355	-1.2233049948180064	10x_cells_v2
10x_cells_v2_TTGGAACCAGACGTAG-1L8TX_171026_01_F03	1	2	1	1	9.29541687831385	-5.375771647009028	10x_cells_v2
10x_cells_v2_ACCTTTAAGTTATCGC-2L8TX_171026_01_G03	1	2	1	1	7.000492415686593	-4.855978219663246	10x_cells_v2
10x_cells_v2_ACTATCTGTAACGCGA-2L8TX_171026_01_G03	1	2	1	1	8.036700611966886	-4.0061274345614075	10x_cells_v2
10x_cells_v2_AGTAGTCCATGCTAGT-2L8TX_171026_01_G03	1	2	1	1	9.25981846671226	-5.520208123180223	10x_cells_v2
10x_cells_v2_CACAGTAGTAAGTAGT-2L8TX_171026_01_G03	1	2	1	1	9.469043268495104	-5.112787959723824	10x_cells_v2
10x_cells_v2_CTAGTGACATGCAACT-2L8TX_171026_01_G03	1	2	1	1	7.79066670179577	-2.174719634848415	10x_cells_v2
10x_cells_v2_GTAGGCCTCGTTACAG-2L8TX_171026_01_G03	1	1	1	4	4.931936163217538	-4.74383232519245	10x_cells_v2
10x_cells_v2_GTGCGGTAGACTACAA-2L8TX_171026_01_G03	1	2	1	1	8.056179628620486	-3.196232362793611	10x_cells_v2
10x_cells_v2_TCTGAGAAGCTAAACA-2L8TX_171026_01_G03	1	2	1	1	7.795393005291544	-2.4641351174458572	10x_cells_v2
10x_cells_v2_TGCGTGGGTACAGTTC-2L8TX_171026_01_G03	1	2	1	1	9.51594390445612	-3.48490992311921	10x_cells_v2
10x_cells_v2_TTTGTCAAGTTCCACA-2L8TX_171026_01_G03	1	2	1	1	9.64428863730462	-3.6304776098809	10x_cells_v2
10x_cells_v2_ACTTGTTTCGGAGCAA-3L8TX_171026_01_B04	1	2	1	1	6.363245079515166	-3.304859061086715	10x_cells_v2
10x_cells_v2_ATTACTCAGTCAATAG-3L8TX_171026_01_B04	1	2	1	1	9.329309297195959	-3.6621172820826904	10x_cells_v2
10x_cells_v2_CAGTAACAGCTACCTA-3L8TX_171026_01_B04	1	2	1	1	7.384912562614353	-2.991052191226816	10x_cells_v2
10x_cells_v2_CGCTATCCATATGCTG-3L8TX_171026_01_B04	1	2	1	1	7.364043510144926	-1.9417705145870283	10x_cells_v2
10x_cells_v2_CTCCTAGCAAGAAAGG-3L8TX_171026_01_B04	1	2	1	1	9.8542843954414	-4.678109716771105	10x_cells_v2
10x_cells_v2_GACGCGTGTGGCCCTA-3L8TX_171026_01_B04	1	2	1	1	8.397716600555892	-3.4489515748741417	10x_cells_v2
10x_cells_v2_GCATGATGTTAGAACA-3L8TX_171026_01_B04	1	2	1	1	9.064249315257047	-2.6289420433481316	10x_cells_v2
10x_cells_v2_GCATGCGTCTAACTCT-3L8TX_171026_01_B04	1	2	1	1	6.501133468387372	-3.2189531372550433	10x_cells_v2
10x_cells_v2_TAGACCACAGTAAGAT-3L8TX_171026_01_B04	1	1	1	4	5.208793398239952	-4.904862669799549	10x_cells_v2
10x_cells_v2_TGTTCCGCAGTCACTA-3L8TX_171026_01_B04	1	2	1	1	7.161693990396853	-2.203200898792869	10x_cells_v2
10x_cells_v2_TTCTTAGGTGAGGCTA-3L8TX_171026_01_B04	1	2	1	1	8.601820509348991	-2.7129835001274563	10x_cells_v2
10x_cells_v2_ACATCAGTCAGAAATG-4L8TX_171026_01_F04	1	2	1	1	8.854831596261164	-5.153034909333141	10x_cells_v2
10x_cells_v2_ACGAGGAAGTTATCGC-4L8TX_171026_01_F04	1	2	1	1	7.365422496863188	-2.7700181259761454	10x_cells_v2
10x_cells_v2_ACGGGCTTCTCACATT-4L8TX_171026_01_F04	1	2	1	1	8.321884953444288	-3.57461173929404	10x_cells_v2
10x_cells_v2_GATGAAATCTCTTGAT-4L8TX_171026_01_F04	1	2	1	1	9.918854737627724	-3.945555098025099	10x_cells_v2
10x_cells_v2_GTCACAAAGAGGTTGC-4L8TX_171026_01_F04	1	2	1	1	8.928619022771787	-5.334791481124289	10x_cells_v2
10x_cells_v2_TACTCGCCAAGTTAAG-4L8TX_171026_01_F04	1	2	1	1	10.029724394277721	-4.2361585209748585	10x_cells_v2
10x_cells_v2_ATCATGGGTCAATACC-5L8TX_171026_01_G04	1	2	1	1	9.605098426816042	-4.106900873139139	10x_cells_v2
10x_cells_v2_CACACAAGTGGCTCCA-5L8TX_171026_01_G04	1	2	1	1	7.03224728485441	-0.3685344982980647	10x_cells_v2
10x_cells_v2_GGGCACTCAGATCTGT-5L8TX_171026_01_G04	1	2	1	1	9.698424199119097	-1.413818008263222	10x_cells_v2
10x_cells_v2_AAAGTAGAGATATGGT-6L8TX_171026_01_B05	1	2	1	1	9.400447937525017	-4.114678051274775	10x_cells_v2
10x_cells_v2_CAGCATACACAAGACG-6L8TX_171026_01_B05	1	2	1	1	9.716927959679216	-4.516585618841334	10x_cells_v2
10x_cells_v2_CATATGGTCGGATGGA-6L8TX_171026_01_B05	1	2	1	1	9.818932445216012	-4.168180899300173	10x_cells_v2
10x_cells_v2_TCAGCAATCGGTTAAC-6L8TX_171026_01_B05	1	2	1	1	8.961834673923159	-3.2932776108292576	10x_cells_v2
10x_cells_v2_ACATGGTTCCATGCTC-7L8TX_171026_01_H04	1	2	1	1	9.56195413517221	-5.200491631634132	10x_cells_v2
10x_cells_v2_CATTATCTCCACGACG-7L8TX_171026_01_H04	1	2	1	1	9.16464768171174	-3.132840847236063	10x_cells_v2
10x_cells_v2_CCTACACAGGGATGGG-7L8TX_171026_01_H04	1	2	1	1	8.75815513379726	-2.65612803234052	10x_cells_v2
10x_cells_v2_CTTGGCTTCTCACATT-7L8TX_171026_01_H04	1	2	1	1	9.467054181039844	-3.8254229709387766	10x_cells_v2
10x_cells_v2_GCATGCGAGGCTAGCA-7L8TX_171026_01_H04	1	2	1	1	7.581342272161122	-2.587391022016994	10x_cells_v2
10x_cells_v2_GGTGAAGCAAGAGGCT-7L8TX_171026_01_H04	1	2	1	1	9.137903823118158	-3.247326919843879	10x_cells_v2
10x_cells_v2_GTGCAGCTCTGCAGTA-7L8TX_171026_01_H04	1	2	1	1	9.742786253564521	-3.2117124424105614	10x_cells_v2
10x_cells_v2_TACTCATAGTGTGAAT-7L8TX_171026_01_H04	1	1	1	4	5.128892295747306	-4.093967743275649	10x_cells_v2
10x_cells_v2_TACTCGCGTCTCACCT-7L8TX_171026_01_H04	1	2	1	1	9.613178227577066	-3.962049685158271	10x_cells_v2
10x_cells_v2_TCTTCGGCAGACTCGC-7L8TX_171026_01_H04	1	2	1	1	8.3097120524784	-1.8978640135502896	10x_cells_v2
10x_cells_v2_TGCTGCTGTCGCGAAA-7L8TX_171026_01_H04	1	2	1	1	9.309392108527112	-5.211423941193056	10x_cells_v2
10x_cells_v2_AAATGCCAGTACGACG-8L8TX_171026_01_A05	1	2	1	1	8.958672304815364	-4.325950542785806	10x_cells_v2
10x_cells_v2_ACGGGCTTCATCATTC-8L8TX_171026_01_A05	1	2	1	1	9.450497348649561	-2.0276202055698316	10x_cells_v2
10x_cells_v2_ATTGGACAGACTGGGT-8L8TX_171026_01_A05	1	2	1	1	7.686021048943618	-2.9049228462099803	10x_cells_v2
10x_cells_v2_GACAGAGCAACCGCCA-8L8TX_171026_01_A05	1	2	1	1	9.686862215388487	-2.3933607558306043	10x_cells_v2
10x_cells_v2_GCATACAAGCCAGTTT-8L8TX_171026_01_A05	1	2	1	1	9.422901651544246	-4.872412352193695	10x_cells_v2
10x_cells_v2_GGTATTGAGGTCGGAT-8L8TX_171026_01_A05	1	2	1	1	7.572879944412368	-1.503342223460668	10x_cells_v2
10x_cells_v2_GTCTTCGGTACCGCTG-8L8TX_171026_01_A05	1	2	1	1	9.553222252923625	-5.166907704287805	10x_cells_v2
10x_cells_v2_TCAGATGTCCCAACGG-8L8TX_171026_01_A05	1	2	1	1	9.180665819757516	-2.8366065117458734	10x_cells_v2
10x_cells_v2_AGACGTTAGCCGGTAA-9L8TX_171026_01_H03	1	2	1	1	7.2104086364225495	-1.7779585205835393	10x_cells_v2
10x_cells_v2_AGTTGGTCACGCATCG-9L8TX_171026_01_H03	1	2	1	1	7.7012388127454185	-1.9027059541588929	10x_cells_v2
10x_cells_v2_CACATAGTCACTGGGC-9L8TX_171026_01_H03	1	2	1	1	6.797891371164618	-4.222332990282048	10x_cells_v2
10x_cells_v2_CAGCCGACACAAGTAA-9L8TX_171026_01_H03	1	2	1	1	6.417414800425024	-3.46748552124592	10x_cells_v2
10x_cells_v2_CAGCTGGCATACGCCG-9L8TX_171026_01_H03	1	2	1	1	7.206149536731815	-5.144430558442925	10x_cells_v2
10x_cells_v2_GAAACTCGTGCCTGTG-9L8TX_171026_01_H03	1	2	1	1	9.216796286560955	-3.8893204873198997	10x_cells_v2
10x_cells_v2_GGATTACCAGCGTAAG-9L8TX_171026_01_H03	1	2	1	1	6.9851753161178065	-3.0395704907568466	10x_cells_v2
10x_cells_v2_GGGACCTTCGACAGCC-9L8TX_171026_01_H03	1	2	1	1	9.049114526310147	-5.2140042338797565	10x_cells_v2
10x_cells_v2_GTCCTCACAGGGCATA-9L8TX_171026_01_H03	1	2	1	1	6.23914365704889	-3.5794732731358714	10x_cells_v2
10x_cells_v2_TTCGGTCAGACGACGT-9L8TX_171026_01_H03	1	2	1	1	6.987978824864614	-4.27850863648902	10x_cells_v2
10x_cells_v2_AAAGATGAGGTTACCT-10L8TX_171026_01_A04	1	2	1	1	7.396568722712189	-2.4319917596741214	10x_cells_v2
10x_cells_v2_AACTTTCAGTTTGCGT-10L8TX_171026_01_A04	1	2	1	1	7.542425571558132	-2.6179401020750164	10x_cells_v2
10x_cells_v2_AACTTTCCATCATCCC-10L8TX_171026_01_A04	1	2	1	1	9.738029639861736	-3.3823809871411954	10x_cells_v2
10x_cells_v2_AATCCAGGTCCATCCT-10L8TX_171026_01_A04	1	2	1	1	9.109707915111505	-4.559501021898685	10x_cells_v2
10x_cells_v2_GCATGTATCTGCCCTA-10L8TX_171026_01_A04	1	2	1	1	8.863429829362916	-3.044273225589909	10x_cells_v2
10x_cells_v2_GGGTCTGAGCACGCCT-10L8TX_171026_01_A04	1	2	1	1	9.051857181555944	-3.097926446784613	10x_cells_v2
10x_cells_v2_ACTGTCCCAGACGCCT-11L8TX_171026_01_C05	1	2	1	1	7.5900875630959135	-3.2200456385145886	10x_cells_v2
10x_cells_v2_ACTTACTGTTGAACTC-11L8TX_171026_01_C05	1	2	1	1	6.316719947813894	-3.5418091589952083	10x_cells_v2
10x_cells_v2_CAAGGCCCAAGTTAAG-11L8TX_171026_01_C05	1	1	1	4	5.588164980934714	-5.1450962418020145	10x_cells_v2
10x_cells_v2_CGCTATCCAGGTTTCA-11L8TX_171026_01_C05	1	1	1	4	5.60102315770962	-5.108251641455937	10x_cells_v2
10x_cells_v2_CGTCTACTCTAGAGTC-11L8TX_171026_01_C05	1	2	1	1	7.132564164041503	-4.59573891096078	10x_cells_v2
10x_cells_v2_GCAGCCAAGGGTTCCC-11L8TX_171026_01_C05	1	2	1	1	6.3704982122519676	-4.209170268438642	10x_cells_v2
10x_cells_v2_GGACAGACATCGTCGG-11L8TX_171026_01_C05	1	2	1	1	6.20280130410301	-4.99365464101696	10x_cells_v2
10x_cells_v2_GTACTCCTCCTCTAGC-11L8TX_171026_01_C05	1	2	1	1	7.334298210352507	-1.935712163473419	10x_cells_v2
10x_cells_v2_GTAGGCCAGGCTACGA-11L8TX_171026_01_C05	1	2	1	1	6.608683855127268	-3.7017174716254244	10x_cells_v2
10x_cells_v2_TACCTATTCAACACGT-11L8TX_171026_01_C05	1	2	1	1	7.102260594705979	-4.634299293998411	10x_cells_v2
10x_cells_v2_CCTACCACATGGATGG-12L8TX_171026_01_D05	1	2	1	1	7.135661448003851	-3.7378683874942062	10x_cells_v2
10x_cells_v2_CGCGGTAGTTCCAACA-12L8TX_171026_01_D05	1	2	1	1	6.7967910439261985	-3.578838384357163	10x_cells_v2
10x_cells_v2_GCCTCTATCGCATGGC-12L8TX_171026_01_D05	1	1	1	4	5.544661826365662	-4.844049010241956	10x_cells_v2
10x_cells_v2_GCTCCTAAGAGTGACC-12L8TX_171026_01_D05	1	2	1	1	7.0196199956733105	-4.461826260849269	10x_cells_v2
10x_cells_v2_TGGACGCCACAACGCC-12L8TX_171026_01_D05	1	2	1	7	6.987496087058508	-1.821004203650401	10x_cells_v2
10x_cells_v2_AAAGCAAAGAGACGAA-13L8TX_171026_01_E05	1	2	1	1	7.553575930085954	-3.304535301061919	10x_cells_v2
10x_cells_v2_AGAATAGCACTGTGTA-13L8TX_171026_01_E05	1	2	1	1	7.594929188899302	-3.8558379033416363	10x_cells_v2
10x_cells_v2_AGCATACGTCTGCAAT-13L8TX_171026_01_E05	1	2	1	1	7.257872698702613	-3.8400995238929236	10x_cells_v2
10x_cells_v2_CATATTCCAGCTCCGA-13L8TX_171026_01_E05	1	1	1	4	4.738471477161582	-4.4638913910423295	10x_cells_v2
10x_cells_v2_CATCCACAGCAACGGT-13L8TX_171026_01_E05	1	2	1	1	7.6925601922424605	-2.741702325728926	10x_cells_v2
10x_cells_v2_CCCTCCTAGTGAATTG-13L8TX_171026_01_E05	1	2	1	1	7.94938422579512	-3.365518212130988	10x_cells_v2
10x_cells_v2_CCTTCCCGTCATATCG-13L8TX_171026_01_E05	1	2	1	1	7.45810690509954	-3.9474731980706563	10x_cells_v2
10x_cells_v2_CGAACATCAGTCGTGC-13L8TX_171026_01_E05	1	2	1	1	7.036562034002145	-4.859083216950496	10x_cells_v2
10x_cells_v2_CGACCTTGTTCCACGG-13L8TX_171026_01_E05	1	2	1	1	7.275428084141867	-4.173884599715249	10x_cells_v2
10x_cells_v2_CGGAGCTAGCCACGCT-13L8TX_171026_01_E05	1	1	1	4	5.118927759242955	-4.687100082419859	10x_cells_v2
10x_cells_v2_CGTGTCTGTTAAAGAC-13L8TX_171026_01_E05	1	1	1	4	5.352452377846213	-4.962763691700318	10x_cells_v2
10x_cells_v2_CTCGTCAAGCCTCGTG-13L8TX_171026_01_E05	1	2	1	1	6.5518102461431935	-3.2100950024813866	10x_cells_v2
10x_cells_v2_GAAGCAGTCTATCCCG-13L8TX_171026_01_E05	1	2	1	1	7.474669177599104	-3.6705447819783807	10x_cells_v2
10x_cells_v2_GACGGCTCATGACGGA-13L8TX_171026_01_E05	1	2	1	1	7.225770164582901	-4.734923838769843	10x_cells_v2
10x_cells_v2_GACTGCGGTCGCGAAA-13L8TX_171026_01_E05	1	2	1	1	7.711429821474028	-4.404044117850167	10x_cells_v2
10x_cells_v2_GAGTCCGAGGTGTTAA-13L8TX_171026_01_E05	1	2	1	1	8.504577233462358	-3.2415422085137933	10x_cells_v2
10x_cells_v2_GATCGTATCCGTCAAA-13L8TX_171026_01_E05	1	1	1	4	5.173607938072498	-4.715005998964889	10x_cells_v2
10x_cells_v2_GATGCTATCCTCTAGC-13L8TX_171026_01_E05	1	2	1	1	8.336443124335428	-2.645705387278162	10x_cells_v2
10x_cells_v2_GCGCAACTCAGTTAGC-13L8TX_171026_01_E05	1	2	1	1	7.811837325398066	-4.096963430442971	10x_cells_v2
10x_cells_v2_GGTGTTACATGCCTTC-13L8TX_171026_01_E05	1	2	1	1	7.5780138658663345	-2.5888779202545193	10x_cells_v2
10x_cells_v2_TGAGGGAAGGCCATAG-13L8TX_171026_01_E05	1	1	1	4	5.537677702036006	-4.96845941892204	10x_cells_v2
10x_cells_v2_TGGCTGGTCACGCATA-13L8TX_171026_01_E05	1	2	3	7	6.136855498118321	-1.7168481761673697	10x_cells_v2
10x_cells_v2_TGTGGTATCCTCATTA-13L8TX_171026_01_E05	1	2	1	1	6.7948723421883495	-1.8979285379896422	10x_cells_v2
10x_cells_v2_TTAGGCATCCAGGGCT-13L8TX_171026_01_E05	1	2	1	1	7.306115241399747	-4.711071020653766	10x_cells_v2
10x_cells_v2_ACACCGGAGAGTGAGA-14L8TX_171026_01_F05	1	2	1	1	6.8867654450865246	-5.112482149824451	10x_cells_v2
10x_cells_v2_ACGAGGATCCCAGGTG-14L8TX_171026_01_F05	1	2	1	1	8.795601770715558	-2.9640927352994577	10x_cells_v2
10x_cells_v2_CAGCTGGGTTTGACTG-14L8TX_171026_01_F05	1	2	1	1	6.695845249071833	-3.7529234893284507	10x_cells_v2
10x_cells_v2_CATATTCGTGGAAAGA-14L8TX_171026_01_F05	1	2	1	7	7.29885003211977	-1.4574383179235018	10x_cells_v2
10x_cells_v2_CGACTTCTCTGATTCT-14L8TX_171026_01_F05	1	1	1	4	5.825709995722636	-5.089182713342549	10x_cells_v2
10x_cells_v2_CGAGCACAGACTTGAA-14L8TX_171026_01_F05	1	2	1	4	6.227413096463263	-4.843531117900125	10x_cells_v2
10x_cells_v2_CTAAGACAGTTCGATC-14L8TX_171026_01_F05	1	1	1	4	5.903416844184474	-5.269604921714659	10x_cells_v2
10x_cells_v2_CTTGGCTCAAGTAGTA-14L8TX_171026_01_F05	1	2	1	1	7.8329640080307295	-3.879675424832716	10x_cells_v2
10x_cells_v2_GACGTGCAGATCGGGT-14L8TX_171026_01_F05	1	2	1	1	6.673575740358221	-5.294304680886318	10x_cells_v2
